%
O1001
(T1 D=6. CR=0. - ZMIN=-18.5 - FLAT END MILL)
N10 G90 G94 G17 G49 G40 G80
N15 G21
N20 G28 G91 Z0.
N25 G90

(2D POCKET1)
N30 T1 M06
N35 S10000 M03
N40 G54
N45 G00 X1046.072 Y301.928
N50 G43 Z15. H01
N55 G00 Z5.
N60 G01 Z3.1 F333.
N65 X1046.098 Y301.94 Z2.918 F1500.
N70 X1046.17 Y301.979 Z2.754
N75 X1046.28 Y302.042 Z2.622
N80 X1046.416 Y302.13 Z2.534
N85 X1046.561 Y302.237 Z2.5
N90 G03 X1047.08 Y302.768 Z2.474 I-1.761 J2.241
N95 X1042.52 Y306.188 Z2.161 I-2.28 J1.71
N100 X1047.08 Y302.768 Z1.849 I2.28 J-1.71
N105 X1042.52 Y306.188 Z1.536 I-2.28 J1.71
N110 X1047.08 Y302.768 Z1.223 I2.28 J-1.71
N115 X1042.52 Y306.188 Z0.911 I-2.28 J1.71
N120 X1047.08 Y302.768 Z0.598 I2.28 J-1.71
N125 X1042.52 Y306.188 Z0.285 I-2.28 J1.71
N130 X1047.08 Y302.768 Z-0.027 I2.28 J-1.71
N135 X1042.52 Y306.188 Z-0.34 I-2.28 J1.71
N140 X1047.08 Y302.768 Z-0.653 I2.28 J-1.71
N145 X1042.52 Y306.188 Z-0.965 I-2.28 J1.71
N150 X1047.08 Y302.768 Z-1.278 I2.28 J-1.71
N155 X1042.52 Y306.188 Z-1.591 I-2.28 J1.71
N160 X1047.08 Y302.768 Z-1.903 I2.28 J-1.71
N165 X1042.52 Y306.188 Z-2.216 I-2.28 J1.71
N170 X1047.08 Y302.768 Z-2.529 I2.28 J-1.71
N175 X1042.52 Y306.188 Z-2.841 I-2.28 J1.71
N180 X1047.08 Y302.768 Z-3.154 I2.28 J-1.71
N185 X1042.52 Y306.188 Z-3.467 I-2.28 J1.71
N190 X1047.08 Y302.768 Z-3.779 I2.28 J-1.71
N195 X1042.52 Y306.188 Z-4.092 I-2.28 J1.71
N200 X1047.08 Y302.768 Z-4.405 I2.28 J-1.71
N205 X1044.8 Y307.328 Z-4.625 I-2.28 J1.71
N210 G01 X815.274 F3000.
N215 G03 X814.955 Y307.009 J-0.319
N220 G01 Y302.457
N225 G03 X815.274 Y302.138 I0.319
N230 G01 X1047.076
N235 G03 X1047.395 Y302.457 J0.319
N240 G01 Y307.009
N245 G03 X1047.076 Y307.328 I-0.319
N250 G01 X1044.8
N255 G02 X1042.171 Y309.081 J2.848
N260 G03 X1039.542 Y310.833 I-2.629 J-1.095
N265 G01 X814.214
N270 G02 X812.093 Y311.712 J3.
N275 G03 X810.572 Y310.191 I-0.76 J-0.76
N280 G02 X811.45 Y308.07 I-2.122 J-2.121
N285 G01 Y301.397
N290 G02 X810.571 Y299.276 I-3.
N295 G03 Y297.754 I0.761 J-0.761
N300 X812.093 I0.761 J0.761
N305 G02 X814.214 Y298.633 I2.121 J-2.121
N310 G01 X1048.14
N315 G02 X1050.261 Y297.755 J-3.
N320 G03 X1051.779 Y299.275 I0.759 J0.76
N325 G02 X1050.9 Y301.397 I2.121 J2.122
N330 G01 Y308.07
N335 G02 X1051.779 Y310.192 I3.
N340 G03 X1050.26 Y311.711 I-0.759 J0.76
N345 G02 X1048.14 Y310.833 I-2.12 J2.122
N350 G01 X1039.542
N355 G03 X1039.38 Y310.506 J-0.204
N360 G01 X1039.945 Y309.763
N365 X1046.129 Y302.705
N370 X1046.373 Y302.249
N375 X1046.396 Y302.22
N380 X1046.427 Y302.2
N385 X1046.462 Y302.192
N390 X1046.499 Y302.197
N395 X1046.531 Y302.214
N400 G03 X1047.08 Y302.768 Z-4.652 I-1.731 J2.264 F1500.
N405 X1042.52 Y306.188 Z-4.965 I-2.28 J1.71
N410 X1047.08 Y302.768 Z-5.278 I2.28 J-1.71
N415 X1042.52 Y306.188 Z-5.59 I-2.28 J1.71
N420 X1047.08 Y302.768 Z-5.903 I2.28 J-1.71
N425 X1042.52 Y306.188 Z-6.216 I-2.28 J1.71
N430 X1047.08 Y302.768 Z-6.528 I2.28 J-1.71
N435 X1042.52 Y306.188 Z-6.841 I-2.28 J1.71
N440 X1047.08 Y302.768 Z-7.154 I2.28 J-1.71
N445 X1042.52 Y306.188 Z-7.466 I-2.28 J1.71
N450 X1047.08 Y302.768 Z-7.779 I2.28 J-1.71
N455 X1042.52 Y306.188 Z-8.092 I-2.28 J1.71
N460 X1047.08 Y302.768 Z-8.404 I2.28 J-1.71
N465 X1042.52 Y306.188 Z-8.717 I-2.28 J1.71
N470 X1047.08 Y302.768 Z-9.03 I2.28 J-1.71
N475 X1044.8 Y307.328 Z-9.25 I-2.28 J1.71
N480 G01 X815.274 F3000.
N485 G03 X814.955 Y307.009 J-0.319
N490 G01 Y302.457
N495 G03 X815.274 Y302.138 I0.319
N500 G01 X1047.076
N505 G03 X1047.395 Y302.457 J0.319
N510 G01 Y307.009
N515 G03 X1047.076 Y307.328 I-0.319
N520 G01 X1044.8
N525 G02 X1042.171 Y309.081 J2.848
N530 G03 X1039.542 Y310.833 I-2.629 J-1.095
N535 G01 X814.214
N540 G02 X812.093 Y311.712 J3.
N545 G03 X810.572 Y310.191 I-0.76 J-0.76
N550 G02 X811.45 Y308.07 I-2.122 J-2.121
N555 G01 Y301.397
N560 G02 X810.571 Y299.276 I-3.
N565 G03 Y297.754 I0.761 J-0.761
N570 X812.093 I0.761 J0.761
N575 G02 X814.214 Y298.633 I2.121 J-2.121
N580 G01 X1048.14
N585 G02 X1050.261 Y297.755 J-3.
N590 G03 X1051.779 Y299.275 I0.759 J0.76
N595 G02 X1050.9 Y301.397 I2.121 J2.122
N600 G01 Y308.07
N605 G02 X1051.779 Y310.192 I3.
N610 G03 X1050.26 Y311.711 I-0.759 J0.76
N615 G02 X1048.14 Y310.833 I-2.12 J2.122
N620 G01 X1039.542
N625 G03 X1039.38 Y310.506 J-0.204
N630 G01 X1039.945 Y309.763
N635 X1046.129 Y302.705
N640 X1046.373 Y302.249
N645 X1046.396 Y302.22
N650 X1046.427 Y302.2
N655 X1046.462 Y302.192
N660 X1046.499 Y302.197
N665 X1046.531 Y302.214
N670 G03 X1047.08 Y302.768 Z-9.277 I-1.731 J2.264 F1500.
N675 X1042.52 Y306.188 Z-9.59 I-2.28 J1.71
N680 X1047.08 Y302.768 Z-9.903 I2.28 J-1.71
N685 X1042.52 Y306.188 Z-10.215 I-2.28 J1.71
N690 X1047.08 Y302.768 Z-10.528 I2.28 J-1.71
N695 X1042.52 Y306.188 Z-10.841 I-2.28 J1.71
N700 X1047.08 Y302.768 Z-11.153 I2.28 J-1.71
N705 X1042.52 Y306.188 Z-11.466 I-2.28 J1.71
N710 X1047.08 Y302.768 Z-11.779 I2.28 J-1.71
N715 X1042.52 Y306.188 Z-12.091 I-2.28 J1.71
N720 X1047.08 Y302.768 Z-12.404 I2.28 J-1.71
N725 X1042.52 Y306.188 Z-12.717 I-2.28 J1.71
N730 X1047.08 Y302.768 Z-13.029 I2.28 J-1.71
N735 X1042.52 Y306.188 Z-13.342 I-2.28 J1.71
N740 X1047.08 Y302.768 Z-13.655 I2.28 J-1.71
N745 X1044.8 Y307.328 Z-13.875 I-2.28 J1.71
N750 G01 X815.274 F3000.
N755 G03 X814.955 Y307.009 J-0.319
N760 G01 Y302.457
N765 G03 X815.274 Y302.138 I0.319
N770 G01 X1047.076
N775 G03 X1047.395 Y302.457 J0.319
N780 G01 Y307.009
N785 G03 X1047.076 Y307.328 I-0.319
N790 G01 X1044.8
N795 G02 X1042.171 Y309.081 J2.848
N800 G03 X1039.542 Y310.833 I-2.629 J-1.095
N805 G01 X814.214
N810 G02 X812.093 Y311.712 J3.
N815 G03 X810.572 Y310.191 I-0.76 J-0.76
N820 G02 X811.45 Y308.07 I-2.122 J-2.121
N825 G01 Y301.397
N830 G02 X810.571 Y299.276 I-3.
N835 G03 Y297.754 I0.761 J-0.761
N840 X812.093 I0.761 J0.761
N845 G02 X814.214 Y298.633 I2.121 J-2.121
N850 G01 X1048.14
N855 G02 X1050.261 Y297.755 J-3.
N860 G03 X1051.779 Y299.275 I0.759 J0.76
N865 G02 X1050.9 Y301.397 I2.121 J2.122
N870 G01 Y308.07
N875 G02 X1051.779 Y310.192 I3.
N880 G03 X1050.26 Y311.711 I-0.759 J0.76
N885 G02 X1048.14 Y310.833 I-2.12 J2.122
N890 G01 X1039.542
N895 G03 X1039.38 Y310.506 J-0.204
N900 G01 X1039.945 Y309.763
N905 X1046.129 Y302.705
N910 X1046.373 Y302.249
N915 X1046.396 Y302.22
N920 X1046.427 Y302.2
N925 X1046.462 Y302.192
N930 X1046.499 Y302.197
N935 X1046.531 Y302.214
N940 G03 X1047.08 Y302.768 Z-13.902 I-1.731 J2.264 F1500.
N945 X1042.52 Y306.188 Z-14.215 I-2.28 J1.71
N950 X1047.08 Y302.768 Z-14.528 I2.28 J-1.71
N955 X1042.52 Y306.188 Z-14.84 I-2.28 J1.71
N960 X1047.08 Y302.768 Z-15.153 I2.28 J-1.71
N965 X1042.52 Y306.188 Z-15.466 I-2.28 J1.71
N970 X1047.08 Y302.768 Z-15.778 I2.28 J-1.71
N975 X1042.52 Y306.188 Z-16.091 I-2.28 J1.71
N980 X1047.08 Y302.768 Z-16.404 I2.28 J-1.71
N985 X1042.52 Y306.188 Z-16.716 I-2.28 J1.71
N990 X1047.08 Y302.768 Z-17.029 I2.28 J-1.71
N995 X1042.52 Y306.188 Z-17.342 I-2.28 J1.71
N1000 X1047.08 Y302.768 Z-17.654 I2.28 J-1.71
N1005 X1042.52 Y306.188 Z-17.967 I-2.28 J1.71
N1010 X1047.08 Y302.768 Z-18.28 I2.28 J-1.71
N1015 X1044.8 Y307.328 Z-18.5 I-2.28 J1.71
N1020 G01 X815.274 F3000.
N1025 G03 X814.955 Y307.009 J-0.319
N1030 G01 Y302.457
N1035 G03 X815.274 Y302.138 I0.319
N1040 G01 X1047.076
N1045 G03 X1047.395 Y302.457 J0.319
N1050 G01 Y307.009
N1055 G03 X1047.076 Y307.328 I-0.319
N1060 G01 X1044.8
N1065 G02 X1042.171 Y309.081 J2.848
N1070 G03 X1039.542 Y310.833 I-2.629 J-1.095
N1075 G01 X814.214
N1080 G02 X812.093 Y311.712 J3.
N1085 G03 X810.572 Y310.191 I-0.76 J-0.76
N1090 G02 X811.45 Y308.07 I-2.122 J-2.121
N1095 G01 Y301.397
N1100 G02 X810.571 Y299.276 I-3.
N1105 G03 Y297.754 I0.761 J-0.761
N1110 X812.093 I0.761 J0.761
N1115 G02 X814.214 Y298.633 I2.121 J-2.121
N1120 G01 X1048.14
N1125 G02 X1050.261 Y297.755 J-3.
N1130 G03 X1051.779 Y299.275 I0.759 J0.76
N1135 G02 X1050.9 Y301.397 I2.121 J2.122
N1140 G01 Y308.07
N1145 G02 X1051.779 Y310.192 I3.
N1150 G03 X1050.26 Y311.711 I-0.759 J0.76
N1155 G02 X1048.14 Y310.833 I-2.12 J2.122
N1160 G01 X1039.542
N1165 X1039.45 Y310.826 Z-18.485 F1500.
N1170 X1039.36 Y310.805 Z-18.471
N1175 X1039.282 Y310.774 Z-18.428
N1180 X1039.21 Y310.732 Z-18.385
N1185 X1039.157 Y310.693 Z-18.319
N1190 X1039.108 Y310.647 Z-18.253
N1195 X1039.054 Y310.581 Z-18.085
N1200 X1039.038 Y310.557 Z-17.9
N1205 G00 Z5.
N1210 X911.997 Y634.485
N1215 G01 Z3.1 F333.
N1220 X912.023 Y634.498 Z2.918 F1500.
N1225 X912.095 Y634.536 Z2.754
N1230 X912.205 Y634.6 Z2.622
N1235 X912.341 Y634.688 Z2.534
N1240 X912.486 Y634.794 Z2.5
N1245 G03 X908.964 Y639.276 Z2.187 I-1.761 J2.241
N1250 X912.486 Y634.794 Z1.875 I1.761 J-2.241
N1255 X908.964 Y639.276 Z1.562 I-1.761 J2.241
N1260 X912.486 Y634.794 Z1.249 I1.761 J-2.241
N1265 X908.964 Y639.276 Z0.937 I-1.761 J2.241
N1270 X912.486 Y634.794 Z0.624 I1.761 J-2.241
N1275 X908.964 Y639.276 Z0.311 I-1.761 J2.241
N1280 X912.486 Y634.794 Z-0.001 I1.761 J-2.241
N1285 X908.964 Y639.276 Z-0.314 I-1.761 J2.241
N1290 X912.486 Y634.794 Z-0.627 I1.761 J-2.241
N1295 X908.964 Y639.276 Z-0.939 I-1.761 J2.241
N1300 X912.486 Y634.794 Z-1.252 I1.761 J-2.241
N1305 X908.964 Y639.276 Z-1.565 I-1.761 J2.241
N1310 X912.486 Y634.794 Z-1.877 I1.761 J-2.241
N1315 X908.964 Y639.276 Z-2.19 I-1.761 J2.241
N1320 X912.486 Y634.794 Z-2.503 I1.761 J-2.241
N1325 X908.964 Y639.276 Z-2.815 I-1.761 J2.241
N1330 X912.486 Y634.794 Z-3.128 I1.761 J-2.241
N1335 X908.964 Y639.276 Z-3.441 I-1.761 J2.241
N1340 X912.486 Y634.794 Z-3.753 I1.761 J-2.241
N1345 X908.964 Y639.276 Z-4.066 I-1.761 J2.241
N1350 X912.486 Y634.794 Z-4.379 I1.761 J-2.241
N1355 X910.725 Y639.885 Z-4.625 I-1.761 J2.241
N1360 G01 X905.307 F3000.
N1365 G03 Y639.581 J-0.152
N1370 G01 X965.247
N1375 X965.287 Y639.587
N1380 X965.324 Y639.605
N1385 X965.353 Y639.634
N1390 X965.371 Y639.671
N1395 X965.377 Y639.711
N1400 Y639.755
N1405 X965.371 Y639.795
N1410 X965.353 Y639.832
N1415 X965.324 Y639.861
N1420 X965.287 Y639.879
N1425 X965.247 Y639.885
N1430 X910.725
N1435 G02 X908.219 Y641.556 J2.715
N1440 G03 X905.712 Y643.227 I-2.506 J-1.044
N1445 G01 X902.044
N1450 G03 X901.731 Y642.914 J-0.313
N1455 G01 Y636.552
N1460 G03 X902.044 Y636.239 I0.313
N1465 G01 X968.406
N1470 G03 X968.719 Y636.552 J0.313
N1475 G01 Y642.914
N1480 G03 X968.406 Y643.227 I-0.313
N1485 G01 X905.712
N1490 G02 X903.005 Y644.887 J3.038
N1495 G03 X900.456 Y646.781 I-3.183 J-1.621
N1500 G02 X898.868 Y647.612 I0.533 J2.952
N1505 G03 X897.347 Y646.091 I-0.76 J-0.76
N1510 G02 X898.225 Y643.97 I-2.122 J-2.121
N1515 G01 Y635.497
N1520 G02 X897.346 Y633.376 I-3.
N1525 G03 X898.868 Y631.854 I0.761 J-0.761
N1530 G02 X900.989 Y632.733 I2.121 J-2.121
N1535 G01 X910.54
N1540 X969.462
N1545 G02 X971.583 Y631.855 J-3.
N1550 G03 X973.104 Y633.376 I0.76 J0.761
N1555 G02 X972.225 Y635.497 I2.121 J2.121
N1560 G01 Y643.97
N1565 G02 X973.103 Y646.091 I3.
N1570 G03 X971.583 Y647.611 I-0.76 J0.76
N1575 G02 X969.462 Y646.733 I-2.121 J2.122
N1580 G01 X959.91
N1585 X900.989
N1590 G02 X900.456 Y646.781 J3.
N1595 G01 X900.417
N1600 X900.379 Y646.768
N1605 X900.349 Y646.743
N1610 X900.328 Y646.709
N1615 X900.319 Y646.671
N1620 X900.325 Y646.631
N1625 X900.343 Y646.596
N1630 X900.647 Y646.195
N1635 X911.782 Y635.525
N1640 X912.208 Y634.819
N1645 G03 X912.456 Y634.771 I0.145 J0.086
N1650 X908.994 Y639.299 Z-4.938 I-1.731 J2.264 F1500.
N1655 X912.456 Y634.771 Z-5.25 I1.731 J-2.264
N1660 X908.994 Y639.299 Z-5.563 I-1.731 J2.264
N1665 X912.456 Y634.771 Z-5.876 I1.731 J-2.264
N1670 X908.994 Y639.299 Z-6.188 I-1.731 J2.264
N1675 X912.456 Y634.771 Z-6.501 I1.731 J-2.264
N1680 X908.994 Y639.299 Z-6.814 I-1.731 J2.264
N1685 X912.456 Y634.771 Z-7.126 I1.731 J-2.264
N1690 X908.994 Y639.299 Z-7.439 I-1.731 J2.264
N1695 X912.456 Y634.771 Z-7.752 I1.731 J-2.264
N1700 X908.994 Y639.299 Z-8.064 I-1.731 J2.264
N1705 X912.456 Y634.771 Z-8.377 I1.731 J-2.264
N1710 X908.994 Y639.299 Z-8.69 I-1.731 J2.264
N1715 X912.456 Y634.771 Z-9.002 I1.731 J-2.264
N1720 X910.725 Y639.885 Z-9.25 I-1.731 J2.264
N1725 G01 X905.307 F3000.
N1730 G03 Y639.581 J-0.152
N1735 G01 X965.247
N1740 X965.287 Y639.587
N1745 X965.324 Y639.605
N1750 X965.353 Y639.634
N1755 X965.371 Y639.671
N1760 X965.377 Y639.711
N1765 Y639.755
N1770 X965.371 Y639.795
N1775 X965.353 Y639.832
N1780 X965.324 Y639.861
N1785 X965.287 Y639.879
N1790 X965.247 Y639.885
N1795 X910.725
N1800 G02 X908.219 Y641.556 J2.715
N1805 G03 X905.712 Y643.227 I-2.506 J-1.044
N1810 G01 X902.044
N1815 G03 X901.731 Y642.914 J-0.313
N1820 G01 Y636.552
N1825 G03 X902.044 Y636.239 I0.313
N1830 G01 X968.406
N1835 G03 X968.719 Y636.552 J0.313
N1840 G01 Y642.914
N1845 G03 X968.406 Y643.227 I-0.313
N1850 G01 X905.712
N1855 G02 X903.005 Y644.887 J3.038
N1860 G03 X900.456 Y646.781 I-3.183 J-1.621
N1865 G02 X898.868 Y647.612 I0.533 J2.952
N1870 G03 X897.347 Y646.091 I-0.76 J-0.76
N1875 G02 X898.225 Y643.97 I-2.122 J-2.121
N1880 G01 Y635.497
N1885 G02 X897.346 Y633.376 I-3.
N1890 G03 X898.868 Y631.854 I0.761 J-0.761
N1895 G02 X900.989 Y632.733 I2.121 J-2.121
N1900 G01 X910.54
N1905 X969.462
N1910 G02 X971.583 Y631.855 J-3.
N1915 G03 X973.104 Y633.376 I0.76 J0.761
N1920 G02 X972.225 Y635.497 I2.121 J2.121
N1925 G01 Y643.97
N1930 G02 X973.103 Y646.091 I3.
N1935 G03 X971.583 Y647.611 I-0.76 J0.76
N1940 G02 X969.462 Y646.733 I-2.121 J2.122
N1945 G01 X959.91
N1950 X900.989
N1955 G02 X900.456 Y646.781 J3.
N1960 G01 X900.417
N1965 X900.379 Y646.768
N1970 X900.349 Y646.743
N1975 X900.328 Y646.709
N1980 X900.319 Y646.671
N1985 X900.325 Y646.631
N1990 X900.343 Y646.596
N1995 X900.647 Y646.195
N2000 X911.782 Y635.525
N2005 X912.208 Y634.819
N2010 G03 X912.456 Y634.771 I0.145 J0.086
N2015 X908.994 Y639.299 Z-9.563 I-1.731 J2.264 F1500.
N2020 X912.456 Y634.771 Z-9.875 I1.731 J-2.264
N2025 X908.994 Y639.299 Z-10.188 I-1.731 J2.264
N2030 X912.456 Y634.771 Z-10.501 I1.731 J-2.264
N2035 X908.994 Y639.299 Z-10.813 I-1.731 J2.264
N2040 X912.456 Y634.771 Z-11.126 I1.731 J-2.264
N2045 X908.994 Y639.299 Z-11.439 I-1.731 J2.264
N2050 X912.456 Y634.771 Z-11.751 I1.731 J-2.264
N2055 X908.994 Y639.299 Z-12.064 I-1.731 J2.264
N2060 X912.456 Y634.771 Z-12.377 I1.731 J-2.264
N2065 X908.994 Y639.299 Z-12.689 I-1.731 J2.264
N2070 X912.456 Y634.771 Z-13.002 I1.731 J-2.264
N2075 X908.994 Y639.299 Z-13.315 I-1.731 J2.264
N2080 X912.456 Y634.771 Z-13.627 I1.731 J-2.264
N2085 X910.725 Y639.885 Z-13.875 I-1.731 J2.264
N2090 G01 X905.307 F3000.
N2095 G03 Y639.581 J-0.152
N2100 G01 X965.247
N2105 X965.287 Y639.587
N2110 X965.324 Y639.605
N2115 X965.353 Y639.634
N2120 X965.371 Y639.671
N2125 X965.377 Y639.711
N2130 Y639.755
N2135 X965.371 Y639.795
N2140 X965.353 Y639.832
N2145 X965.324 Y639.861
N2150 X965.287 Y639.879
N2155 X965.247 Y639.885
N2160 X910.725
N2165 G02 X908.219 Y641.556 J2.715
N2170 G03 X905.712 Y643.227 I-2.506 J-1.044
N2175 G01 X902.044
N2180 G03 X901.731 Y642.914 J-0.313
N2185 G01 Y636.552
N2190 G03 X902.044 Y636.239 I0.313
N2195 G01 X968.406
N2200 G03 X968.719 Y636.552 J0.313
N2205 G01 Y642.914
N2210 G03 X968.406 Y643.227 I-0.313
N2215 G01 X905.712
N2220 G02 X903.005 Y644.887 J3.038
N2225 G03 X900.456 Y646.781 I-3.183 J-1.621
N2230 G02 X898.868 Y647.612 I0.533 J2.952
N2235 G03 X897.347 Y646.091 I-0.76 J-0.76
N2240 G02 X898.225 Y643.97 I-2.122 J-2.121
N2245 G01 Y635.497
N2250 G02 X897.346 Y633.376 I-3.
N2255 G03 X898.868 Y631.854 I0.761 J-0.761
N2260 G02 X900.989 Y632.733 I2.121 J-2.121
N2265 G01 X910.54
N2270 X969.462
N2275 G02 X971.583 Y631.855 J-3.
N2280 G03 X973.104 Y633.376 I0.76 J0.761
N2285 G02 X972.225 Y635.497 I2.121 J2.121
N2290 G01 Y643.97
N2295 G02 X973.103 Y646.091 I3.
N2300 G03 X971.583 Y647.611 I-0.76 J0.76
N2305 G02 X969.462 Y646.733 I-2.121 J2.122
N2310 G01 X959.91
N2315 X900.989
N2320 G02 X900.456 Y646.781 J3.
N2325 G01 X900.417
N2330 X900.379 Y646.768
N2335 X900.349 Y646.743
N2340 X900.328 Y646.709
N2345 X900.319 Y646.671
N2350 X900.325 Y646.631
N2355 X900.343 Y646.596
N2360 X900.647 Y646.195
N2365 X911.782 Y635.525
N2370 X912.208 Y634.819
N2375 G03 X912.456 Y634.771 I0.145 J0.086
N2380 X908.994 Y639.299 Z-14.188 I-1.731 J2.264 F1500.
N2385 X912.456 Y634.771 Z-14.5 I1.731 J-2.264
N2390 X908.994 Y639.299 Z-14.813 I-1.731 J2.264
N2395 X912.456 Y634.771 Z-15.126 I1.731 J-2.264
N2400 X908.994 Y639.299 Z-15.438 I-1.731 J2.264
N2405 X912.456 Y634.771 Z-15.751 I1.731 J-2.264
N2410 X908.994 Y639.299 Z-16.064 I-1.731 J2.264
N2415 X912.456 Y634.771 Z-16.376 I1.731 J-2.264
N2420 X908.994 Y639.299 Z-16.689 I-1.731 J2.264
N2425 X912.456 Y634.771 Z-17.002 I1.731 J-2.264
N2430 X908.994 Y639.299 Z-17.314 I-1.731 J2.264
N2435 X912.456 Y634.771 Z-17.627 I1.731 J-2.264
N2440 X908.994 Y639.299 Z-17.94 I-1.731 J2.264
N2445 X912.456 Y634.771 Z-18.252 I1.731 J-2.264
N2450 X910.725 Y639.885 Z-18.5 I-1.731 J2.264
N2455 G01 X905.307 F3000.
N2460 G03 Y639.581 J-0.152
N2465 G01 X965.247
N2470 X965.287 Y639.587
N2475 X965.324 Y639.605
N2480 X965.353 Y639.634
N2485 X965.371 Y639.671
N2490 X965.377 Y639.711
N2495 Y639.755
N2500 X965.371 Y639.795
N2505 X965.353 Y639.832
N2510 X965.324 Y639.861
N2515 X965.287 Y639.879
N2520 X965.247 Y639.885
N2525 X910.725
N2530 G02 X908.219 Y641.556 J2.715
N2535 G03 X905.712 Y643.227 I-2.506 J-1.044
N2540 G01 X902.044
N2545 G03 X901.731 Y642.914 J-0.313
N2550 G01 Y636.552
N2555 G03 X902.044 Y636.239 I0.313
N2560 G01 X968.406
N2565 G03 X968.719 Y636.552 J0.313
N2570 G01 Y642.914
N2575 G03 X968.406 Y643.227 I-0.313
N2580 G01 X905.712
N2585 G02 X903.005 Y644.887 J3.038
N2590 G03 X900.456 Y646.781 I-3.183 J-1.621
N2595 G02 X898.868 Y647.612 I0.533 J2.952
N2600 G03 X897.347 Y646.091 I-0.76 J-0.76
N2605 G02 X898.225 Y643.97 I-2.122 J-2.121
N2610 G01 Y635.497
N2615 G02 X897.346 Y633.376 I-3.
N2620 G03 X898.868 Y631.854 I0.761 J-0.761
N2625 G02 X900.989 Y632.733 I2.121 J-2.121
N2630 G01 X910.54
N2635 X969.462
N2640 G02 X971.583 Y631.855 J-3.
N2645 G03 X973.104 Y633.376 I0.76 J0.761
N2650 G02 X972.225 Y635.497 I2.121 J2.121
N2655 G01 Y643.97
N2660 G02 X973.103 Y646.091 I3.
N2665 G03 X971.583 Y647.611 I-0.76 J0.76
N2670 G02 X969.462 Y646.733 I-2.121 J2.122
N2675 G01 X959.91
N2680 X900.989
N2685 G02 X900.456 Y646.781 J3.
N2690 G01 X900.364 Y646.79 Z-18.485 F1500.
N2695 X900.272 Y646.785 Z-18.471
N2700 X900.19 Y646.768 Z-18.428
N2705 X900.111 Y646.741 Z-18.385
N2710 X900.052 Y646.711 Z-18.319
N2715 X899.996 Y646.675 Z-18.253
N2720 X899.931 Y646.62 Z-18.085
N2725 X899.911 Y646.599 Z-17.9
N2730 G00 Z5.
N2735 X290.782 Y299.485
N2740 G01 Z3.1 F333.
N2745 X290.808 Y299.498 Z2.918 F1500.
N2750 X290.88 Y299.536 Z2.754
N2755 X290.99 Y299.6 Z2.622
N2760 X291.126 Y299.688 Z2.534
N2765 X291.271 Y299.794 Z2.5
N2770 G03 X287.749 Y304.276 Z2.187 I-1.761 J2.241
N2775 X291.271 Y299.794 Z1.875 I1.761 J-2.241
N2780 X287.749 Y304.276 Z1.562 I-1.761 J2.241
N2785 X291.271 Y299.794 Z1.249 I1.761 J-2.241
N2790 X287.749 Y304.276 Z0.937 I-1.761 J2.241
N2795 X291.271 Y299.794 Z0.624 I1.761 J-2.241
N2800 X287.749 Y304.276 Z0.311 I-1.761 J2.241
N2805 X291.271 Y299.794 Z-0.001 I1.761 J-2.241
N2810 X287.749 Y304.276 Z-0.314 I-1.761 J2.241
N2815 X291.271 Y299.794 Z-0.627 I1.761 J-2.241
N2820 X287.749 Y304.276 Z-0.939 I-1.761 J2.241
N2825 X291.271 Y299.794 Z-1.252 I1.761 J-2.241
N2830 X287.749 Y304.276 Z-1.565 I-1.761 J2.241
N2835 X291.271 Y299.794 Z-1.877 I1.761 J-2.241
N2840 X287.749 Y304.276 Z-2.19 I-1.761 J2.241
N2845 X291.271 Y299.794 Z-2.503 I1.761 J-2.241
N2850 X287.749 Y304.276 Z-2.815 I-1.761 J2.241
N2855 X291.271 Y299.794 Z-3.128 I1.761 J-2.241
N2860 X287.749 Y304.276 Z-3.441 I-1.761 J2.241
N2865 X291.271 Y299.794 Z-3.753 I1.761 J-2.241
N2870 X287.749 Y304.276 Z-4.066 I-1.761 J2.241
N2875 X291.271 Y299.794 Z-4.379 I1.761 J-2.241
N2880 X289.51 Y304.885 Z-4.625 I-1.761 J2.241
N2885 G01 X274.907 F3000.
N2890 G03 Y304.581 J-0.152
N2895 G01 X334.847
N2900 X334.887 Y304.587
N2905 X334.924 Y304.605
N2910 X334.953 Y304.634
N2915 X334.971 Y304.671
N2920 X334.977 Y304.711
N2925 Y304.755
N2930 X334.971 Y304.795
N2935 X334.953 Y304.832
N2940 X334.924 Y304.861
N2945 X334.887 Y304.879
N2950 X334.847 Y304.885
N2955 X289.51
N2960 G02 X287.004 Y306.556 J2.715
N2965 G03 X284.497 Y308.227 I-2.506 J-1.044
N2970 G01 X271.644
N2975 G03 X271.331 Y307.914 J-0.313
N2980 G01 Y301.552
N2985 G03 X271.644 Y301.239 I0.313
N2990 G01 X338.006
N2995 G03 X338.319 Y301.552 J0.313
N3000 G01 Y307.914
N3005 G03 X338.006 Y308.227 I-0.313
N3010 G01 X284.497
N3015 G02 X281.868 Y309.98 J2.849
N3020 G03 X279.239 Y311.733 I-2.629 J-1.096
N3025 G01 X270.589
N3030 G02 X268.468 Y312.612 J3.
N3035 G03 X266.947 Y311.091 I-0.76 J-0.76
N3040 G02 X267.825 Y308.97 I-2.122 J-2.121
N3045 G01 Y300.497
N3050 G02 X266.946 Y298.376 I-3.
N3055 G03 X268.468 Y296.854 I0.761 J-0.761
N3060 G02 X270.589 Y297.733 I2.121 J-2.121
N3065 G01 X289.325
N3070 X339.062
N3075 G02 X341.183 Y296.855 J-3.
N3080 G03 X342.704 Y298.376 I0.76 J0.761
N3085 G02 X341.825 Y300.497 I2.121 J2.121
N3090 G01 Y308.97
N3095 G02 X342.703 Y311.091 I3.
N3100 G03 X341.183 Y312.611 I-0.76 J0.76
N3105 G02 X339.062 Y311.733 I-2.121 J2.122
N3110 G01 X320.325
N3115 X279.239
N3120 G03 X279.011 Y311.238 J-0.3
N3125 G01 X279.929 Y310.169
N3130 X290.729 Y300.33
N3135 X291.056 Y299.806
N3140 X291.084 Y299.774
N3145 X291.12 Y299.753
N3150 X291.162 Y299.745
N3155 X291.204 Y299.752
N3160 X291.241 Y299.771
N3165 G03 X287.779 Y304.299 Z-4.938 I-1.731 J2.264 F1500.
N3170 X291.241 Y299.771 Z-5.25 I1.731 J-2.264
N3175 X287.779 Y304.299 Z-5.563 I-1.731 J2.264
N3180 X291.241 Y299.771 Z-5.876 I1.731 J-2.264
N3185 X287.779 Y304.299 Z-6.188 I-1.731 J2.264
N3190 X291.241 Y299.771 Z-6.501 I1.731 J-2.264
N3195 X287.779 Y304.299 Z-6.814 I-1.731 J2.264
N3200 X291.241 Y299.771 Z-7.126 I1.731 J-2.264
N3205 X287.779 Y304.299 Z-7.439 I-1.731 J2.264
N3210 X291.241 Y299.771 Z-7.752 I1.731 J-2.264
N3215 X287.779 Y304.299 Z-8.064 I-1.731 J2.264
N3220 X291.241 Y299.771 Z-8.377 I1.731 J-2.264
N3225 X287.779 Y304.299 Z-8.69 I-1.731 J2.264
N3230 X291.241 Y299.771 Z-9.002 I1.731 J-2.264
N3235 X289.51 Y304.885 Z-9.25 I-1.731 J2.264
N3240 G01 X274.907 F3000.
N3245 G03 Y304.581 J-0.152
N3250 G01 X334.847
N3255 X334.887 Y304.587
N3260 X334.924 Y304.605
N3265 X334.953 Y304.634
N3270 X334.971 Y304.671
N3275 X334.977 Y304.711
N3280 Y304.755
N3285 X334.971 Y304.795
N3290 X334.953 Y304.832
N3295 X334.924 Y304.861
N3300 X334.887 Y304.879
N3305 X334.847 Y304.885
N3310 X289.51
N3315 G02 X287.004 Y306.556 J2.715
N3320 G03 X284.497 Y308.227 I-2.506 J-1.044
N3325 G01 X271.644
N3330 G03 X271.331 Y307.914 J-0.313
N3335 G01 Y301.552
N3340 G03 X271.644 Y301.239 I0.313
N3345 G01 X338.006
N3350 G03 X338.319 Y301.552 J0.313
N3355 G01 Y307.914
N3360 G03 X338.006 Y308.227 I-0.313
N3365 G01 X284.497
N3370 G02 X281.868 Y309.98 J2.849
N3375 G03 X279.239 Y311.733 I-2.629 J-1.096
N3380 G01 X270.589
N3385 G02 X268.468 Y312.612 J3.
N3390 G03 X266.947 Y311.091 I-0.76 J-0.76
N3395 G02 X267.825 Y308.97 I-2.122 J-2.121
N3400 G01 Y300.497
N3405 G02 X266.946 Y298.376 I-3.
N3410 G03 X268.468 Y296.854 I0.761 J-0.761
N3415 G02 X270.589 Y297.733 I2.121 J-2.121
N3420 G01 X289.325
N3425 X339.062
N3430 G02 X341.183 Y296.855 J-3.
N3435 G03 X342.704 Y298.376 I0.76 J0.761
N3440 G02 X341.825 Y300.497 I2.121 J2.121
N3445 G01 Y308.97
N3450 G02 X342.703 Y311.091 I3.
N3455 G03 X341.183 Y312.611 I-0.76 J0.76
N3460 G02 X339.062 Y311.733 I-2.121 J2.122
N3465 G01 X320.325
N3470 X279.239
N3475 G03 X279.011 Y311.238 J-0.3
N3480 G01 X279.929 Y310.169
N3485 X290.729 Y300.33
N3490 X291.056 Y299.806
N3495 X291.084 Y299.774
N3500 X291.12 Y299.753
N3505 X291.162 Y299.745
N3510 X291.204 Y299.752
N3515 X291.241 Y299.771
N3520 G03 X287.779 Y304.299 Z-9.563 I-1.731 J2.264 F1500.
N3525 X291.241 Y299.771 Z-9.875 I1.731 J-2.264
N3530 X287.779 Y304.299 Z-10.188 I-1.731 J2.264
N3535 X291.241 Y299.771 Z-10.501 I1.731 J-2.264
N3540 X287.779 Y304.299 Z-10.813 I-1.731 J2.264
N3545 X291.241 Y299.771 Z-11.126 I1.731 J-2.264
N3550 X287.779 Y304.299 Z-11.439 I-1.731 J2.264
N3555 X291.241 Y299.771 Z-11.751 I1.731 J-2.264
N3560 X287.779 Y304.299 Z-12.064 I-1.731 J2.264
N3565 X291.241 Y299.771 Z-12.377 I1.731 J-2.264
N3570 X287.779 Y304.299 Z-12.689 I-1.731 J2.264
N3575 X291.241 Y299.771 Z-13.002 I1.731 J-2.264
N3580 X287.779 Y304.299 Z-13.315 I-1.731 J2.264
N3585 X291.241 Y299.771 Z-13.627 I1.731 J-2.264
N3590 X289.51 Y304.885 Z-13.875 I-1.731 J2.264
N3595 G01 X274.907 F3000.
N3600 G03 Y304.581 J-0.152
N3605 G01 X334.847
N3610 X334.887 Y304.587
N3615 X334.924 Y304.605
N3620 X334.953 Y304.634
N3625 X334.971 Y304.671
N3630 X334.977 Y304.711
N3635 Y304.755
N3640 X334.971 Y304.795
N3645 X334.953 Y304.832
N3650 X334.924 Y304.861
N3655 X334.887 Y304.879
N3660 X334.847 Y304.885
N3665 X289.51
N3670 G02 X287.004 Y306.556 J2.715
N3675 G03 X284.497 Y308.227 I-2.506 J-1.044
N3680 G01 X271.644
N3685 G03 X271.331 Y307.914 J-0.313
N3690 G01 Y301.552
N3695 G03 X271.644 Y301.239 I0.313
N3700 G01 X338.006
N3705 G03 X338.319 Y301.552 J0.313
N3710 G01 Y307.914
N3715 G03 X338.006 Y308.227 I-0.313
N3720 G01 X284.497
N3725 G02 X281.868 Y309.98 J2.849
N3730 G03 X279.239 Y311.733 I-2.629 J-1.096
N3735 G01 X270.589
N3740 G02 X268.468 Y312.612 J3.
N3745 G03 X266.947 Y311.091 I-0.76 J-0.76
N3750 G02 X267.825 Y308.97 I-2.122 J-2.121
N3755 G01 Y300.497
N3760 G02 X266.946 Y298.376 I-3.
N3765 G03 X268.468 Y296.854 I0.761 J-0.761
N3770 G02 X270.589 Y297.733 I2.121 J-2.121
N3775 G01 X289.325
N3780 X339.062
N3785 G02 X341.183 Y296.855 J-3.
N3790 G03 X342.704 Y298.376 I0.76 J0.761
N3795 G02 X341.825 Y300.497 I2.121 J2.121
N3800 G01 Y308.97
N3805 G02 X342.703 Y311.091 I3.
N3810 G03 X341.183 Y312.611 I-0.76 J0.76
N3815 G02 X339.062 Y311.733 I-2.121 J2.122
N3820 G01 X320.325
N3825 X279.239
N3830 G03 X279.011 Y311.238 J-0.3
N3835 G01 X279.929 Y310.169
N3840 X290.729 Y300.33
N3845 X291.056 Y299.806
N3850 X291.084 Y299.774
N3855 X291.12 Y299.753
N3860 X291.162 Y299.745
N3865 X291.204 Y299.752
N3870 X291.241 Y299.771
N3875 G03 X287.779 Y304.299 Z-14.188 I-1.731 J2.264 F1500.
N3880 X291.241 Y299.771 Z-14.5 I1.731 J-2.264
N3885 X287.779 Y304.299 Z-14.813 I-1.731 J2.264
N3890 X291.241 Y299.771 Z-15.126 I1.731 J-2.264
N3895 X287.779 Y304.299 Z-15.438 I-1.731 J2.264
N3900 X291.241 Y299.771 Z-15.751 I1.731 J-2.264
N3905 X287.779 Y304.299 Z-16.064 I-1.731 J2.264
N3910 X291.241 Y299.771 Z-16.376 I1.731 J-2.264
N3915 X287.779 Y304.299 Z-16.689 I-1.731 J2.264
N3920 X291.241 Y299.771 Z-17.002 I1.731 J-2.264
N3925 X287.779 Y304.299 Z-17.314 I-1.731 J2.264
N3930 X291.241 Y299.771 Z-17.627 I1.731 J-2.264
N3935 X287.779 Y304.299 Z-17.94 I-1.731 J2.264
N3940 X291.241 Y299.771 Z-18.252 I1.731 J-2.264
N3945 X289.51 Y304.885 Z-18.5 I-1.731 J2.264
N3950 G01 X274.907 F3000.
N3955 G03 Y304.581 J-0.152
N3960 G01 X334.847
N3965 X334.887 Y304.587
N3970 X334.924 Y304.605
N3975 X334.953 Y304.634
N3980 X334.971 Y304.671
N3985 X334.977 Y304.711
N3990 Y304.755
N3995 X334.971 Y304.795
N4000 X334.953 Y304.832
N4005 X334.924 Y304.861
N4010 X334.887 Y304.879
N4015 X334.847 Y304.885
N4020 X289.51
N4025 G02 X287.004 Y306.556 J2.715
N4030 G03 X284.497 Y308.227 I-2.506 J-1.044
N4035 G01 X271.644
N4040 G03 X271.331 Y307.914 J-0.313
N4045 G01 Y301.552
N4050 G03 X271.644 Y301.239 I0.313
N4055 G01 X338.006
N4060 G03 X338.319 Y301.552 J0.313
N4065 G01 Y307.914
N4070 G03 X338.006 Y308.227 I-0.313
N4075 G01 X284.497
N4080 G02 X281.868 Y309.98 J2.849
N4085 G03 X279.239 Y311.733 I-2.629 J-1.096
N4090 G01 X270.589
N4095 G02 X268.468 Y312.612 J3.
N4100 G03 X266.947 Y311.091 I-0.76 J-0.76
N4105 G02 X267.825 Y308.97 I-2.122 J-2.121
N4110 G01 Y300.497
N4115 G02 X266.946 Y298.376 I-3.
N4120 G03 X268.468 Y296.854 I0.761 J-0.761
N4125 G02 X270.589 Y297.733 I2.121 J-2.121
N4130 G01 X289.325
N4135 X339.062
N4140 G02 X341.183 Y296.855 J-3.
N4145 G03 X342.704 Y298.376 I0.76 J0.761
N4150 G02 X341.825 Y300.497 I2.121 J2.121
N4155 G01 Y308.97
N4160 G02 X342.703 Y311.091 I3.
N4165 G03 X341.183 Y312.611 I-0.76 J0.76
N4170 G02 X339.062 Y311.733 I-2.121 J2.122
N4175 G01 X320.325
N4180 X279.239
N4185 X279.146 Y311.726 Z-18.485 F1500.
N4190 X279.056 Y311.705 Z-18.471
N4195 X278.978 Y311.674 Z-18.428
N4200 X278.906 Y311.632 Z-18.385
N4205 X278.853 Y311.593 Z-18.319
N4210 X278.804 Y311.547 Z-18.253
N4215 X278.75 Y311.482 Z-18.085
N4220 X278.734 Y311.457 Z-17.9
N4225 G00 Z5.
N4230 X196.522 Y636.928
N4235 G01 Z3.1 F333.
N4240 X196.548 Y636.94 Z2.918 F1500.
N4245 X196.62 Y636.979 Z2.754
N4250 X196.73 Y637.042 Z2.622
N4255 X196.866 Y637.13 Z2.534
N4260 X197.011 Y637.237 Z2.5
N4265 G03 X193.489 Y641.719 Z2.187 I-1.761 J2.241
N4270 X197.011 Y637.237 Z1.875 I1.761 J-2.241
N4275 X193.489 Y641.719 Z1.562 I-1.761 J2.241
N4280 X197.011 Y637.237 Z1.249 I1.761 J-2.241
N4285 X193.489 Y641.719 Z0.937 I-1.761 J2.241
N4290 X197.011 Y637.237 Z0.624 I1.761 J-2.241
N4295 X193.489 Y641.719 Z0.311 I-1.761 J2.241
N4300 X197.011 Y637.237 Z-0.001 I1.761 J-2.241
N4305 X193.489 Y641.719 Z-0.314 I-1.761 J2.241
N4310 X197.011 Y637.237 Z-0.627 I1.761 J-2.241
N4315 X193.489 Y641.719 Z-0.939 I-1.761 J2.241
N4320 X197.011 Y637.237 Z-1.252 I1.761 J-2.241
N4325 X193.489 Y641.719 Z-1.565 I-1.761 J2.241
N4330 X197.011 Y637.237 Z-1.877 I1.761 J-2.241
N4335 X193.489 Y641.719 Z-2.19 I-1.761 J2.241
N4340 X197.011 Y637.237 Z-2.503 I1.761 J-2.241
N4345 X193.489 Y641.719 Z-2.815 I-1.761 J2.241
N4350 X197.011 Y637.237 Z-3.128 I1.761 J-2.241
N4355 X193.489 Y641.719 Z-3.441 I-1.761 J2.241
N4360 X197.011 Y637.237 Z-3.753 I1.761 J-2.241
N4365 X193.489 Y641.719 Z-4.066 I-1.761 J2.241
N4370 X197.011 Y637.237 Z-4.379 I1.761 J-2.241
N4375 X195.25 Y642.328 Z-4.625 I-1.761 J2.241
N4380 G01 X192.974 F3000.
N4385 G03 X192.655 Y642.009 J-0.319
N4390 G01 Y637.457
N4395 G03 X192.974 Y637.138 I0.319
N4400 G01 X424.776
N4405 G03 X425.095 Y637.457 J0.319
N4410 G01 Y642.009
N4415 G03 X424.776 Y642.328 I-0.319
N4420 G01 X195.25
N4425 G02 X192.355 Y643.964 J3.381
N4430 G03 X190.121 Y646.428 I-7.389 J-4.453
N4435 G02 X189.793 Y646.712 I1.793 J2.405
N4440 G03 X188.272 Y645.191 I-0.76 J-0.76
N4445 G02 X189.15 Y643.07 I-2.122 J-2.121
N4450 G01 Y636.397
N4455 G02 X188.271 Y634.276 I-3.
N4460 G03 X189.793 Y632.754 I0.761 J-0.761
N4465 G02 X191.914 Y633.633 I2.121 J-2.121
N4470 G01 X425.837
N4475 G02 X427.958 Y632.755 J-3.
N4480 G03 X429.479 Y634.276 I0.76 J0.761
N4485 G02 X428.6 Y636.397 I2.121 J2.121
N4490 G01 Y643.07
N4495 G02 X429.478 Y645.191 I3.
N4500 G03 X427.958 Y646.711 I-0.76 J0.76
N4505 G02 X425.837 Y645.833 I-2.121 J2.122
N4510 G01 X191.914
N4515 G02 X190.121 Y646.428 J3.
N4520 G01 X190.087 Y646.445
N4525 X190.049 Y646.451
N4530 X190.011 Y646.444
N4535 X189.977 Y646.425
N4540 X189.952 Y646.397
N4545 X189.936 Y646.362
N4550 X189.933 Y646.323
N4555 X189.943 Y646.286
N4560 X190.13 Y645.867
N4565 X195.802 Y638.727
N4570 X195.834 Y638.677
N4575 X196.532 Y637.315
N4580 G03 X196.981 Y637.214 I0.267 J0.137
N4585 X193.519 Y641.742 Z-4.938 I-1.731 J2.264 F1500.
N4590 X196.981 Y637.214 Z-5.25 I1.731 J-2.264
N4595 X193.519 Y641.742 Z-5.563 I-1.731 J2.264
N4600 X196.981 Y637.214 Z-5.876 I1.731 J-2.264
N4605 X193.519 Y641.742 Z-6.188 I-1.731 J2.264
N4610 X196.981 Y637.214 Z-6.501 I1.731 J-2.264
N4615 X193.519 Y641.742 Z-6.814 I-1.731 J2.264
N4620 X196.981 Y637.214 Z-7.126 I1.731 J-2.264
N4625 X193.519 Y641.742 Z-7.439 I-1.731 J2.264
N4630 X196.981 Y637.214 Z-7.752 I1.731 J-2.264
N4635 X193.519 Y641.742 Z-8.064 I-1.731 J2.264
N4640 X196.981 Y637.214 Z-8.377 I1.731 J-2.264
N4645 X193.519 Y641.742 Z-8.69 I-1.731 J2.264
N4650 X196.981 Y637.214 Z-9.002 I1.731 J-2.264
N4655 X195.25 Y642.328 Z-9.25 I-1.731 J2.264
N4660 G01 X192.974 F3000.
N4665 G03 X192.655 Y642.009 J-0.319
N4670 G01 Y637.457
N4675 G03 X192.974 Y637.138 I0.319
N4680 G01 X424.776
N4685 G03 X425.095 Y637.457 J0.319
N4690 G01 Y642.009
N4695 G03 X424.776 Y642.328 I-0.319
N4700 G01 X195.25
N4705 G02 X192.355 Y643.964 J3.381
N4710 G03 X190.121 Y646.428 I-7.389 J-4.453
N4715 G02 X189.793 Y646.712 I1.793 J2.405
N4720 G03 X188.272 Y645.191 I-0.76 J-0.76
N4725 G02 X189.15 Y643.07 I-2.122 J-2.121
N4730 G01 Y636.397
N4735 G02 X188.271 Y634.276 I-3.
N4740 G03 X189.793 Y632.754 I0.761 J-0.761
N4745 G02 X191.914 Y633.633 I2.121 J-2.121
N4750 G01 X425.837
N4755 G02 X427.958 Y632.755 J-3.
N4760 G03 X429.479 Y634.276 I0.76 J0.761
N4765 G02 X428.6 Y636.397 I2.121 J2.121
N4770 G01 Y643.07
N4775 G02 X429.478 Y645.191 I3.
N4780 G03 X427.958 Y646.711 I-0.76 J0.76
N4785 G02 X425.837 Y645.833 I-2.121 J2.122
N4790 G01 X191.914
N4795 G02 X190.121 Y646.428 J3.
N4800 G01 X190.087 Y646.445
N4805 X190.049 Y646.451
N4810 X190.011 Y646.444
N4815 X189.977 Y646.425
N4820 X189.952 Y646.397
N4825 X189.936 Y646.362
N4830 X189.933 Y646.323
N4835 X189.943 Y646.286
N4840 X190.13 Y645.867
N4845 X195.802 Y638.727
N4850 X195.834 Y638.677
N4855 X196.532 Y637.315
N4860 G03 X196.981 Y637.214 I0.267 J0.137
N4865 X193.519 Y641.742 Z-9.563 I-1.731 J2.264 F1500.
N4870 X196.981 Y637.214 Z-9.875 I1.731 J-2.264
N4875 X193.519 Y641.742 Z-10.188 I-1.731 J2.264
N4880 X196.981 Y637.214 Z-10.501 I1.731 J-2.264
N4885 X193.519 Y641.742 Z-10.813 I-1.731 J2.264
N4890 X196.981 Y637.214 Z-11.126 I1.731 J-2.264
N4895 X193.519 Y641.742 Z-11.439 I-1.731 J2.264
N4900 X196.981 Y637.214 Z-11.751 I1.731 J-2.264
N4905 X193.519 Y641.742 Z-12.064 I-1.731 J2.264
N4910 X196.981 Y637.214 Z-12.377 I1.731 J-2.264
N4915 X193.519 Y641.742 Z-12.689 I-1.731 J2.264
N4920 X196.981 Y637.214 Z-13.002 I1.731 J-2.264
N4925 X193.519 Y641.742 Z-13.315 I-1.731 J2.264
N4930 X196.981 Y637.214 Z-13.627 I1.731 J-2.264
N4935 X195.25 Y642.328 Z-13.875 I-1.731 J2.264
N4940 G01 X192.974 F3000.
N4945 G03 X192.655 Y642.009 J-0.319
N4950 G01 Y637.457
N4955 G03 X192.974 Y637.138 I0.319
N4960 G01 X424.776
N4965 G03 X425.095 Y637.457 J0.319
N4970 G01 Y642.009
N4975 G03 X424.776 Y642.328 I-0.319
N4980 G01 X195.25
N4985 G02 X192.355 Y643.964 J3.381
N4990 G03 X190.121 Y646.428 I-7.389 J-4.453
N4995 G02 X189.793 Y646.712 I1.793 J2.405
N5000 G03 X188.272 Y645.191 I-0.76 J-0.76
N5005 G02 X189.15 Y643.07 I-2.122 J-2.121
N5010 G01 Y636.397
N5015 G02 X188.271 Y634.276 I-3.
N5020 G03 X189.793 Y632.754 I0.761 J-0.761
N5025 G02 X191.914 Y633.633 I2.121 J-2.121
N5030 G01 X425.837
N5035 G02 X427.958 Y632.755 J-3.
N5040 G03 X429.479 Y634.276 I0.76 J0.761
N5045 G02 X428.6 Y636.397 I2.121 J2.121
N5050 G01 Y643.07
N5055 G02 X429.478 Y645.191 I3.
N5060 G03 X427.958 Y646.711 I-0.76 J0.76
N5065 G02 X425.837 Y645.833 I-2.121 J2.122
N5070 G01 X191.914
N5075 G02 X190.121 Y646.428 J3.
N5080 G01 X190.087 Y646.445
N5085 X190.049 Y646.451
N5090 X190.011 Y646.444
N5095 X189.977 Y646.425
N5100 X189.952 Y646.397
N5105 X189.936 Y646.362
N5110 X189.933 Y646.323
N5115 X189.943 Y646.286
N5120 X190.13 Y645.867
N5125 X195.802 Y638.727
N5130 X195.834 Y638.677
N5135 X196.532 Y637.315
N5140 G03 X196.981 Y637.214 I0.267 J0.137
N5145 X193.519 Y641.742 Z-14.188 I-1.731 J2.264 F1500.
N5150 X196.981 Y637.214 Z-14.5 I1.731 J-2.264
N5155 X193.519 Y641.742 Z-14.813 I-1.731 J2.264
N5160 X196.981 Y637.214 Z-15.126 I1.731 J-2.264
N5165 X193.519 Y641.742 Z-15.438 I-1.731 J2.264
N5170 X196.981 Y637.214 Z-15.751 I1.731 J-2.264
N5175 X193.519 Y641.742 Z-16.064 I-1.731 J2.264
N5180 X196.981 Y637.214 Z-16.376 I1.731 J-2.264
N5185 X193.519 Y641.742 Z-16.689 I-1.731 J2.264
N5190 X196.981 Y637.214 Z-17.002 I1.731 J-2.264
N5195 X193.519 Y641.742 Z-17.314 I-1.731 J2.264
N5200 X196.981 Y637.214 Z-17.627 I1.731 J-2.264
N5205 X193.519 Y641.742 Z-17.94 I-1.731 J2.264
N5210 X196.981 Y637.214 Z-18.252 I1.731 J-2.264
N5215 X195.25 Y642.328 Z-18.5 I-1.731 J2.264
N5220 G01 X192.974 F3000.
N5225 G03 X192.655 Y642.009 J-0.319
N5230 G01 Y637.457
N5235 G03 X192.974 Y637.138 I0.319
N5240 G01 X424.776
N5245 G03 X425.095 Y637.457 J0.319
N5250 G01 Y642.009
N5255 G03 X424.776 Y642.328 I-0.319
N5260 G01 X195.25
N5265 G02 X192.355 Y643.964 J3.381
N5270 G03 X190.121 Y646.428 I-7.389 J-4.453
N5275 G02 X189.793 Y646.712 I1.793 J2.405
N5280 G03 X188.272 Y645.191 I-0.76 J-0.76
N5285 G02 X189.15 Y643.07 I-2.122 J-2.121
N5290 G01 Y636.397
N5295 G02 X188.271 Y634.276 I-3.
N5300 G03 X189.793 Y632.754 I0.761 J-0.761
N5305 G02 X191.914 Y633.633 I2.121 J-2.121
N5310 G01 X425.837
N5315 G02 X427.958 Y632.755 J-3.
N5320 G03 X429.479 Y634.276 I0.76 J0.761
N5325 G02 X428.6 Y636.397 I2.121 J2.121
N5330 G01 Y643.07
N5335 G02 X429.478 Y645.191 I3.
N5340 G03 X427.958 Y646.711 I-0.76 J0.76
N5345 G02 X425.837 Y645.833 I-2.121 J2.122
N5350 G01 X191.914
N5355 G02 X190.121 Y646.428 J3.
N5360 G01 X190.043 Y646.477 Z-18.485 F1500.
N5365 X189.958 Y646.514 Z-18.471
N5370 X189.877 Y646.535 Z-18.428
N5375 X189.794 Y646.546 Z-18.385
N5380 X189.728 Z-18.319
N5385 X189.662 Y646.538 Z-18.253
N5390 X189.579 Y646.518 Z-18.085
N5395 X189.552 Y646.508 Z-17.9
N5400 G00 Z15.

(2D POCKET2)
N5405 G00 X469.866 Y302.538
N5410 Z15.
N5415 Z5.
N5420 G01 Z3.1 F333.
N5425 X469.886 Y302.504 Z2.886 F1500.
N5430 X469.946 Y302.408 Z2.7
N5435 X470.045 Y302.268 Z2.567
N5440 X470.121 Y302.171 Z2.519
N5445 X470.207 Y302.071 Z2.5
N5450 G03 X474.443 Y305.885 Z2.187 I2.118 J1.907
N5455 X470.207 Y302.071 Z1.875 I-2.118 J-1.907
N5460 X474.443 Y305.885 Z1.562 I2.118 J1.907
N5465 X470.207 Y302.071 Z1.249 I-2.118 J-1.907
N5470 X474.443 Y305.885 Z0.937 I2.118 J1.907
N5475 X470.207 Y302.071 Z0.624 I-2.118 J-1.907
N5480 X474.443 Y305.885 Z0.311 I2.118 J1.907
N5485 X470.207 Y302.071 Z-0.001 I-2.118 J-1.907
N5490 X474.443 Y305.885 Z-0.314 I2.118 J1.907
N5495 X470.207 Y302.071 Z-0.627 I-2.118 J-1.907
N5500 X474.443 Y305.885 Z-0.939 I2.118 J1.907
N5505 X470.207 Y302.071 Z-1.252 I-2.118 J-1.907
N5510 X474.443 Y305.885 Z-1.565 I2.118 J1.907
N5515 X470.207 Y302.071 Z-1.877 I-2.118 J-1.907
N5520 X474.443 Y305.885 Z-2.19 I2.118 J1.907
N5525 X470.207 Y302.071 Z-2.503 I-2.118 J-1.907
N5530 X474.443 Y305.885 Z-2.815 I2.118 J1.907
N5535 X470.207 Y302.071 Z-3.128 I-2.118 J-1.907
N5540 X474.443 Y305.885 Z-3.441 I2.118 J1.907
N5545 X470.207 Y302.071 Z-3.753 I-2.118 J-1.907
N5550 X474.443 Y305.885 Z-4.066 I2.118 J1.907
N5555 X470.207 Y302.071 Z-4.379 I-2.118 J-1.907
N5560 X474.443 Y305.885 Z-4.691 I2.118 J1.907
N5565 X470.207 Y302.071 Z-5.004 I-2.118 J-1.907
N5570 X474.443 Y305.885 Z-5.317 I2.118 J1.907
N5575 X472.325 Y306.828 Z-5.4 I-2.118 J-1.907
N5580 G01 X470.549 F3000.
N5585 G03 X470.23 Y306.509 J-0.319
N5590 G01 Y302.957
N5595 G03 X470.549 Y302.638 I0.319
N5600 G01 X474.101
N5605 G03 X474.42 Y302.957 J0.319
N5610 G01 Y306.509
N5615 G03 X474.101 Y306.828 I-0.319
N5620 G01 X472.325
N5625 G02 X469.7 Y308.578 J2.844
N5630 G03 X467.075 Y310.328 I-2.625 J-1.094
N5635 G01 X467.049
N5640 G03 X466.73 Y310.009 J-0.319
N5645 G01 Y299.457
N5650 G03 X467.049 Y299.138 I0.319
N5655 G01 X477.601
N5660 G03 X477.92 Y299.457 J0.319
N5665 G01 Y310.009
N5670 G03 X477.601 Y310.328 I-0.319
N5675 G01 X467.075
N5680 G02 X465.196 Y311.228 J2.412
N5685 G03 X463.23 Y310.536 I-0.861 J-0.692
N5690 G01 Y295.957
N5695 G03 X463.549 Y295.638 I0.319
N5700 G01 X481.101
N5705 G03 X481.42 Y295.957 J0.319
N5710 G01 Y313.509
N5715 G03 X481.101 Y313.828 I-0.319
N5720 G01 X463.549
N5725 G03 X463.23 Y313.509 J-0.319
N5730 G01 Y310.536
N5735 G02 X461.48 Y307.911 I-2.844
N5740 G03 X459.73 Y305.286 I1.094 J-2.625
N5745 G01 Y292.457
N5750 G03 X460.049 Y292.138 I0.319
N5755 G01 X484.601
N5760 G03 X484.92 Y292.457 J0.319
N5765 G01 Y317.009
N5770 G03 X484.601 Y317.328 I-0.319
N5775 G01 X460.049
N5780 G03 X459.73 Y317.009 J-0.319
N5785 G01 Y305.286
N5790 G02 X457.98 Y302.661 I-2.844
N5795 G03 X456.23 Y300.036 I1.094 J-2.625
N5800 G01 Y288.957
N5805 G03 X456.549 Y288.638 I0.319
N5810 G01 X488.101
N5815 G03 X488.42 Y288.957 J0.319
N5820 G01 Y320.509
N5825 G03 X488.101 Y320.828 I-0.319
N5830 G01 X456.549
N5835 G03 X456.23 Y320.509 J-0.319
N5840 G01 Y300.036
N5845 G02 X454.478 Y297.407 I-2.848
N5850 G03 X452.725 Y294.778 I1.095 J-2.629
N5855 G01 Y287.897
N5860 G02 X451.846 Y285.776 I-3.
N5865 G03 X453.368 Y284.254 I0.761 J-0.761
N5870 G02 X455.489 Y285.133 I2.121 J-2.121
N5875 G01 X489.162
N5880 G02 X491.283 Y284.255 J-3.
N5885 G03 X492.804 Y285.776 I0.76 J0.761
N5890 G02 X491.925 Y287.897 I2.121 J2.121
N5895 G01 Y321.57
N5900 G02 X492.803 Y323.691 I3.
N5905 G03 X491.283 Y325.211 I-0.76 J0.76
N5910 G02 X489.162 Y324.333 I-2.121 J2.122
N5915 G01 X455.489
N5920 G02 X453.368 Y325.212 J3.
N5925 G03 X451.847 Y323.691 I-0.76 J-0.76
N5930 G02 X452.725 Y321.57 I-2.122 J-2.121
N5935 G01 Y294.778
N5940 G03 X453.15 Y294.506 I0.3
N5945 G01 X469.831 Y302.174
N5950 G02 X470.182 Y302.099 I0.125 J-0.273
N5955 G03 X474.468 Y305.857 Z-5.713 I2.143 J1.879 F1500.
N5960 X470.182 Y302.099 Z-6.025 I-2.143 J-1.879
N5965 X474.468 Y305.857 Z-6.338 I2.143 J1.879
N5970 X470.182 Y302.099 Z-6.651 I-2.143 J-1.879
N5975 X474.468 Y305.857 Z-6.963 I2.143 J1.879
N5980 X470.182 Y302.099 Z-7.276 I-2.143 J-1.879
N5985 X474.468 Y305.857 Z-7.589 I2.143 J1.879
N5990 X470.182 Y302.099 Z-7.901 I-2.143 J-1.879
N5995 X474.468 Y305.857 Z-8.214 I2.143 J1.879
N6000 X470.182 Y302.099 Z-8.527 I-2.143 J-1.879
N6005 X474.468 Y305.857 Z-8.839 I2.143 J1.879
N6010 X470.182 Y302.099 Z-9.152 I-2.143 J-1.879
N6015 X474.468 Y305.857 Z-9.465 I2.143 J1.879
N6020 X470.182 Y302.099 Z-9.777 I-2.143 J-1.879
N6025 X474.468 Y305.857 Z-10.09 I2.143 J1.879
N6030 X470.182 Y302.099 Z-10.403 I-2.143 J-1.879
N6035 X474.468 Y305.857 Z-10.715 I2.143 J1.879
N6040 X472.325 Y306.828 Z-10.8 I-2.143 J-1.879
N6045 G01 X470.549 F3000.
N6050 G03 X470.23 Y306.509 J-0.319
N6055 G01 Y302.957
N6060 G03 X470.549 Y302.638 I0.319
N6065 G01 X474.101
N6070 G03 X474.42 Y302.957 J0.319
N6075 G01 Y306.509
N6080 G03 X474.101 Y306.828 I-0.319
N6085 G01 X472.325
N6090 G02 X469.7 Y308.578 J2.844
N6095 G03 X467.075 Y310.328 I-2.625 J-1.094
N6100 G01 X467.049
N6105 G03 X466.73 Y310.009 J-0.319
N6110 G01 Y299.457
N6115 G03 X467.049 Y299.138 I0.319
N6120 G01 X477.601
N6125 G03 X477.92 Y299.457 J0.319
N6130 G01 Y310.009
N6135 G03 X477.601 Y310.328 I-0.319
N6140 G01 X467.075
N6145 G02 X465.196 Y311.228 J2.412
N6150 G03 X463.23 Y310.536 I-0.861 J-0.692
N6155 G01 Y295.957
N6160 G03 X463.549 Y295.638 I0.319
N6165 G01 X481.101
N6170 G03 X481.42 Y295.957 J0.319
N6175 G01 Y313.509
N6180 G03 X481.101 Y313.828 I-0.319
N6185 G01 X463.549
N6190 G03 X463.23 Y313.509 J-0.319
N6195 G01 Y310.536
N6200 G02 X461.48 Y307.911 I-2.844
N6205 G03 X459.73 Y305.286 I1.094 J-2.625
N6210 G01 Y292.457
N6215 G03 X460.049 Y292.138 I0.319
N6220 G01 X484.601
N6225 G03 X484.92 Y292.457 J0.319
N6230 G01 Y317.009
N6235 G03 X484.601 Y317.328 I-0.319
N6240 G01 X460.049
N6245 G03 X459.73 Y317.009 J-0.319
N6250 G01 Y305.286
N6255 G02 X457.98 Y302.661 I-2.844
N6260 G03 X456.23 Y300.036 I1.094 J-2.625
N6265 G01 Y288.957
N6270 G03 X456.549 Y288.638 I0.319
N6275 G01 X488.101
N6280 G03 X488.42 Y288.957 J0.319
N6285 G01 Y320.509
N6290 G03 X488.101 Y320.828 I-0.319
N6295 G01 X456.549
N6300 G03 X456.23 Y320.509 J-0.319
N6305 G01 Y300.036
N6310 G02 X454.478 Y297.407 I-2.848
N6315 G03 X452.725 Y294.778 I1.095 J-2.629
N6320 G01 Y287.897
N6325 G02 X451.846 Y285.776 I-3.
N6330 G03 X453.368 Y284.254 I0.761 J-0.761
N6335 G02 X455.489 Y285.133 I2.121 J-2.121
N6340 G01 X489.162
N6345 G02 X491.283 Y284.255 J-3.
N6350 G03 X492.804 Y285.776 I0.76 J0.761
N6355 G02 X491.925 Y287.897 I2.121 J2.121
N6360 G01 Y321.57
N6365 G02 X492.803 Y323.691 I3.
N6370 G03 X491.283 Y325.211 I-0.76 J0.76
N6375 G02 X489.162 Y324.333 I-2.121 J2.122
N6380 G01 X455.489
N6385 G02 X453.368 Y325.212 J3.
N6390 G03 X451.847 Y323.691 I-0.76 J-0.76
N6395 G02 X452.725 Y321.57 I-2.122 J-2.121
N6400 G01 Y294.778
N6405 G03 X453.15 Y294.506 I0.3
N6410 G01 X469.831 Y302.174
N6415 G02 X470.182 Y302.099 I0.125 J-0.273
N6420 G03 X474.468 Y305.857 Z-11.113 I2.143 J1.879 F1500.
N6425 X470.182 Y302.099 Z-11.425 I-2.143 J-1.879
N6430 X474.468 Y305.857 Z-11.738 I2.143 J1.879
N6435 X470.182 Y302.099 Z-12.051 I-2.143 J-1.879
N6440 X474.468 Y305.857 Z-12.363 I2.143 J1.879
N6445 X470.182 Y302.099 Z-12.676 I-2.143 J-1.879
N6450 X474.468 Y305.857 Z-12.989 I2.143 J1.879
N6455 X470.182 Y302.099 Z-13.301 I-2.143 J-1.879
N6460 X474.468 Y305.857 Z-13.614 I2.143 J1.879
N6465 X470.182 Y302.099 Z-13.927 I-2.143 J-1.879
N6470 X474.468 Y305.857 Z-14.239 I2.143 J1.879
N6475 X470.182 Y302.099 Z-14.552 I-2.143 J-1.879
N6480 X474.468 Y305.857 Z-14.865 I2.143 J1.879
N6485 X470.182 Y302.099 Z-15.177 I-2.143 J-1.879
N6490 X474.468 Y305.857 Z-15.49 I2.143 J1.879
N6495 X470.182 Y302.099 Z-15.803 I-2.143 J-1.879
N6500 X474.468 Y305.857 Z-16.115 I2.143 J1.879
N6505 X472.325 Y306.828 Z-16.2 I-2.143 J-1.879
N6510 G01 X470.549 F3000.
N6515 G03 X470.23 Y306.509 J-0.319
N6520 G01 Y302.957
N6525 G03 X470.549 Y302.638 I0.319
N6530 G01 X474.101
N6535 G03 X474.42 Y302.957 J0.319
N6540 G01 Y306.509
N6545 G03 X474.101 Y306.828 I-0.319
N6550 G01 X472.325
N6555 G02 X469.7 Y308.578 J2.844
N6560 G03 X467.075 Y310.328 I-2.625 J-1.094
N6565 G01 X467.049
N6570 G03 X466.73 Y310.009 J-0.319
N6575 G01 Y299.457
N6580 G03 X467.049 Y299.138 I0.319
N6585 G01 X477.601
N6590 G03 X477.92 Y299.457 J0.319
N6595 G01 Y310.009
N6600 G03 X477.601 Y310.328 I-0.319
N6605 G01 X467.075
N6610 G02 X465.196 Y311.228 J2.412
N6615 G03 X463.23 Y310.536 I-0.861 J-0.692
N6620 G01 Y295.957
N6625 G03 X463.549 Y295.638 I0.319
N6630 G01 X481.101
N6635 G03 X481.42 Y295.957 J0.319
N6640 G01 Y313.509
N6645 G03 X481.101 Y313.828 I-0.319
N6650 G01 X463.549
N6655 G03 X463.23 Y313.509 J-0.319
N6660 G01 Y310.536
N6665 G02 X461.48 Y307.911 I-2.844
N6670 G03 X459.73 Y305.286 I1.094 J-2.625
N6675 G01 Y292.457
N6680 G03 X460.049 Y292.138 I0.319
N6685 G01 X484.601
N6690 G03 X484.92 Y292.457 J0.319
N6695 G01 Y317.009
N6700 G03 X484.601 Y317.328 I-0.319
N6705 G01 X460.049
N6710 G03 X459.73 Y317.009 J-0.319
N6715 G01 Y305.286
N6720 G02 X457.98 Y302.661 I-2.844
N6725 G03 X456.23 Y300.036 I1.094 J-2.625
N6730 G01 Y288.957
N6735 G03 X456.549 Y288.638 I0.319
N6740 G01 X488.101
N6745 G03 X488.42 Y288.957 J0.319
N6750 G01 Y320.509
N6755 G03 X488.101 Y320.828 I-0.319
N6760 G01 X456.549
N6765 G03 X456.23 Y320.509 J-0.319
N6770 G01 Y300.036
N6775 G02 X454.478 Y297.407 I-2.848
N6780 G03 X452.725 Y294.778 I1.095 J-2.629
N6785 G01 Y287.897
N6790 G02 X451.846 Y285.776 I-3.
N6795 G03 X453.368 Y284.254 I0.761 J-0.761
N6800 G02 X455.489 Y285.133 I2.121 J-2.121
N6805 G01 X489.162
N6810 G02 X491.283 Y284.255 J-3.
N6815 G03 X492.804 Y285.776 I0.76 J0.761
N6820 G02 X491.925 Y287.897 I2.121 J2.121
N6825 G01 Y321.57
N6830 G02 X492.803 Y323.691 I3.
N6835 G03 X491.283 Y325.211 I-0.76 J0.76
N6840 G02 X489.162 Y324.333 I-2.121 J2.122
N6845 G01 X455.489
N6850 G02 X453.368 Y325.212 J3.
N6855 G03 X451.847 Y323.691 I-0.76 J-0.76
N6860 G02 X452.725 Y321.57 I-2.122 J-2.121
N6865 G01 Y294.778
N6870 X452.732 Y294.686 Z-16.185 F1500.
N6875 X452.753 Y294.596 Z-16.171
N6880 X452.784 Y294.518 Z-16.128
N6885 X452.826 Y294.446 Z-16.085
N6890 X452.865 Y294.393 Z-16.019
N6895 X452.911 Y294.344 Z-15.953
N6900 X452.977 Y294.29 Z-15.785
N6905 X453.001 Y294.274 Z-15.6
N6910 G00 Z5.
N6915 X765.266 Y637.537
N6920 G01 Z3.1 F333.
N6925 X765.286 Y637.503 Z2.886 F1500.
N6930 X765.346 Y637.407 Z2.7
N6935 X765.445 Y637.267 Z2.567
N6940 X765.521 Y637.17 Z2.519
N6945 X765.607 Y637.07 Z2.5
N6950 G03 X769.843 Y640.884 Z2.187 I2.118 J1.907
N6955 X765.607 Y637.07 Z1.875 I-2.118 J-1.907
N6960 X769.843 Y640.884 Z1.562 I2.118 J1.907
N6965 X765.607 Y637.07 Z1.249 I-2.118 J-1.907
N6970 X769.843 Y640.884 Z0.937 I2.118 J1.907
N6975 X765.607 Y637.07 Z0.624 I-2.118 J-1.907
N6980 X769.843 Y640.884 Z0.311 I2.118 J1.907
N6985 X765.607 Y637.07 Z-0.001 I-2.118 J-1.907
N6990 X769.843 Y640.884 Z-0.314 I2.118 J1.907
N6995 X765.607 Y637.07 Z-0.627 I-2.118 J-1.907
N7000 X769.843 Y640.884 Z-0.939 I2.118 J1.907
N7005 X765.607 Y637.07 Z-1.252 I-2.118 J-1.907
N7010 X769.843 Y640.884 Z-1.565 I2.118 J1.907
N7015 X765.607 Y637.07 Z-1.877 I-2.118 J-1.907
N7020 X769.843 Y640.884 Z-2.19 I2.118 J1.907
N7025 X765.607 Y637.07 Z-2.503 I-2.118 J-1.907
N7030 X769.843 Y640.884 Z-2.815 I2.118 J1.907
N7035 X765.607 Y637.07 Z-3.128 I-2.118 J-1.907
N7040 X769.843 Y640.884 Z-3.441 I2.118 J1.907
N7045 X765.607 Y637.07 Z-3.753 I-2.118 J-1.907
N7050 X769.843 Y640.884 Z-4.066 I2.118 J1.907
N7055 X765.607 Y637.07 Z-4.379 I-2.118 J-1.907
N7060 X769.843 Y640.884 Z-4.691 I2.118 J1.907
N7065 X765.607 Y637.07 Z-5.004 I-2.118 J-1.907
N7070 X769.843 Y640.884 Z-5.317 I2.118 J1.907
N7075 X767.725 Y641.827 Z-5.4 I-2.118 J-1.907
N7080 G01 X765.95 F3000.
N7085 G03 X765.631 Y641.508 J-0.319
N7090 G01 Y637.958
N7095 G03 X765.95 Y637.639 I0.319
N7100 G01 X769.5
N7105 G03 X769.819 Y637.958 J0.319
N7110 G01 Y641.508
N7115 G03 X769.5 Y641.827 I-0.319
N7120 G01 X767.725
N7125 G02 X765.1 Y643.577 J2.844
N7130 G03 X762.475 Y645.327 I-2.625 J-1.094
N7135 G01 X762.45
N7140 G03 X762.131 Y645.008 J-0.319
N7145 G01 Y634.458
N7150 G03 X762.45 Y634.139 I0.319
N7155 G01 X773.
N7160 G03 X773.319 Y634.458 J0.319
N7165 G01 Y645.008
N7170 G03 X773. Y645.327 I-0.319
N7175 G01 X762.475
N7180 G02 X760.596 Y646.227 J2.412
N7185 G03 X758.631 Y645.534 I-0.86 J-0.693
N7190 G01 Y630.958
N7195 G03 X758.95 Y630.639 I0.319
N7200 G01 X776.5
N7205 G03 X776.819 Y630.958 J0.319
N7210 G01 Y648.508
N7215 G03 X776.5 Y648.827 I-0.319
N7220 G01 X758.95
N7225 G03 X758.631 Y648.508 J-0.319
N7230 G01 Y645.534
N7235 G02 X756.881 Y642.909 I-2.844
N7240 G03 X755.131 Y640.284 I1.094 J-2.625
N7245 G01 Y627.458
N7250 G03 X755.45 Y627.139 I0.319
N7255 G01 X780.
N7260 G03 X780.319 Y627.458 J0.319
N7265 G01 Y652.008
N7270 G03 X780. Y652.327 I-0.319
N7275 G01 X755.45
N7280 G03 X755.131 Y652.008 J-0.319
N7285 G01 Y640.284
N7290 G02 X753.381 Y637.659 I-2.844
N7295 G03 X751.631 Y635.034 I1.094 J-2.625
N7300 G01 Y623.952
N7305 G03 X751.944 Y623.639 I0.313
N7310 G01 X783.506
N7315 G03 X783.819 Y623.952 J0.313
N7320 G01 Y655.514
N7325 G03 X783.506 Y655.827 I-0.313
N7330 G01 X751.944
N7335 G03 X751.631 Y655.514 J-0.313
N7340 G01 Y635.034
N7345 G02 X749.878 Y632.404 I-2.849
N7350 G03 X748.125 Y629.775 I1.096 J-2.629
N7355 G01 Y622.897
N7360 G02 X747.246 Y620.776 I-3.
N7365 G03 X748.768 Y619.254 I0.761 J-0.761
N7370 G02 X750.889 Y620.133 I2.121 J-2.121
N7375 G01 X784.562
N7380 G02 X786.683 Y619.255 J-3.
N7385 G03 X788.204 Y620.776 I0.76 J0.761
N7390 G02 X787.325 Y622.897 I2.121 J2.121
N7395 G01 Y656.57
N7400 G02 X788.203 Y658.691 I3.
N7405 G03 X786.683 Y660.211 I-0.76 J0.76
N7410 G02 X784.562 Y659.333 I-2.121 J2.122
N7415 G01 X750.889
N7420 G02 X748.768 Y660.212 J3.
N7425 G03 X747.247 Y658.691 I-0.76 J-0.76
N7430 G02 X748.125 Y656.57 I-2.122 J-2.121
N7435 G01 Y629.775
N7440 G03 X748.55 Y629.502 I0.3
N7445 G01 X765.231 Y637.173
N7450 G02 X765.582 Y637.098 I0.125 J-0.273
N7455 G03 X769.868 Y640.856 Z-5.713 I2.143 J1.879 F1500.
N7460 X765.582 Y637.098 Z-6.025 I-2.143 J-1.879
N7465 X769.868 Y640.856 Z-6.338 I2.143 J1.879
N7470 X765.582 Y637.098 Z-6.651 I-2.143 J-1.879
N7475 X769.868 Y640.856 Z-6.963 I2.143 J1.879
N7480 X765.582 Y637.098 Z-7.276 I-2.143 J-1.879
N7485 X769.868 Y640.856 Z-7.589 I2.143 J1.879
N7490 X765.582 Y637.098 Z-7.901 I-2.143 J-1.879
N7495 X769.868 Y640.856 Z-8.214 I2.143 J1.879
N7500 X765.582 Y637.098 Z-8.527 I-2.143 J-1.879
N7505 X769.868 Y640.856 Z-8.839 I2.143 J1.879
N7510 X765.582 Y637.098 Z-9.152 I-2.143 J-1.879
N7515 X769.868 Y640.856 Z-9.465 I2.143 J1.879
N7520 X765.582 Y637.098 Z-9.777 I-2.143 J-1.879
N7525 X769.868 Y640.856 Z-10.09 I2.143 J1.879
N7530 X765.582 Y637.098 Z-10.403 I-2.143 J-1.879
N7535 X769.868 Y640.856 Z-10.715 I2.143 J1.879
N7540 X767.725 Y641.827 Z-10.8 I-2.143 J-1.879
N7545 G01 X765.95 F3000.
N7550 G03 X765.631 Y641.508 J-0.319
N7555 G01 Y637.958
N7560 G03 X765.95 Y637.639 I0.319
N7565 G01 X769.5
N7570 G03 X769.819 Y637.958 J0.319
N7575 G01 Y641.508
N7580 G03 X769.5 Y641.827 I-0.319
N7585 G01 X767.725
N7590 G02 X765.1 Y643.577 J2.844
N7595 G03 X762.475 Y645.327 I-2.625 J-1.094
N7600 G01 X762.45
N7605 G03 X762.131 Y645.008 J-0.319
N7610 G01 Y634.458
N7615 G03 X762.45 Y634.139 I0.319
N7620 G01 X773.
N7625 G03 X773.319 Y634.458 J0.319
N7630 G01 Y645.008
N7635 G03 X773. Y645.327 I-0.319
N7640 G01 X762.475
N7645 G02 X760.596 Y646.227 J2.412
N7650 G03 X758.631 Y645.534 I-0.86 J-0.693
N7655 G01 Y630.958
N7660 G03 X758.95 Y630.639 I0.319
N7665 G01 X776.5
N7670 G03 X776.819 Y630.958 J0.319
N7675 G01 Y648.508
N7680 G03 X776.5 Y648.827 I-0.319
N7685 G01 X758.95
N7690 G03 X758.631 Y648.508 J-0.319
N7695 G01 Y645.534
N7700 G02 X756.881 Y642.909 I-2.844
N7705 G03 X755.131 Y640.284 I1.094 J-2.625
N7710 G01 Y627.458
N7715 G03 X755.45 Y627.139 I0.319
N7720 G01 X780.
N7725 G03 X780.319 Y627.458 J0.319
N7730 G01 Y652.008
N7735 G03 X780. Y652.327 I-0.319
N7740 G01 X755.45
N7745 G03 X755.131 Y652.008 J-0.319
N7750 G01 Y640.284
N7755 G02 X753.381 Y637.659 I-2.844
N7760 G03 X751.631 Y635.034 I1.094 J-2.625
N7765 G01 Y623.952
N7770 G03 X751.944 Y623.639 I0.313
N7775 G01 X783.506
N7780 G03 X783.819 Y623.952 J0.313
N7785 G01 Y655.514
N7790 G03 X783.506 Y655.827 I-0.313
N7795 G01 X751.944
N7800 G03 X751.631 Y655.514 J-0.313
N7805 G01 Y635.034
N7810 G02 X749.878 Y632.404 I-2.849
N7815 G03 X748.125 Y629.775 I1.096 J-2.629
N7820 G01 Y622.897
N7825 G02 X747.246 Y620.776 I-3.
N7830 G03 X748.768 Y619.254 I0.761 J-0.761
N7835 G02 X750.889 Y620.133 I2.121 J-2.121
N7840 G01 X784.562
N7845 G02 X786.683 Y619.255 J-3.
N7850 G03 X788.204 Y620.776 I0.76 J0.761
N7855 G02 X787.325 Y622.897 I2.121 J2.121
N7860 G01 Y656.57
N7865 G02 X788.203 Y658.691 I3.
N7870 G03 X786.683 Y660.211 I-0.76 J0.76
N7875 G02 X784.562 Y659.333 I-2.121 J2.122
N7880 G01 X750.889
N7885 G02 X748.768 Y660.212 J3.
N7890 G03 X747.247 Y658.691 I-0.76 J-0.76
N7895 G02 X748.125 Y656.57 I-2.122 J-2.121
N7900 G01 Y629.775
N7905 G03 X748.55 Y629.502 I0.3
N7910 G01 X765.231 Y637.173
N7915 G02 X765.582 Y637.098 I0.125 J-0.273
N7920 G03 X769.868 Y640.856 Z-11.113 I2.143 J1.879 F1500.
N7925 X765.582 Y637.098 Z-11.425 I-2.143 J-1.879
N7930 X769.868 Y640.856 Z-11.738 I2.143 J1.879
N7935 X765.582 Y637.098 Z-12.051 I-2.143 J-1.879
N7940 X769.868 Y640.856 Z-12.363 I2.143 J1.879
N7945 X765.582 Y637.098 Z-12.676 I-2.143 J-1.879
N7950 X769.868 Y640.856 Z-12.989 I2.143 J1.879
N7955 X765.582 Y637.098 Z-13.301 I-2.143 J-1.879
N7960 X769.868 Y640.856 Z-13.614 I2.143 J1.879
N7965 X765.582 Y637.098 Z-13.927 I-2.143 J-1.879
N7970 X769.868 Y640.856 Z-14.239 I2.143 J1.879
N7975 X765.582 Y637.098 Z-14.552 I-2.143 J-1.879
N7980 X769.868 Y640.856 Z-14.865 I2.143 J1.879
N7985 X765.582 Y637.098 Z-15.177 I-2.143 J-1.879
N7990 X769.868 Y640.856 Z-15.49 I2.143 J1.879
N7995 X765.582 Y637.098 Z-15.803 I-2.143 J-1.879
N8000 X769.868 Y640.856 Z-16.115 I2.143 J1.879
N8005 X767.725 Y641.827 Z-16.2 I-2.143 J-1.879
N8010 G01 X765.95 F3000.
N8015 G03 X765.631 Y641.508 J-0.319
N8020 G01 Y637.958
N8025 G03 X765.95 Y637.639 I0.319
N8030 G01 X769.5
N8035 G03 X769.819 Y637.958 J0.319
N8040 G01 Y641.508
N8045 G03 X769.5 Y641.827 I-0.319
N8050 G01 X767.725
N8055 G02 X765.1 Y643.577 J2.844
N8060 G03 X762.475 Y645.327 I-2.625 J-1.094
N8065 G01 X762.45
N8070 G03 X762.131 Y645.008 J-0.319
N8075 G01 Y634.458
N8080 G03 X762.45 Y634.139 I0.319
N8085 G01 X773.
N8090 G03 X773.319 Y634.458 J0.319
N8095 G01 Y645.008
N8100 G03 X773. Y645.327 I-0.319
N8105 G01 X762.475
N8110 G02 X760.596 Y646.227 J2.412
N8115 G03 X758.631 Y645.534 I-0.86 J-0.693
N8120 G01 Y630.958
N8125 G03 X758.95 Y630.639 I0.319
N8130 G01 X776.5
N8135 G03 X776.819 Y630.958 J0.319
N8140 G01 Y648.508
N8145 G03 X776.5 Y648.827 I-0.319
N8150 G01 X758.95
N8155 G03 X758.631 Y648.508 J-0.319
N8160 G01 Y645.534
N8165 G02 X756.881 Y642.909 I-2.844
N8170 G03 X755.131 Y640.284 I1.094 J-2.625
N8175 G01 Y627.458
N8180 G03 X755.45 Y627.139 I0.319
N8185 G01 X780.
N8190 G03 X780.319 Y627.458 J0.319
N8195 G01 Y652.008
N8200 G03 X780. Y652.327 I-0.319
N8205 G01 X755.45
N8210 G03 X755.131 Y652.008 J-0.319
N8215 G01 Y640.284
N8220 G02 X753.381 Y637.659 I-2.844
N8225 G03 X751.631 Y635.034 I1.094 J-2.625
N8230 G01 Y623.952
N8235 G03 X751.944 Y623.639 I0.313
N8240 G01 X783.506
N8245 G03 X783.819 Y623.952 J0.313
N8250 G01 Y655.514
N8255 G03 X783.506 Y655.827 I-0.313
N8260 G01 X751.944
N8265 G03 X751.631 Y655.514 J-0.313
N8270 G01 Y635.034
N8275 G02 X749.878 Y632.404 I-2.849
N8280 G03 X748.125 Y629.775 I1.096 J-2.629
N8285 G01 Y622.897
N8290 G02 X747.246 Y620.776 I-3.
N8295 G03 X748.768 Y619.254 I0.761 J-0.761
N8300 G02 X750.889 Y620.133 I2.121 J-2.121
N8305 G01 X784.562
N8310 G02 X786.683 Y619.255 J-3.
N8315 G03 X788.204 Y620.776 I0.76 J0.761
N8320 G02 X787.325 Y622.897 I2.121 J2.121
N8325 G01 Y656.57
N8330 G02 X788.203 Y658.691 I3.
N8335 G03 X786.683 Y660.211 I-0.76 J0.76
N8340 G02 X784.562 Y659.333 I-2.121 J2.122
N8345 G01 X750.889
N8350 G02 X748.768 Y660.212 J3.
N8355 G03 X747.247 Y658.691 I-0.76 J-0.76
N8360 G02 X748.125 Y656.57 I-2.122 J-2.121
N8365 G01 Y629.775
N8370 X748.132 Y629.683 Z-16.185 F1500.
N8375 X748.153 Y629.592 Z-16.171
N8380 X748.184 Y629.515 Z-16.128
N8385 X748.226 Y629.442 Z-16.085
N8390 X748.265 Y629.389 Z-16.019
N8395 X748.311 Y629.341 Z-15.953
N8400 X748.377 Y629.286 Z-15.785
N8405 X748.401 Y629.27 Z-15.6
N8410 G00 Z15.

(2D POCKET3)
N8415 G00 X468.225 Y303.461
N8420 Z15.
N8425 Z5.
N8430 G01 Z3.1 F333.
N8435 X468.237 Y303.435 Z2.918 F1500.
N8440 X468.276 Y303.363 Z2.754
N8445 X468.339 Y303.253 Z2.622
N8450 X468.427 Y303.117 Z2.534
N8455 X468.534 Y302.972 Z2.5
N8460 G03 X473.016 Y306.494 Z2.187 I2.241 J1.761
N8465 X468.534 Y302.972 Z1.875 I-2.241 J-1.761
N8470 X473.016 Y306.494 Z1.562 I2.241 J1.761
N8475 X468.534 Y302.972 Z1.249 I-2.241 J-1.761
N8480 X473.016 Y306.494 Z0.937 I2.241 J1.761
N8485 X468.534 Y302.972 Z0.624 I-2.241 J-1.761
N8490 X473.016 Y306.494 Z0.311 I2.241 J1.761
N8495 X468.534 Y302.972 Z-0.001 I-2.241 J-1.761
N8500 X473.016 Y306.494 Z-0.314 I2.241 J1.761
N8505 X468.534 Y302.972 Z-0.627 I-2.241 J-1.761
N8510 X473.016 Y306.494 Z-0.939 I2.241 J1.761
N8515 X468.534 Y302.972 Z-1.252 I-2.241 J-1.761
N8520 X473.016 Y306.494 Z-1.565 I2.241 J1.761
N8525 X468.534 Y302.972 Z-1.877 I-2.241 J-1.761
N8530 X473.016 Y306.494 Z-2.19 I2.241 J1.761
N8535 X468.534 Y302.972 Z-2.503 I-2.241 J-1.761
N8540 X473.016 Y306.494 Z-2.815 I2.241 J1.761
N8545 X468.534 Y302.972 Z-3.128 I-2.241 J-1.761
N8550 X473.016 Y306.494 Z-3.441 I2.241 J1.761
N8555 X468.534 Y302.972 Z-3.753 I-2.241 J-1.761
N8560 X473.016 Y306.494 Z-4.066 I2.241 J1.761
N8565 X468.534 Y302.972 Z-4.379 I-2.241 J-1.761
N8570 X473.625 Y304.733 Z-4.625 I2.241 J1.761
N8575 X471.025 I-1.3 F3000.
N8580 X477.225 I3.1
N8585 X467.425 I-4.9
N8590 X480.825 I6.7
N8595 X463.825 I-8.5
N8600 X480.825 I8.5
N8605 X480.516 Y305.033 I-0.3
N8610 G01 X474.334 Y304.853
N8615 X474.293 Y304.852
N8620 X474.252 Y304.845
N8625 X468.678 Y303.475
N8630 G03 X468.511 Y303.002 I0.072 J-0.291
N8635 X473.039 Y306.464 Z-4.938 I2.264 J1.731 F1500.
N8640 X468.511 Y303.002 Z-5.25 I-2.264 J-1.731
N8645 X473.039 Y306.464 Z-5.563 I2.264 J1.731
N8650 X468.511 Y303.002 Z-5.876 I-2.264 J-1.731
N8655 X473.039 Y306.464 Z-6.188 I2.264 J1.731
N8660 X468.511 Y303.002 Z-6.501 I-2.264 J-1.731
N8665 X473.039 Y306.464 Z-6.814 I2.264 J1.731
N8670 X468.511 Y303.002 Z-7.126 I-2.264 J-1.731
N8675 X473.039 Y306.464 Z-7.439 I2.264 J1.731
N8680 X468.511 Y303.002 Z-7.752 I-2.264 J-1.731
N8685 X473.039 Y306.464 Z-8.064 I2.264 J1.731
N8690 X468.511 Y303.002 Z-8.377 I-2.264 J-1.731
N8695 X473.039 Y306.464 Z-8.69 I2.264 J1.731
N8700 X468.511 Y303.002 Z-9.002 I-2.264 J-1.731
N8705 X473.625 Y304.733 Z-9.25 I2.264 J1.731
N8710 X471.025 I-1.3 F3000.
N8715 X477.225 I3.1
N8720 X467.425 I-4.9
N8725 X480.825 I6.7
N8730 X463.825 I-8.5
N8735 X480.825 I8.5
N8740 X480.516 Y305.033 I-0.3
N8745 G01 X474.334 Y304.853
N8750 X474.293 Y304.852
N8755 X474.252 Y304.845
N8760 X468.678 Y303.475
N8765 G03 X468.511 Y303.002 I0.072 J-0.291
N8770 X473.039 Y306.464 Z-9.563 I2.264 J1.731 F1500.
N8775 X468.511 Y303.002 Z-9.875 I-2.264 J-1.731
N8780 X473.039 Y306.464 Z-10.188 I2.264 J1.731
N8785 X468.511 Y303.002 Z-10.501 I-2.264 J-1.731
N8790 X473.039 Y306.464 Z-10.813 I2.264 J1.731
N8795 X468.511 Y303.002 Z-11.126 I-2.264 J-1.731
N8800 X473.039 Y306.464 Z-11.439 I2.264 J1.731
N8805 X468.511 Y303.002 Z-11.751 I-2.264 J-1.731
N8810 X473.039 Y306.464 Z-12.064 I2.264 J1.731
N8815 X468.511 Y303.002 Z-12.377 I-2.264 J-1.731
N8820 X473.039 Y306.464 Z-12.689 I2.264 J1.731
N8825 X468.511 Y303.002 Z-13.002 I-2.264 J-1.731
N8830 X473.039 Y306.464 Z-13.315 I2.264 J1.731
N8835 X468.511 Y303.002 Z-13.627 I-2.264 J-1.731
N8840 X473.625 Y304.733 Z-13.875 I2.264 J1.731
N8845 X471.025 I-1.3 F3000.
N8850 X477.225 I3.1
N8855 X467.425 I-4.9
N8860 X480.825 I6.7
N8865 X463.825 I-8.5
N8870 X480.825 I8.5
N8875 X480.516 Y305.033 I-0.3
N8880 G01 X474.334 Y304.853
N8885 X474.293 Y304.852
N8890 X474.252 Y304.845
N8895 X468.678 Y303.475
N8900 G03 X468.511 Y303.002 I0.072 J-0.291
N8905 X473.039 Y306.464 Z-14.188 I2.264 J1.731 F1500.
N8910 X468.511 Y303.002 Z-14.5 I-2.264 J-1.731
N8915 X473.039 Y306.464 Z-14.813 I2.264 J1.731
N8920 X468.511 Y303.002 Z-15.126 I-2.264 J-1.731
N8925 X473.039 Y306.464 Z-15.438 I2.264 J1.731
N8930 X468.511 Y303.002 Z-15.751 I-2.264 J-1.731
N8935 X473.039 Y306.464 Z-16.064 I2.264 J1.731
N8940 X468.511 Y303.002 Z-16.376 I-2.264 J-1.731
N8945 X473.039 Y306.464 Z-16.689 I2.264 J1.731
N8950 X468.511 Y303.002 Z-17.002 I-2.264 J-1.731
N8955 X473.039 Y306.464 Z-17.314 I2.264 J1.731
N8960 X468.511 Y303.002 Z-17.627 I-2.264 J-1.731
N8965 X473.039 Y306.464 Z-17.94 I2.264 J1.731
N8970 X468.511 Y303.002 Z-18.252 I-2.264 J-1.731
N8975 X473.625 Y304.733 Z-18.5 I2.264 J1.731
N8980 X471.025 I-1.3 F3000.
N8985 X477.225 I3.1
N8990 X467.425 I-4.9
N8995 X480.825 I6.7
N9000 X463.825 I-8.5
N9005 X480.825 I8.5
N9010 G01 X480.818 Y304.825 Z-18.485 F1500.
N9015 X480.797 Y304.915 Z-18.471
N9020 X480.766 Y304.993 Z-18.428
N9025 X480.724 Y305.066 Z-18.385
N9030 X480.685 Y305.119 Z-18.319
N9035 X480.639 Y305.167 Z-18.253
N9040 X480.573 Y305.221 Z-18.085
N9045 X480.549 Y305.238 Z-17.9
N9050 G00 Z5.
N9055 X763.625 Y638.461
N9060 G01 Z3.1 F333.
N9065 X763.638 Y638.435 Z2.918 F1500.
N9070 X763.676 Y638.363 Z2.754
N9075 X763.739 Y638.253 Z2.622
N9080 X763.827 Y638.117 Z2.534
N9085 X763.934 Y637.972 Z2.5
N9090 G03 X764.465 Y637.453 Z2.474 I2.241 J1.761
N9095 X767.885 Y642.013 Z2.161 I1.71 J2.28
N9100 X764.465 Y637.453 Z1.849 I-1.71 J-2.28
N9105 X767.885 Y642.013 Z1.536 I1.71 J2.28
N9110 X764.465 Y637.453 Z1.223 I-1.71 J-2.28
N9115 X767.885 Y642.013 Z0.911 I1.71 J2.28
N9120 X764.465 Y637.453 Z0.598 I-1.71 J-2.28
N9125 X767.885 Y642.013 Z0.285 I1.71 J2.28
N9130 X764.465 Y637.453 Z-0.027 I-1.71 J-2.28
N9135 X767.885 Y642.013 Z-0.34 I1.71 J2.28
N9140 X764.465 Y637.453 Z-0.653 I-1.71 J-2.28
N9145 X767.885 Y642.013 Z-0.965 I1.71 J2.28
N9150 X764.465 Y637.453 Z-1.278 I-1.71 J-2.28
N9155 X767.885 Y642.013 Z-1.591 I1.71 J2.28
N9160 X764.465 Y637.453 Z-1.903 I-1.71 J-2.28
N9165 X767.885 Y642.013 Z-2.216 I1.71 J2.28
N9170 X764.465 Y637.453 Z-2.529 I-1.71 J-2.28
N9175 X767.885 Y642.013 Z-2.841 I1.71 J2.28
N9180 X764.465 Y637.453 Z-3.154 I-1.71 J-2.28
N9185 X767.885 Y642.013 Z-3.467 I1.71 J2.28
N9190 X764.465 Y637.453 Z-3.779 I-1.71 J-2.28
N9195 X767.885 Y642.013 Z-4.092 I1.71 J2.28
N9200 X764.465 Y637.453 Z-4.405 I-1.71 J-2.28
N9205 X769.025 Y639.733 Z-4.625 I1.71 J2.28
N9210 X766.425 I-1.3 F3000.
N9215 X772.625 I3.1
N9220 X762.825 I-4.9
N9225 X776.225 I6.7
N9230 X759.225 I-8.5
N9235 X776.225 I8.5
N9240 X775.916 Y640.033 I-0.3
N9245 G01 X769.734 Y639.853
N9250 X769.693 Y639.852
N9255 X769.652 Y639.845
N9260 X764.078 Y638.475
N9265 G03 X763.911 Y638.002 I0.072 J-0.291
N9270 X764.465 Y637.453 Z-4.652 I2.264 J1.731 F1500.
N9275 X767.885 Y642.013 Z-4.965 I1.71 J2.28
N9280 X764.465 Y637.453 Z-5.278 I-1.71 J-2.28
N9285 X767.885 Y642.013 Z-5.59 I1.71 J2.28
N9290 X764.465 Y637.453 Z-5.903 I-1.71 J-2.28
N9295 X767.885 Y642.013 Z-6.216 I1.71 J2.28
N9300 X764.465 Y637.453 Z-6.528 I-1.71 J-2.28
N9305 X767.885 Y642.013 Z-6.841 I1.71 J2.28
N9310 X764.465 Y637.453 Z-7.154 I-1.71 J-2.28
N9315 X767.885 Y642.013 Z-7.466 I1.71 J2.28
N9320 X764.465 Y637.453 Z-7.779 I-1.71 J-2.28
N9325 X767.885 Y642.013 Z-8.092 I1.71 J2.28
N9330 X764.465 Y637.453 Z-8.404 I-1.71 J-2.28
N9335 X767.885 Y642.013 Z-8.717 I1.71 J2.28
N9340 X764.465 Y637.453 Z-9.03 I-1.71 J-2.28
N9345 X769.025 Y639.733 Z-9.25 I1.71 J2.28
N9350 X766.425 I-1.3 F3000.
N9355 X772.625 I3.1
N9360 X762.825 I-4.9
N9365 X776.225 I6.7
N9370 X759.225 I-8.5
N9375 X776.225 I8.5
N9380 X775.916 Y640.033 I-0.3
N9385 G01 X769.734 Y639.853
N9390 X769.693 Y639.852
N9395 X769.652 Y639.845
N9400 X764.078 Y638.475
N9405 G03 X763.911 Y638.002 I0.072 J-0.291
N9410 X764.465 Y637.453 Z-9.277 I2.264 J1.731 F1500.
N9415 X767.885 Y642.013 Z-9.59 I1.71 J2.28
N9420 X764.465 Y637.453 Z-9.903 I-1.71 J-2.28
N9425 X767.885 Y642.013 Z-10.215 I1.71 J2.28
N9430 X764.465 Y637.453 Z-10.528 I-1.71 J-2.28
N9435 X767.885 Y642.013 Z-10.841 I1.71 J2.28
N9440 X764.465 Y637.453 Z-11.153 I-1.71 J-2.28
N9445 X767.885 Y642.013 Z-11.466 I1.71 J2.28
N9450 X764.465 Y637.453 Z-11.779 I-1.71 J-2.28
N9455 X767.885 Y642.013 Z-12.091 I1.71 J2.28
N9460 X764.465 Y637.453 Z-12.404 I-1.71 J-2.28
N9465 X767.885 Y642.013 Z-12.717 I1.71 J2.28
N9470 X764.465 Y637.453 Z-13.029 I-1.71 J-2.28
N9475 X767.885 Y642.013 Z-13.342 I1.71 J2.28
N9480 X764.465 Y637.453 Z-13.655 I-1.71 J-2.28
N9485 X769.025 Y639.733 Z-13.875 I1.71 J2.28
N9490 X766.425 I-1.3 F3000.
N9495 X772.625 I3.1
N9500 X762.825 I-4.9
N9505 X776.225 I6.7
N9510 X759.225 I-8.5
N9515 X776.225 I8.5
N9520 X775.916 Y640.033 I-0.3
N9525 G01 X769.734 Y639.853
N9530 X769.693 Y639.852
N9535 X769.652 Y639.845
N9540 X764.078 Y638.475
N9545 G03 X763.911 Y638.002 I0.072 J-0.291
N9550 X764.465 Y637.453 Z-13.902 I2.264 J1.731 F1500.
N9555 X767.885 Y642.013 Z-14.215 I1.71 J2.28
N9560 X764.465 Y637.453 Z-14.528 I-1.71 J-2.28
N9565 X767.885 Y642.013 Z-14.84 I1.71 J2.28
N9570 X764.465 Y637.453 Z-15.153 I-1.71 J-2.28
N9575 X767.885 Y642.013 Z-15.466 I1.71 J2.28
N9580 X764.465 Y637.453 Z-15.778 I-1.71 J-2.28
N9585 X767.885 Y642.013 Z-16.091 I1.71 J2.28
N9590 X764.465 Y637.453 Z-16.404 I-1.71 J-2.28
N9595 X767.885 Y642.013 Z-16.716 I1.71 J2.28
N9600 X764.465 Y637.453 Z-17.029 I-1.71 J-2.28
N9605 X767.885 Y642.013 Z-17.342 I1.71 J2.28
N9610 X764.465 Y637.453 Z-17.654 I-1.71 J-2.28
N9615 X767.885 Y642.013 Z-17.967 I1.71 J2.28
N9620 X764.465 Y637.453 Z-18.28 I-1.71 J-2.28
N9625 X769.025 Y639.733 Z-18.5 I1.71 J2.28
N9630 X766.425 I-1.3 F3000.
N9635 X772.625 I3.1
N9640 X762.825 I-4.9
N9645 X776.225 I6.7
N9650 X759.225 I-8.5
N9655 X776.225 I8.5
N9660 G01 X776.218 Y639.825 Z-18.485 F1500.
N9665 X776.197 Y639.915 Z-18.471
N9670 X776.166 Y639.993 Z-18.428
N9675 X776.124 Y640.066 Z-18.385
N9680 X776.085 Y640.119 Z-18.319
N9685 X776.039 Y640.167 Z-18.253
N9690 X775.974 Y640.221 Z-18.085
N9695 X775.949 Y640.238 Z-17.9
N9700 G00 Z15.

(2D CONTOUR1)
N9705 G00 X1125.245 Y550.879
N9710 Z15.
N9715 Z5.
N9720 G01 Z-5.4 F333.
N9725 X1125.246 Y550.871 Z-5.494 F1500.
N9730 X1125.25 Y550.85 Z-5.585
N9735 X1125.256 Y550.814 Z-5.672
N9740 X1125.264 Y550.766 Z-5.753
N9745 X1125.274 Y550.706 Z-5.824
N9750 X1125.286 Y550.635 Z-5.885
N9755 X1125.3 Y550.556 Z-5.935
N9760 X1125.314 Y550.47 Z-5.971
N9765 X1125.33 Y550.38 Z-5.993
N9770 X1125.345 Y550.287 Z-6.
N9775 X1125.446 Y549.696
N9780 G03 X1126.138 Y549.205 I0.592 J0.1
N9785 G01 X1176.128 Y557.691 F3000.
N9790 G02 X1179.63 Y554.733 I0.502 J-2.958
N9795 G01 Y435.497
N9800 G02 X1178.751 Y433.375 I-3.
N9805 G03 X1180.269 Y431.855 I0.759 J-0.76
N9810 G02 X1182.39 Y432.733 I2.121 J-2.122
N9815 G01 X1194.83
N9820 G02 X1197.83 Y429.733 J-3.
N9825 G01 Y179.733
N9830 G02 X1194.83 Y176.733 I-3.
N9835 G01 X1182.39
N9840 G02 X1180.27 Y177.611 J3.
N9845 G03 X1178.751 Y176.092 I-0.759 J-0.76
N9850 G02 X1179.63 Y173.97 I-2.121 J-2.122
N9855 G01 Y54.733
N9860 G02 X1176.128 Y51.775 I-3.
N9865 G01 X235.955 Y211.374
N9870 G02 X191.825 Y263.627 I8.87 J52.253
N9875 G01 Y345.839
N9880 G02 X235.955 Y398.092 I53.
N9885 G01 X1126.138 Y549.205
N9890 G03 X1126.629 Y549.897 I-0.1 J0.592 F1500.
N9895 G01 X1126.528 Y550.488
N9900 X1126.513 Y550.581 Z-5.993
N9905 X1126.497 Y550.671 Z-5.971
N9910 X1126.483 Y550.757 Z-5.935
N9915 X1126.469 Y550.836 Z-5.885
N9920 X1126.457 Y550.906 Z-5.824
N9925 X1126.447 Y550.967 Z-5.753
N9930 X1126.439 Y551.015 Z-5.672
N9935 X1126.433 Y551.051 Z-5.585
N9940 X1126.429 Y551.072 Z-5.494
N9945 X1126.428 Y551.08 Z-5.4
N9950 G00 Z5.
N9955 X1125.245 Y550.879
N9960 G01 Z-1. F333.
N9965 Z-11.4
N9970 X1125.246 Y550.871 Z-11.494 F1500.
N9975 X1125.25 Y550.85 Z-11.585
N9980 X1125.256 Y550.814 Z-11.672
N9985 X1125.264 Y550.766 Z-11.753
N9990 X1125.274 Y550.706 Z-11.824
N9995 X1125.286 Y550.635 Z-11.885
N10000 X1125.3 Y550.556 Z-11.935
N10005 X1125.314 Y550.47 Z-11.971
N10010 X1125.33 Y550.38 Z-11.993
N10015 X1125.345 Y550.287 Z-12.
N10020 X1125.446 Y549.696
N10025 G03 X1126.138 Y549.205 I0.592 J0.1
N10030 G01 X1176.128 Y557.691 F3000.
N10035 G02 X1179.63 Y554.733 I0.502 J-2.958
N10040 G01 Y435.497
N10045 G02 X1178.751 Y433.375 I-3.
N10050 G03 X1180.269 Y431.855 I0.759 J-0.76
N10055 G02 X1182.39 Y432.733 I2.121 J-2.122
N10060 G01 X1194.83
N10065 G02 X1197.83 Y429.733 J-3.
N10070 G01 Y179.733
N10075 G02 X1194.83 Y176.733 I-3.
N10080 G01 X1182.39
N10085 G02 X1180.27 Y177.611 J3.
N10090 G03 X1178.751 Y176.092 I-0.759 J-0.76
N10095 G02 X1179.63 Y173.97 I-2.121 J-2.122
N10100 G01 Y54.733
N10105 G02 X1176.128 Y51.775 I-3.
N10110 G01 X235.955 Y211.374
N10115 G02 X191.825 Y263.627 I8.87 J52.253
N10120 G01 Y345.839
N10125 G02 X235.955 Y398.092 I53.
N10130 G01 X1126.138 Y549.205
N10135 G03 X1126.629 Y549.897 I-0.1 J0.592 F1500.
N10140 G01 X1126.528 Y550.488
N10145 X1126.513 Y550.581 Z-11.993
N10150 X1126.497 Y550.671 Z-11.971
N10155 X1126.483 Y550.757 Z-11.935
N10160 X1126.469 Y550.836 Z-11.885
N10165 X1126.457 Y550.906 Z-11.824
N10170 X1126.447 Y550.967 Z-11.753
N10175 X1126.439 Y551.015 Z-11.672
N10180 X1126.433 Y551.051 Z-11.585
N10185 X1126.429 Y551.072 Z-11.494
N10190 X1126.428 Y551.08 Z-11.4
N10195 G00 Z5.
N10200 X1125.245 Y550.879
N10205 G01 Z-7. F333.
N10210 Z-14.65
N10215 X1125.246 Y550.871 Z-14.744 F1500.
N10220 X1125.25 Y550.85 Z-14.835
N10225 X1125.256 Y550.814 Z-14.922
N10230 X1125.264 Y550.766 Z-15.003
N10235 X1125.274 Y550.706 Z-15.074
N10240 X1125.286 Y550.635 Z-15.135
N10245 X1125.3 Y550.556 Z-15.185
N10250 X1125.314 Y550.47 Z-15.221
N10255 X1125.33 Y550.38 Z-15.243
N10260 X1125.345 Y550.287 Z-15.25
N10265 X1125.446 Y549.696
N10270 G03 X1126.138 Y549.205 I0.592 J0.1
N10275 G01 X1176.128 Y557.691 F3000.
N10280 G02 X1179.63 Y554.733 I0.502 J-2.958
N10285 G01 Y435.497
N10290 G02 X1178.751 Y433.375 I-3.
N10295 G03 X1180.269 Y431.855 I0.759 J-0.76
N10300 G02 X1182.39 Y432.733 I2.121 J-2.122
N10305 G01 X1194.83
N10310 G02 X1197.83 Y429.733 J-3.
N10315 G01 Y179.733
N10320 G02 X1194.83 Y176.733 I-3.
N10325 G01 X1182.39
N10330 G02 X1180.27 Y177.611 J3.
N10335 G03 X1178.751 Y176.092 I-0.759 J-0.76
N10340 G02 X1179.63 Y173.97 I-2.121 J-2.122
N10345 G01 Y54.733
N10350 G02 X1176.128 Y51.775 I-3.
N10355 G01 X235.955 Y211.374
N10360 G02 X191.825 Y263.627 I8.87 J52.253
N10365 G01 Y345.839
N10370 G02 X235.955 Y398.092 I53.
N10375 G01 X1126.138 Y549.205
N10380 G03 X1126.629 Y549.897 I-0.1 J0.592 F1500.
N10385 G01 X1126.528 Y550.488
N10390 X1126.513 Y550.581 Z-15.243
N10395 X1126.497 Y550.671 Z-15.221
N10400 X1126.483 Y550.757 Z-15.185
N10405 X1126.469 Y550.836 Z-15.135
N10410 X1126.457 Y550.906 Z-15.074
N10415 X1126.447 Y550.967 Z-15.003
N10420 X1126.439 Y551.015 Z-14.922
N10425 X1126.433 Y551.051 Z-14.835
N10430 X1126.429 Y551.072 Z-14.744
N10435 X1126.428 Y551.08 Z-14.65
N10440 G00 Z5.
N10445 X1125.245 Y550.879
N10450 G01 Z-10.25 F333.
N10455 Z-17.9
N10460 X1125.246 Y550.871 Z-17.994 F1500.
N10465 X1125.25 Y550.85 Z-18.085
N10470 X1125.256 Y550.814 Z-18.172
N10475 X1125.264 Y550.766 Z-18.253
N10480 X1125.274 Y550.706 Z-18.324
N10485 X1125.286 Y550.635 Z-18.385
N10490 X1125.3 Y550.556 Z-18.435
N10495 X1125.314 Y550.47 Z-18.471
N10500 X1125.33 Y550.38 Z-18.493
N10505 X1125.345 Y550.287 Z-18.5
N10510 X1125.446 Y549.696
N10515 G03 X1126.138 Y549.205 I0.592 J0.1
N10520 G01 X1176.128 Y557.691 F3000.
N10525 G02 X1179.63 Y554.733 I0.502 J-2.958
N10530 G01 Y435.497
N10535 G02 X1178.751 Y433.375 I-3.
N10540 G03 X1180.269 Y431.855 I0.759 J-0.76
N10545 G02 X1182.39 Y432.733 I2.121 J-2.122
N10550 G01 X1183.
N10555 Z-17.
N10560 X1194.83
N10565 X1195. Y432.728
N10570 Z-18.5 F333.
N10575 G02 X1197.83 Y429.733 I-0.17 J-2.995 F3000.
N10580 G01 Y179.733
N10585 G02 X1194.83 Y176.733 I-3.
N10590 G01 X1189.78
N10595 Z-17.
N10600 X1182.39
N10605 G02 X1180.27 Y177.611 J3.
N10610 G03 X1178.751 Y176.092 I-0.759 J-0.76
N10615 G02 X1179.63 Y173.97 I-2.121 J-2.122
N10620 G01 Y173.133
N10625 Z-18.5 F333.
N10630 Y54.733 F3000.
N10635 G02 X1176.128 Y51.775 I-3.
N10640 G01 X1050.484 Y73.104
N10645 Z-17.
N10650 X1038.653 Y75.112
N10655 Z-18.5 F333.
N10660 X787.384 Y117.767 F3000.
N10665 Z-17.
N10670 X775.554 Y119.775
N10675 Z-18.5 F333.
N10680 X524.282 Y162.429 F3000.
N10685 Z-17.
N10690 X512.452 Y164.438
N10695 Z-18.5 F333.
N10700 X261.179 Y207.092 F3000.
N10705 Z-17.
N10710 X249.348 Y209.101
N10715 Z-18.5 F333.
N10720 X235.955 Y211.374 F3000.
N10725 G02 X191.825 Y263.627 I8.87 J52.253
N10730 G01 Y345.839
N10735 G02 X235.955 Y398.092 I53.
N10740 G01 X254.494 Y401.239
N10745 Z-17.
N10750 X266.325 Y403.247
N10755 Z-18.5 F333.
N10760 X517.597 Y445.902 F3000.
N10765 Z-17.
N10770 X529.428 Y447.91
N10775 Z-18.5 F333.
N10780 X780.7 Y490.565 F3000.
N10785 Z-17.
N10790 X792.53 Y492.573
N10795 Z-18.5 F333.
N10800 X1043.803 Y535.228 F3000.
N10805 Z-17.
N10810 X1055.633 Y537.236
N10815 Z-18.5 F333.
N10820 X1126.138 Y549.205 F3000.
N10825 G03 X1126.629 Y549.897 I-0.1 J0.592 F1500.
N10830 G01 X1126.528 Y550.488
N10835 X1126.513 Y550.581 Z-18.493
N10840 X1126.497 Y550.671 Z-18.471
N10845 X1126.483 Y550.757 Z-18.435
N10850 X1126.469 Y550.836 Z-18.385
N10855 X1126.457 Y550.906 Z-18.324
N10860 X1126.447 Y550.967 Z-18.253
N10865 X1126.439 Y551.015 Z-18.172
N10870 X1126.433 Y551.051 Z-18.085
N10875 X1126.429 Y551.072 Z-17.994
N10880 X1126.428 Y551.08 Z-17.9
N10885 G00 Z5.
N10890 X1050.03 Y615.602
N10895 G01 Z-5.4 F333.
N10900 G18 G03 X1049.43 Z-6. I-0.6 F1500.
N10905 G01 X1048.83
N10910 G17 G03 X1048.23 Y615.002 J-0.6
N10915 G01 Y598.627 F3000.
N10920 G02 X1004.092 Y546.374 I-53.002 J0.003
N10925 G01 X233.004 Y415.477
N10930 X63.927 Y386.775
N10935 G02 X60.425 Y389.733 I-0.502 J2.958
N10940 G01 Y508.97
N10945 G02 X61.304 Y511.091 I3.
N10950 G03 X59.783 Y512.612 I-0.76 J0.76
N10955 G02 X57.662 Y511.733 I-2.121 J2.121
N10960 G01 X45.225
N10965 G02 X42.225 Y514.733 J3.
N10970 G01 Y764.733
N10975 G02 X45.225 Y767.733 I3.
N10980 G01 X57.662
N10985 G02 X59.783 Y766.854 J-3.
N10990 G03 X61.304 Y768.376 I0.761 J0.761
N10995 G02 X60.425 Y770.497 I2.121 J2.121
N11000 G01 Y889.733
N11005 G02 X63.927 Y892.691 I3.
N11010 G01 X1004.092 Y733.092
N11015 G02 X1048.23 Y680.839 I-8.864 J-52.256
N11020 G01 Y615.002
N11025 G03 X1048.83 Y614.402 I0.6 F1500.
N11030 G01 X1049.43
N11035 G18 G02 X1050.03 Z-5.4 K0.6
N11040 G00 Z5.
N11045 Y615.602
N11050 G01 Z-1. F333.
N11055 Z-11.4
N11060 G03 X1049.43 Z-12. I-0.6 F1500.
N11065 G01 X1048.83
N11070 G17 G03 X1048.23 Y615.002 J-0.6
N11075 G01 Y598.627 F3000.
N11080 G02 X1004.092 Y546.374 I-53.002 J0.003
N11085 G01 X233.004 Y415.477
N11090 X63.927 Y386.775
N11095 G02 X60.425 Y389.733 I-0.502 J2.958
N11100 G01 Y508.97
N11105 G02 X61.304 Y511.091 I3.
N11110 G03 X59.783 Y512.612 I-0.76 J0.76
N11115 G02 X57.662 Y511.733 I-2.121 J2.121
N11120 G01 X45.225
N11125 G02 X42.225 Y514.733 J3.
N11130 G01 Y764.733
N11135 G02 X45.225 Y767.733 I3.
N11140 G01 X57.662
N11145 G02 X59.783 Y766.854 J-3.
N11150 G03 X61.304 Y768.376 I0.761 J0.761
N11155 G02 X60.425 Y770.497 I2.121 J2.121
N11160 G01 Y889.733
N11165 G02 X63.927 Y892.691 I3.
N11170 G01 X1004.092 Y733.092
N11175 G02 X1048.23 Y680.839 I-8.864 J-52.256
N11180 G01 Y615.002
N11185 G03 X1048.83 Y614.402 I0.6 F1500.
N11190 G01 X1049.43
N11195 G18 G02 X1050.03 Z-11.4 K0.6
N11200 G00 Z5.
N11205 Y615.602
N11210 G01 Z-7. F333.
N11215 Z-14.65
N11220 G03 X1049.43 Z-15.25 I-0.6 F1500.
N11225 G01 X1048.83
N11230 G17 G03 X1048.23 Y615.002 J-0.6
N11235 G01 Y598.627 F3000.
N11240 G02 X1004.092 Y546.374 I-53.002 J0.003
N11245 G01 X233.004 Y415.477
N11250 X63.927 Y386.775
N11255 G02 X60.425 Y389.733 I-0.502 J2.958
N11260 G01 Y508.97
N11265 G02 X61.304 Y511.091 I3.
N11270 G03 X59.783 Y512.612 I-0.76 J0.76
N11275 G02 X57.662 Y511.733 I-2.121 J2.121
N11280 G01 X45.225
N11285 G02 X42.225 Y514.733 J3.
N11290 G01 Y764.733
N11295 G02 X45.225 Y767.733 I3.
N11300 G01 X57.662
N11305 G02 X59.783 Y766.854 J-3.
N11310 G03 X61.304 Y768.376 I0.761 J0.761
N11315 G02 X60.425 Y770.497 I2.121 J2.121
N11320 G01 Y889.733
N11325 G02 X63.927 Y892.691 I3.
N11330 G01 X1004.092 Y733.092
N11335 G02 X1048.23 Y680.839 I-8.864 J-52.256
N11340 G01 Y615.002
N11345 G03 X1048.83 Y614.402 I0.6 F1500.
N11350 G01 X1049.43
N11355 G18 G02 X1050.03 Z-14.65 K0.6
N11360 G00 Z5.
N11365 Y615.602
N11370 G01 Z-10.25 F333.
N11375 Z-17.9
N11380 G03 X1049.43 Z-18.5 I-0.6 F1500.
N11385 G01 X1048.83
N11390 G17 G03 X1048.23 Y615.002 J-0.6
N11395 G01 Y598.627 F3000.
N11400 G02 X1004.092 Y546.374 I-53.002 J0.003
N11405 G01 X873.146 Y524.145
N11410 Z-17.
N11415 X861.316 Y522.137
N11420 Z-18.5 F333.
N11425 X610.044 Y479.482 F3000.
N11430 Z-17.
N11435 X598.214 Y477.474
N11440 Z-18.5 F333.
N11445 X346.941 Y434.819 F3000.
N11450 Z-17.
N11455 X335.111 Y432.81
N11460 Z-18.5 F333.
N11465 X83.839 Y390.155 F3000.
N11470 Z-17.
N11475 X72.008 Y388.147
N11480 Z-18.5 F333.
N11485 X63.927 Y386.775 F3000.
N11490 G02 X60.425 Y389.733 I-0.502 J2.958
N11495 G01 Y508.97
N11500 G02 X61.304 Y511.091 I3.
N11505 G03 X59.783 Y512.612 I-0.76 J0.76
N11510 G02 X57.662 Y511.733 I-2.121 J2.121
N11515 G01 X45.225
N11520 G02 X42.225 Y514.733 J3.
N11525 G01 Y616.927
N11530 Z-17.
N11535 Y628.927
N11540 Z-18.5 F333.
N11545 Y764.733 F3000.
N11550 G02 X45.225 Y767.733 I3.
N11555 G01 X57.662
N11560 G02 X59.783 Y766.854 J-3.
N11565 G03 X61.304 Y768.376 I0.761 J0.761
N11570 G02 X60.425 Y770.497 I2.121 J2.121
N11575 G01 Y864.317
N11580 Z-17.
N11585 Y876.317
N11590 Z-18.5 F333.
N11595 Y889.733 F3000.
N11600 G02 X63.927 Y892.691 I3.
N11605 G01 X301.972 Y852.281
N11610 Z-17.
N11615 X313.802 Y850.273
N11620 Z-18.5 F333.
N11625 X565.075 Y807.618 F3000.
N11630 Z-17.
N11635 X576.905 Y805.609
N11640 Z-18.5 F333.
N11645 X828.177 Y762.954 F3000.
N11650 Z-17.
N11655 X840.007 Y760.946
N11660 Z-18.5 F333.
N11665 X1004.092 Y733.092 F3000.
N11670 G02 X1048.23 Y680.839 I-8.864 J-52.256
N11675 G01 Y662.54
N11680 Z-17.
N11685 Y650.54
N11690 Z-18.5 F333.
N11695 Y615.002 F3000.
N11700 G03 X1048.83 Y614.402 I0.6 F1500.
N11705 G01 X1049.43
N11710 G18 G02 X1050.03 Z-17.9 K0.6
N11715 G00 Z5.
N11720 X1144.115 Y673.034
N11725 G01 Z-5.4 F333.
N11730 X1144.118 Y673.041 Z-5.494 F1500.
N11735 X1144.128 Y673.061 Z-5.585
N11740 X1144.144 Y673.093 Z-5.672
N11745 X1144.165 Y673.137 Z-5.753
N11750 X1144.192 Y673.192 Z-5.824
N11755 X1144.224 Y673.256 Z-5.885
N11760 X1144.259 Y673.329 Z-5.935
N11765 X1144.297 Y673.407 Z-5.971
N11770 X1144.338 Y673.489 Z-5.993
N11775 X1144.379 Y673.573 Z-6.
N11780 X1144.644 Y674.112
N11785 G17 G03 X1144.369 Y674.915 I-0.539 J0.264
N11790 G01 X682.553 Y901.54 F3000.
N11795 G02 X683.875 Y907.233 I1.322 J2.693
N11800 G01 X800.837
N11805 G02 X802.958 Y906.355 J-3.
N11810 G03 X804.479 Y907.876 I0.76 J0.761
N11815 G02 X803.6 Y909.997 I2.121 J2.121
N11820 G01 Y922.433
N11825 G02 X806.6 Y925.433 I3.
N11830 G01 X1052.05
N11835 G02 X1055.05 Y922.433 J-3.
N11840 G01 Y909.997
N11845 G02 X1054.171 Y907.875 I-3.
N11850 G03 X1055.689 Y906.355 I0.76 J-0.76
N11855 G02 X1057.81 Y907.233 I2.121 J-2.122
N11860 G01 X1174.78
N11865 G02 X1177.78 Y904.233 J-3.
N11870 G01 Y869.097
N11875 G02 X1176.901 Y866.975 I-3.
N11880 G03 X1178.419 Y865.455 I0.759 J-0.76
N11885 G02 X1180.54 Y866.333 I2.121 J-2.122
N11890 G01 X1192.98
N11895 G02 X1195.98 Y863.333 J-3.
N11900 G01 Y738.333
N11905 G02 X1192.98 Y735.333 I-3.
N11910 G01 X1180.54
N11915 G02 X1178.419 Y736.211 J3.
N11920 G03 X1176.901 Y734.692 I-0.759 J-0.76
N11925 G02 X1177.78 Y732.57 I-2.121 J-2.122
N11930 G01 Y663.333
N11935 G02 X1173.458 Y660.64 I-3.
N11940 G01 X1144.369 Y674.915
N11945 G03 X1143.566 Y674.64 I-0.264 J-0.539 F1500.
N11950 G01 X1143.302 Y674.102
N11955 X1143.261 Y674.017 Z-5.993
N11960 X1143.22 Y673.935 Z-5.971
N11965 X1143.182 Y673.857 Z-5.935
N11970 X1143.147 Y673.785 Z-5.885
N11975 X1143.115 Y673.721 Z-5.824
N11980 X1143.088 Y673.666 Z-5.753
N11985 X1143.066 Y673.622 Z-5.672
N11990 X1143.051 Y673.589 Z-5.585
N11995 X1143.041 Y673.57 Z-5.494
N12000 X1143.038 Y673.563 Z-5.4
N12005 G00 Z5.
N12010 X1144.115 Y673.034
N12015 G01 Z-1. F333.
N12020 Z-11.4
N12025 X1144.118 Y673.041 Z-11.494 F1500.
N12030 X1144.128 Y673.061 Z-11.585
N12035 X1144.144 Y673.093 Z-11.672
N12040 X1144.165 Y673.137 Z-11.753
N12045 X1144.192 Y673.192 Z-11.824
N12050 X1144.224 Y673.256 Z-11.885
N12055 X1144.259 Y673.329 Z-11.935
N12060 X1144.297 Y673.407 Z-11.971
N12065 X1144.338 Y673.489 Z-11.993
N12070 X1144.379 Y673.573 Z-12.
N12075 X1144.644 Y674.112
N12080 G03 X1144.369 Y674.915 I-0.539 J0.264
N12085 G01 X682.553 Y901.54 F3000.
N12090 G02 X683.875 Y907.233 I1.322 J2.693
N12095 G01 X800.837
N12100 G02 X802.958 Y906.355 J-3.
N12105 G03 X804.479 Y907.876 I0.76 J0.761
N12110 G02 X803.6 Y909.997 I2.121 J2.121
N12115 G01 Y922.433
N12120 G02 X806.6 Y925.433 I3.
N12125 G01 X1052.05
N12130 G02 X1055.05 Y922.433 J-3.
N12135 G01 Y909.997
N12140 G02 X1054.171 Y907.875 I-3.
N12145 G03 X1055.689 Y906.355 I0.76 J-0.76
N12150 G02 X1057.81 Y907.233 I2.121 J-2.122
N12155 G01 X1174.78
N12160 G02 X1177.78 Y904.233 J-3.
N12165 G01 Y869.097
N12170 G02 X1176.901 Y866.975 I-3.
N12175 G03 X1178.419 Y865.455 I0.759 J-0.76
N12180 G02 X1180.54 Y866.333 I2.121 J-2.122
N12185 G01 X1192.98
N12190 G02 X1195.98 Y863.333 J-3.
N12195 G01 Y738.333
N12200 G02 X1192.98 Y735.333 I-3.
N12205 G01 X1180.54
N12210 G02 X1178.419 Y736.211 J3.
N12215 G03 X1176.901 Y734.692 I-0.759 J-0.76
N12220 G02 X1177.78 Y732.57 I-2.121 J-2.122
N12225 G01 Y663.333
N12230 G02 X1173.458 Y660.64 I-3.
N12235 G01 X1144.369 Y674.915
N12240 G03 X1143.566 Y674.64 I-0.264 J-0.539 F1500.
N12245 G01 X1143.302 Y674.102
N12250 X1143.261 Y674.017 Z-11.993
N12255 X1143.22 Y673.935 Z-11.971
N12260 X1143.182 Y673.857 Z-11.935
N12265 X1143.147 Y673.785 Z-11.885
N12270 X1143.115 Y673.721 Z-11.824
N12275 X1143.088 Y673.666 Z-11.753
N12280 X1143.066 Y673.622 Z-11.672
N12285 X1143.051 Y673.589 Z-11.585
N12290 X1143.041 Y673.57 Z-11.494
N12295 X1143.038 Y673.563 Z-11.4
N12300 G00 Z5.
N12305 X1144.115 Y673.034
N12310 G01 Z-7. F333.
N12315 Z-14.65
N12320 X1144.118 Y673.041 Z-14.744 F1500.
N12325 X1144.128 Y673.061 Z-14.835
N12330 X1144.144 Y673.093 Z-14.922
N12335 X1144.165 Y673.137 Z-15.003
N12340 X1144.192 Y673.192 Z-15.074
N12345 X1144.224 Y673.256 Z-15.135
N12350 X1144.259 Y673.329 Z-15.185
N12355 X1144.297 Y673.407 Z-15.221
N12360 X1144.338 Y673.489 Z-15.243
N12365 X1144.379 Y673.573 Z-15.25
N12370 X1144.644 Y674.112
N12375 G03 X1144.369 Y674.915 I-0.539 J0.264
N12380 G01 X682.553 Y901.54 F3000.
N12385 G02 X683.875 Y907.233 I1.322 J2.693
N12390 G01 X800.837
N12395 G02 X802.958 Y906.355 J-3.
N12400 G03 X804.479 Y907.876 I0.76 J0.761
N12405 G02 X803.6 Y909.997 I2.121 J2.121
N12410 G01 Y922.433
N12415 G02 X806.6 Y925.433 I3.
N12420 G01 X1052.05
N12425 G02 X1055.05 Y922.433 J-3.
N12430 G01 Y909.997
N12435 G02 X1054.171 Y907.875 I-3.
N12440 G03 X1055.689 Y906.355 I0.76 J-0.76
N12445 G02 X1057.81 Y907.233 I2.121 J-2.122
N12450 G01 X1174.78
N12455 G02 X1177.78 Y904.233 J-3.
N12460 G01 Y869.097
N12465 G02 X1176.901 Y866.975 I-3.
N12470 G03 X1178.419 Y865.455 I0.759 J-0.76
N12475 G02 X1180.54 Y866.333 I2.121 J-2.122
N12480 G01 X1192.98
N12485 G02 X1195.98 Y863.333 J-3.
N12490 G01 Y738.333
N12495 G02 X1192.98 Y735.333 I-3.
N12500 G01 X1180.54
N12505 G02 X1178.419 Y736.211 J3.
N12510 G03 X1176.901 Y734.692 I-0.759 J-0.76
N12515 G02 X1177.78 Y732.57 I-2.121 J-2.122
N12520 G01 Y663.333
N12525 G02 X1173.458 Y660.64 I-3.
N12530 G01 X1144.369 Y674.915
N12535 G03 X1143.566 Y674.64 I-0.264 J-0.539 F1500.
N12540 G01 X1143.302 Y674.102
N12545 X1143.261 Y674.017 Z-15.243
N12550 X1143.22 Y673.935 Z-15.221
N12555 X1143.182 Y673.857 Z-15.185
N12560 X1143.147 Y673.785 Z-15.135
N12565 X1143.115 Y673.721 Z-15.074
N12570 X1143.088 Y673.666 Z-15.003
N12575 X1143.066 Y673.622 Z-14.922
N12580 X1143.051 Y673.589 Z-14.835
N12585 X1143.041 Y673.57 Z-14.744
N12590 X1143.038 Y673.563 Z-14.65
N12595 G00 Z5.
N12600 X1144.115 Y673.034
N12605 G01 Z-10.25 F333.
N12610 Z-17.9
N12615 X1144.118 Y673.041 Z-17.994 F1500.
N12620 X1144.128 Y673.061 Z-18.085
N12625 X1144.144 Y673.093 Z-18.172
N12630 X1144.165 Y673.137 Z-18.253
N12635 X1144.192 Y673.192 Z-18.324
N12640 X1144.224 Y673.256 Z-18.385
N12645 X1144.259 Y673.329 Z-18.435
N12650 X1144.297 Y673.407 Z-18.471
N12655 X1144.338 Y673.489 Z-18.493
N12660 X1144.379 Y673.573 Z-18.5
N12665 X1144.644 Y674.112
N12670 G03 X1144.369 Y674.915 I-0.539 J0.264
N12675 G01 X1130.946 Y681.502 F3000.
N12680 Z-17.
N12685 X1120.173 Y686.788
N12690 Z-18.5 F333.
N12695 X1009.166 Y741.262 F3000.
N12700 Z-17.
N12705 X998.393 Y746.549
N12710 Z-18.5 F333.
N12715 X887.39 Y801.021 F3000.
N12720 Z-17.
N12725 X876.617 Y806.308
N12730 Z-18.5 F333.
N12735 X765.61 Y860.782 F3000.
N12740 Z-17.
N12745 X754.837 Y866.068
N12750 Z-18.5 F333.
N12755 X682.553 Y901.54 F3000.
N12760 G02 X683.875 Y907.233 I1.322 J2.693
N12765 G01 X727.01
N12770 Z-17.
N12775 X739.01
N12780 Z-18.5 F333.
N12785 X800.837 F3000.
N12790 G02 X802.958 Y906.355 J-3.
N12795 G03 X804.479 Y907.876 I0.76 J0.761
N12800 G02 X803.6 Y909.997 I2.121 J2.121
N12805 G01 Y922.433
N12810 G02 X806.6 Y925.433 I3.
N12815 G01 X843.187
N12820 Z-17.
N12825 X855.187
N12830 Z-18.5 F333.
N12835 X978.84 F3000.
N12840 Z-17.
N12845 X990.84
N12850 Z-18.5 F333.
N12855 X1052.05 F3000.
N12860 G02 X1055.05 Y922.433 J-3.
N12865 G01 Y909.997
N12870 G02 X1054.171 Y907.875 I-3.
N12875 G03 X1055.689 Y906.355 I0.76 J-0.76
N12880 G02 X1057.81 Y907.233 I2.121 J-2.122
N12885 G01 X1095.02
N12890 Z-17.
N12895 X1107.02
N12900 Z-18.5 F333.
N12905 X1174.78 F3000.
N12910 G02 X1177.78 Y904.233 J-3.
N12915 G01 Y869.097
N12920 G02 X1176.901 Y866.975 I-3.
N12925 G03 X1178.419 Y865.455 I0.759 J-0.76
N12930 G02 X1180.54 Y866.333 I2.121 J-2.122
N12935 G01 X1189.98
N12940 Z-17.
N12945 X1192.98
N12950 G02 X1195.98 Y863.333 J-3.
N12955 G01 Y855.815
N12960 Z-18.5 F333.
N12965 Y738.333 F3000.
N12970 G02 X1192.98 Y735.333 I-3.
N12975 G01 X1186.8
N12980 Z-17.
N12985 X1180.54
N12990 G02 X1178.419 Y736.211 J3.
N12995 G03 X1176.901 Y734.692 I-0.759 J-0.76
N13000 G02 X1177.78 Y732.57 I-2.121 J-2.122
N13005 G01 Y731.733
N13010 Z-18.5 F333.
N13015 Y663.333 F3000.
N13020 G02 X1173.458 Y660.64 I-3.
N13025 G01 X1144.369 Y674.915
N13030 G03 X1143.566 Y674.64 I-0.264 J-0.539 F1500.
N13035 G01 X1143.302 Y674.102
N13040 X1143.261 Y674.017 Z-18.493
N13045 X1143.22 Y673.935 Z-18.471
N13050 X1143.182 Y673.857 Z-18.435
N13055 X1143.147 Y673.785 Z-18.385
N13060 X1143.115 Y673.721 Z-18.324
N13065 X1143.088 Y673.666 Z-18.253
N13070 X1143.066 Y673.622 Z-18.172
N13075 X1143.051 Y673.589 Z-18.085
N13080 X1143.041 Y673.57 Z-17.994
N13085 X1143.038 Y673.563 Z-17.9
N13090 G00 Z5.
N13095 X94.408 Y269.218
N13100 G01 Z-5.4 F333.
N13105 X94.405 Y269.211 Z-5.494 F1500.
N13110 X94.395 Y269.192 Z-5.585
N13115 X94.379 Y269.159 Z-5.672
N13120 X94.357 Y269.115 Z-5.753
N13125 X94.331 Y269.06 Z-5.824
N13130 X94.299 Y268.996 Z-5.885
N13135 X94.264 Y268.924 Z-5.935
N13140 X94.225 Y268.846 Z-5.971
N13145 X94.185 Y268.763 Z-5.993
N13150 X94.144 Y268.679 Z-6.
N13155 X93.879 Y268.141
N13160 G03 X94.154 Y267.338 I0.539 J-0.264
N13165 G01 X555.597 Y40.893 F3000.
N13170 G02 X554.275 Y35.2 I-1.322 J-2.693
N13175 G01 X437.313
N13180 G02 X435.192 Y36.078 J3.
N13185 G03 X433.671 Y34.558 I-0.76 J-0.76
N13190 G02 X434.55 Y32.437 I-2.121 J-2.121
N13195 G01 Y20.
N13200 G02 X431.55 Y17. I-3.
N13205 G01 X186.1
N13210 G02 X183.1 Y20. J3.
N13215 G01 Y32.437
N13220 G02 X183.979 Y34.558 I3.
N13225 G03 Y36.079 I-0.761 J0.761
N13230 X182.457 I-0.761 J-0.761
N13235 G02 X180.336 Y35.2 I-2.121 J2.121
N13240 G01 X63.375
N13245 G02 X60.375 Y38.2 J3.
N13250 G01 Y73.337
N13255 G02 X61.254 Y75.458 I3.
N13260 G03 Y76.979 I-0.76 J0.76
N13265 X59.733 I-0.76 J-0.76
N13270 G02 X57.611 Y76.1 I-2.121 J2.121
N13275 G01 X45.175
N13280 G02 X42.175 Y79.1 J3.
N13285 G01 Y204.1
N13290 G02 X45.175 Y207.1 I3.
N13295 G01 X57.611
N13300 G02 X59.732 Y206.221 J-3.
N13305 G03 X61.253 Y207.742 I0.76 J0.76
N13310 G02 X60.375 Y209.863 I2.122 J2.121
N13315 G01 Y279.1
N13320 G02 X64.696 Y281.793 I3.
N13325 G01 X94.154 Y267.338
N13330 G03 X94.957 Y267.612 I0.264 J0.539 F1500.
N13335 G01 X95.221 Y268.151
N13340 X95.262 Y268.235 Z-5.993
N13345 X95.303 Y268.317 Z-5.971
N13350 X95.341 Y268.395 Z-5.935
N13355 X95.376 Y268.467 Z-5.885
N13360 X95.408 Y268.531 Z-5.824
N13365 X95.435 Y268.586 Z-5.753
N13370 X95.456 Y268.631 Z-5.672
N13375 X95.472 Y268.663 Z-5.585
N13380 X95.482 Y268.683 Z-5.494
N13385 X95.485 Y268.689 Z-5.4
N13390 G00 Z5.
N13395 X94.408 Y269.218
N13400 G01 Z-1. F333.
N13405 Z-11.4
N13410 X94.405 Y269.211 Z-11.494 F1500.
N13415 X94.395 Y269.192 Z-11.585
N13420 X94.379 Y269.159 Z-11.672
N13425 X94.357 Y269.115 Z-11.753
N13430 X94.331 Y269.06 Z-11.824
N13435 X94.299 Y268.996 Z-11.885
N13440 X94.264 Y268.924 Z-11.935
N13445 X94.225 Y268.846 Z-11.971
N13450 X94.185 Y268.763 Z-11.993
N13455 X94.144 Y268.679 Z-12.
N13460 X93.879 Y268.141
N13465 G03 X94.154 Y267.338 I0.539 J-0.264
N13470 G01 X555.597 Y40.893 F3000.
N13475 G02 X554.275 Y35.2 I-1.322 J-2.693
N13480 G01 X437.313
N13485 G02 X435.192 Y36.078 J3.
N13490 G03 X433.671 Y34.558 I-0.76 J-0.76
N13495 G02 X434.55 Y32.437 I-2.121 J-2.121
N13500 G01 Y20.
N13505 G02 X431.55 Y17. I-3.
N13510 G01 X186.1
N13515 G02 X183.1 Y20. J3.
N13520 G01 Y32.437
N13525 G02 X183.979 Y34.558 I3.
N13530 G03 Y36.079 I-0.761 J0.761
N13535 X182.457 I-0.761 J-0.761
N13540 G02 X180.336 Y35.2 I-2.121 J2.121
N13545 G01 X63.375
N13550 G02 X60.375 Y38.2 J3.
N13555 G01 Y73.337
N13560 G02 X61.254 Y75.458 I3.
N13565 G03 Y76.979 I-0.76 J0.76
N13570 X59.733 I-0.76 J-0.76
N13575 G02 X57.611 Y76.1 I-2.121 J2.121
N13580 G01 X45.175
N13585 G02 X42.175 Y79.1 J3.
N13590 G01 Y204.1
N13595 G02 X45.175 Y207.1 I3.
N13600 G01 X57.611
N13605 G02 X59.732 Y206.221 J-3.
N13610 G03 X61.253 Y207.742 I0.76 J0.76
N13615 G02 X60.375 Y209.863 I2.122 J2.121
N13620 G01 Y279.1
N13625 G02 X64.696 Y281.793 I3.
N13630 G01 X94.154 Y267.338
N13635 G03 X94.957 Y267.612 I0.264 J0.539 F1500.
N13640 G01 X95.221 Y268.151
N13645 X95.262 Y268.235 Z-11.993
N13650 X95.303 Y268.317 Z-11.971
N13655 X95.341 Y268.395 Z-11.935
N13660 X95.376 Y268.467 Z-11.885
N13665 X95.408 Y268.531 Z-11.824
N13670 X95.435 Y268.586 Z-11.753
N13675 X95.456 Y268.631 Z-11.672
N13680 X95.472 Y268.663 Z-11.585
N13685 X95.482 Y268.683 Z-11.494
N13690 X95.485 Y268.689 Z-11.4
N13695 G00 Z5.
N13700 X94.408 Y269.218
N13705 G01 Z-7. F333.
N13710 Z-14.65
N13715 X94.405 Y269.211 Z-14.744 F1500.
N13720 X94.395 Y269.192 Z-14.835
N13725 X94.379 Y269.159 Z-14.922
N13730 X94.357 Y269.115 Z-15.003
N13735 X94.331 Y269.06 Z-15.074
N13740 X94.299 Y268.996 Z-15.135
N13745 X94.264 Y268.924 Z-15.185
N13750 X94.225 Y268.846 Z-15.221
N13755 X94.185 Y268.763 Z-15.243
N13760 X94.144 Y268.679 Z-15.25
N13765 X93.879 Y268.141
N13770 G03 X94.154 Y267.338 I0.539 J-0.264
N13775 G01 X555.597 Y40.893 F3000.
N13780 G02 X554.275 Y35.2 I-1.322 J-2.693
N13785 G01 X437.313
N13790 G02 X435.192 Y36.078 J3.
N13795 G03 X433.671 Y34.558 I-0.76 J-0.76
N13800 G02 X434.55 Y32.437 I-2.121 J-2.121
N13805 G01 Y20.
N13810 G02 X431.55 Y17. I-3.
N13815 G01 X186.1
N13820 G02 X183.1 Y20. J3.
N13825 G01 Y32.437
N13830 G02 X183.979 Y34.558 I3.
N13835 G03 Y36.079 I-0.761 J0.761
N13840 X182.457 I-0.761 J-0.761
N13845 G02 X180.336 Y35.2 I-2.121 J2.121
N13850 G01 X63.375
N13855 G02 X60.375 Y38.2 J3.
N13860 G01 Y73.337
N13865 G02 X61.254 Y75.458 I3.
N13870 G03 Y76.979 I-0.76 J0.76
N13875 X59.733 I-0.76 J-0.76
N13880 G02 X57.611 Y76.1 I-2.121 J2.121
N13885 G01 X45.175
N13890 G02 X42.175 Y79.1 J3.
N13895 G01 Y204.1
N13900 G02 X45.175 Y207.1 I3.
N13905 G01 X57.611
N13910 G02 X59.732 Y206.221 J-3.
N13915 G03 X61.253 Y207.742 I0.76 J0.76
N13920 G02 X60.375 Y209.863 I2.122 J2.121
N13925 G01 Y279.1
N13930 G02 X64.696 Y281.793 I3.
N13935 G01 X94.154 Y267.338
N13940 G03 X94.957 Y267.612 I0.264 J0.539 F1500.
N13945 G01 X95.221 Y268.151
N13950 X95.262 Y268.235 Z-15.243
N13955 X95.303 Y268.317 Z-15.221
N13960 X95.341 Y268.395 Z-15.185
N13965 X95.376 Y268.467 Z-15.135
N13970 X95.408 Y268.531 Z-15.074
N13975 X95.435 Y268.586 Z-15.003
N13980 X95.456 Y268.631 Z-14.922
N13985 X95.472 Y268.663 Z-14.835
N13990 X95.482 Y268.683 Z-14.744
N13995 X95.485 Y268.689 Z-14.65
N14000 G00 Z5.
N14005 X94.408 Y269.218
N14010 G01 Z-10.25 F333.
N14015 Z-17.9
N14020 X94.405 Y269.211 Z-17.994 F1500.
N14025 X94.395 Y269.192 Z-18.085
N14030 X94.379 Y269.159 Z-18.172
N14035 X94.357 Y269.115 Z-18.253
N14040 X94.331 Y269.06 Z-18.324
N14045 X94.299 Y268.996 Z-18.385
N14050 X94.264 Y268.924 Z-18.435
N14055 X94.225 Y268.846 Z-18.471
N14060 X94.185 Y268.763 Z-18.493
N14065 X94.144 Y268.679 Z-18.5
N14070 X93.879 Y268.141
N14075 G03 X94.154 Y267.338 I0.539 J-0.264
N14080 G01 X120.2 Y254.556 F3000.
N14085 Z-17.
N14090 X130.973 Y249.269
N14095 Z-18.5 F333.
N14100 X241.979 Y194.795 F3000.
N14105 Z-17.
N14110 X252.752 Y189.508
N14115 Z-18.5 F333.
N14120 X363.759 Y135.034 F3000.
N14125 Z-17.
N14130 X374.532 Y129.747
N14135 Z-18.5 F333.
N14140 X485.539 Y75.273 F3000.
N14145 Z-17.
N14150 X496.312 Y69.986
N14155 Z-18.5 F333.
N14160 X555.597 Y40.893 F3000.
N14165 G02 X554.275 Y35.2 I-1.322 J-2.693
N14170 G01 X496.66
N14175 Z-17.
N14180 X484.66
N14185 Z-18.5 F333.
N14190 X437.313 F3000.
N14195 G02 X435.192 Y36.078 J3.
N14200 G03 X433.671 Y34.558 I-0.76 J-0.76
N14205 G02 X434.55 Y32.437 I-2.121 J-2.121
N14210 G01 Y20.
N14215 G02 X431.55 Y17. I-3.
N14220 G01 X380.484
N14225 Z-17.
N14230 X368.484
N14235 Z-18.5 F333.
N14240 X244.831 F3000.
N14245 Z-17.
N14250 X232.831
N14255 Z-18.5 F333.
N14260 X186.1 F3000.
N14265 G02 X183.1 Y20. J3.
N14270 G01 Y32.437
N14275 G02 X183.979 Y34.558 I3.
N14280 G03 Y36.079 I-0.761 J0.761
N14285 X182.457 I-0.761 J-0.761
N14290 G02 X180.336 Y35.2 I-2.121 J2.121
N14295 G01 X128.654
N14300 Z-17.
N14305 X116.654
N14310 Z-18.5 F333.
N14315 X63.375 F3000.
N14320 G02 X60.375 Y38.2 J3.
N14325 G01 Y73.337
N14330 G02 X61.254 Y75.458 I3.
N14335 G03 Y76.979 I-0.76 J0.76
N14340 X59.733 I-0.76 J-0.76
N14345 G02 X57.611 Y76.1 I-2.121 J2.121
N14350 G01 X45.175
N14355 G02 X42.175 Y79.1 J3.
N14360 G01 Y89.097
N14365 Z-17.
N14370 Y101.097
N14375 Z-18.5 F333.
N14380 Y204.1 F3000.
N14385 G02 X45.175 Y207.1 I3.
N14390 G01 X56.775
N14395 Z-17.
N14400 X57.611
N14405 G02 X59.732 Y206.221 J-3.
N14410 G03 X61.253 Y207.742 I0.76 J0.76
N14415 G02 X60.375 Y209.863 I2.122 J2.121
N14420 G01 Y217.274
N14425 Z-18.5 F333.
N14430 Y279.1 F3000.
N14435 G02 X64.696 Y281.793 I3.
N14440 G01 X94.154 Y267.338
N14445 G03 X94.957 Y267.612 I0.264 J0.539 F1500.
N14450 G01 X95.221 Y268.151
N14455 X95.262 Y268.235 Z-18.493
N14460 X95.303 Y268.317 Z-18.471
N14465 X95.341 Y268.395 Z-18.435
N14470 X95.376 Y268.467 Z-18.385
N14475 X95.408 Y268.531 Z-18.324
N14480 X95.435 Y268.586 Z-18.253
N14485 X95.456 Y268.631 Z-18.172
N14490 X95.472 Y268.663 Z-18.085
N14495 X95.482 Y268.683 Z-17.994
N14500 X95.485 Y268.689 Z-17.9
N14505 G00 Z15.

N14510 G28 G91 Z0.
N14515 G90
N14520 G49
N14525 G28 G91 X0. Y0.
N14530 G90
N14535 M30
%
