%
O1002
(T1 D=6. CR=0. - ZMIN=-18. - FLAT END MILL)
N10 G90 G94 G17 G49 G40 G80
N15 G21
N20 G28 G91 Z0.
N25 G90

(2D POCKET1)
N30 T1 M06
N35 S10000 M03
N40 G54
N45 G00 X152.082 Y1249.532
N50 G43 Z15. H01
N55 G00 Z5.
N60 G01 Z3.1 F333.
N65 X152.102 Y1249.512 Z2.918 F1500.
N70 X152.161 Y1249.456 Z2.754
N75 X152.257 Y1249.371 Z2.622
N80 X152.383 Y1249.27 Z2.534
N85 X152.53 Y1249.166 Z2.5
N90 G03 X155.67 Y1253.924 Z2.187 I1.57 J2.379
N95 X152.53 Y1249.166 Z1.875 I-1.57 J-2.379
N100 X155.67 Y1253.924 Z1.562 I1.57 J2.379
N105 X152.53 Y1249.166 Z1.249 I-1.57 J-2.379
N110 X155.67 Y1253.924 Z0.937 I1.57 J2.379
N115 X152.53 Y1249.166 Z0.624 I-1.57 J-2.379
N120 X155.67 Y1253.924 Z0.311 I1.57 J2.379
N125 X152.53 Y1249.166 Z-0.001 I-1.57 J-2.379
N130 X155.67 Y1253.924 Z-0.314 I1.57 J2.379
N135 X152.53 Y1249.166 Z-0.627 I-1.57 J-2.379
N140 X155.67 Y1253.924 Z-0.939 I1.57 J2.379
N145 X152.53 Y1249.166 Z-1.252 I-1.57 J-2.379
N150 X155.67 Y1253.924 Z-1.565 I1.57 J2.379
N155 X152.53 Y1249.166 Z-1.877 I-1.57 J-2.379
N160 X155.67 Y1253.924 Z-2.19 I1.57 J2.379
N165 X152.53 Y1249.166 Z-2.503 I-1.57 J-2.379
N170 X155.67 Y1253.924 Z-2.815 I1.57 J2.379
N175 X152.53 Y1249.166 Z-3.128 I-1.57 J-2.379
N180 X155.67 Y1253.924 Z-3.441 I1.57 J2.379
N185 X152.53 Y1249.166 Z-3.753 I-1.57 J-2.379
N190 X155.67 Y1253.924 Z-4.066 I1.57 J2.379
N195 X152.53 Y1249.166 Z-4.379 I-1.57 J-2.379
N200 X155.67 Y1253.924 Z-4.691 I1.57 J2.379
N205 X152.53 Y1249.166 Z-5.004 I-1.57 J-2.379
N210 X155.67 Y1253.924 Z-5.317 I1.57 J2.379
N215 X152.53 Y1249.166 Z-5.629 I-1.57 J-2.379
N220 X155.67 Y1253.924 Z-5.942 I1.57 J2.379
N225 X154.1 Y1254.395 Z-6. I-1.57 J-2.379
N230 G01 X151.824 F3000.
N235 G03 X151.505 Y1254.076 J-0.319
N240 G01 Y1249.524
N245 G03 X151.824 Y1249.205 I0.319
N250 G01 X388.176
N255 G03 X388.495 Y1249.524 J0.319
N260 G01 Y1254.076
N265 G03 X388.176 Y1254.395 I-0.319
N270 G01 X154.1
N275 G02 X151.205 Y1256.031 J3.38
N280 G03 X148.971 Y1258.494 I-7.382 J-4.449
N285 G02 X148.641 Y1258.779 I1.792 J2.406
N290 G03 X147.122 Y1257.26 I-0.76 J-0.759
N295 G02 X148. Y1255.14 I-2.122 J-2.12
N300 G01 Y1248.46
N305 G02 X147.122 Y1246.339 I-3.
N310 G03 X148.641 Y1244.821 I0.76 J-0.759
N315 G02 X150.763 Y1245.7 I2.122 J-2.121
N320 G01 X389.237
N325 G02 X391.359 Y1244.821 J-3.
N330 G03 X392.878 Y1246.339 I0.76 J0.759
N335 G02 X392. Y1248.46 I2.122 J2.12
N340 G01 Y1255.14
N345 G02 X392.878 Y1257.26 I3.
N350 G03 X391.359 Y1258.779 I-0.76 J0.759
N355 G02 X389.237 Y1257.9 I-2.122 J2.121
N360 G01 X150.763
N365 G02 X148.971 Y1258.494 J3.
N370 G01 X148.934 Y1258.513
N375 X148.892 Y1258.517
N380 X148.852 Y1258.507
N385 X148.818 Y1258.483
N390 X148.794 Y1258.449
N395 X148.783 Y1258.409
N400 X148.787 Y1258.367
N405 X148.924 Y1257.897
N410 X152.596 Y1250.899
N415 X152.621 Y1250.835
N420 X152.63 Y1250.767
N425 X152.624 Y1250.698
N430 X152.374 Y1249.497
N435 G03 X152.499 Y1249.187 I0.294 J-0.061
N440 X155.701 Y1253.903 Z-6.313 I1.601 J2.358 F1500.
N445 X152.499 Y1249.187 Z-6.625 I-1.601 J-2.358
N450 X155.701 Y1253.903 Z-6.938 I1.601 J2.358
N455 X152.499 Y1249.187 Z-7.251 I-1.601 J-2.358
N460 X155.701 Y1253.903 Z-7.563 I1.601 J2.358
N465 X152.499 Y1249.187 Z-7.876 I-1.601 J-2.358
N470 X155.701 Y1253.903 Z-8.189 I1.601 J2.358
N475 X152.499 Y1249.187 Z-8.501 I-1.601 J-2.358
N480 X155.701 Y1253.903 Z-8.814 I1.601 J2.358
N485 X152.499 Y1249.187 Z-9.127 I-1.601 J-2.358
N490 X155.701 Y1253.903 Z-9.439 I1.601 J2.358
N495 X152.499 Y1249.187 Z-9.752 I-1.601 J-2.358
N500 X155.701 Y1253.903 Z-10.065 I1.601 J2.358
N505 X152.499 Y1249.187 Z-10.377 I-1.601 J-2.358
N510 X155.701 Y1253.903 Z-10.69 I1.601 J2.358
N515 X152.499 Y1249.187 Z-11.003 I-1.601 J-2.358
N520 X155.701 Y1253.903 Z-11.315 I1.601 J2.358
N525 X152.499 Y1249.187 Z-11.628 I-1.601 J-2.358
N530 X155.701 Y1253.903 Z-11.941 I1.601 J2.358
N535 X154.1 Y1254.395 Z-12. I-1.601 J-2.358
N540 G01 X151.824 F3000.
N545 G03 X151.505 Y1254.076 J-0.319
N550 G01 Y1249.524
N555 G03 X151.824 Y1249.205 I0.319
N560 G01 X388.176
N565 G03 X388.495 Y1249.524 J0.319
N570 G01 Y1254.076
N575 G03 X388.176 Y1254.395 I-0.319
N580 G01 X154.1
N585 G02 X151.205 Y1256.031 J3.38
N590 G03 X148.971 Y1258.494 I-7.382 J-4.449
N595 G02 X148.641 Y1258.779 I1.792 J2.406
N600 G03 X147.122 Y1257.26 I-0.76 J-0.759
N605 G02 X148. Y1255.14 I-2.122 J-2.12
N610 G01 Y1248.46
N615 G02 X147.122 Y1246.339 I-3.
N620 G03 X148.641 Y1244.821 I0.76 J-0.759
N625 G02 X150.763 Y1245.7 I2.122 J-2.121
N630 G01 X389.237
N635 G02 X391.359 Y1244.821 J-3.
N640 G03 X392.878 Y1246.339 I0.76 J0.759
N645 G02 X392. Y1248.46 I2.122 J2.12
N650 G01 Y1255.14
N655 G02 X392.878 Y1257.26 I3.
N660 G03 X391.359 Y1258.779 I-0.76 J0.759
N665 G02 X389.237 Y1257.9 I-2.122 J2.121
N670 G01 X150.763
N675 G02 X148.971 Y1258.494 J3.
N680 G01 X148.934 Y1258.513
N685 X148.892 Y1258.517
N690 X148.852 Y1258.507
N695 X148.818 Y1258.483
N700 X148.794 Y1258.449
N705 X148.783 Y1258.409
N710 X148.787 Y1258.367
N715 X148.924 Y1257.897
N720 X152.596 Y1250.899
N725 X152.621 Y1250.835
N730 X152.63 Y1250.767
N735 X152.624 Y1250.698
N740 X152.374 Y1249.497
N745 G03 X152.499 Y1249.187 I0.294 J-0.061
N750 X155.701 Y1253.903 Z-12.313 I1.601 J2.358 F1500.
N755 X152.499 Y1249.187 Z-12.625 I-1.601 J-2.358
N760 X155.701 Y1253.903 Z-12.938 I1.601 J2.358
N765 X152.499 Y1249.187 Z-13.251 I-1.601 J-2.358
N770 X155.701 Y1253.903 Z-13.563 I1.601 J2.358
N775 X152.499 Y1249.187 Z-13.876 I-1.601 J-2.358
N780 X155.701 Y1253.903 Z-14.189 I1.601 J2.358
N785 X152.499 Y1249.187 Z-14.501 I-1.601 J-2.358
N790 X155.701 Y1253.903 Z-14.814 I1.601 J2.358
N795 X152.499 Y1249.187 Z-15.127 I-1.601 J-2.358
N800 X155.701 Y1253.903 Z-15.439 I1.601 J2.358
N805 X152.499 Y1249.187 Z-15.752 I-1.601 J-2.358
N810 X155.701 Y1253.903 Z-16.065 I1.601 J2.358
N815 X152.499 Y1249.187 Z-16.377 I-1.601 J-2.358
N820 X155.701 Y1253.903 Z-16.69 I1.601 J2.358
N825 X152.499 Y1249.187 Z-17.003 I-1.601 J-2.358
N830 X155.701 Y1253.903 Z-17.315 I1.601 J2.358
N835 X152.499 Y1249.187 Z-17.628 I-1.601 J-2.358
N840 X155.701 Y1253.903 Z-17.941 I1.601 J2.358
N845 X154.1 Y1254.395 Z-18. I-1.601 J-2.358
N850 G01 X151.824 F3000.
N855 G03 X151.505 Y1254.076 J-0.319
N860 G01 Y1249.524
N865 G03 X151.824 Y1249.205 I0.319
N870 G01 X388.176
N875 G03 X388.495 Y1249.524 J0.319
N880 G01 Y1254.076
N885 G03 X388.176 Y1254.395 I-0.319
N890 G01 X154.1
N895 G02 X151.205 Y1256.031 J3.38
N900 G03 X148.971 Y1258.494 I-7.382 J-4.449
N905 G02 X148.641 Y1258.779 I1.792 J2.406
N910 G03 X147.122 Y1257.26 I-0.76 J-0.759
N915 G02 X148. Y1255.14 I-2.122 J-2.12
N920 G01 Y1248.46
N925 G02 X147.122 Y1246.339 I-3.
N930 G03 X148.641 Y1244.821 I0.76 J-0.759
N935 G02 X150.763 Y1245.7 I2.122 J-2.121
N940 G01 X389.237
N945 G02 X391.359 Y1244.821 J-3.
N950 G03 X392.878 Y1246.339 I0.76 J0.759
N955 G02 X392. Y1248.46 I2.122 J2.12
N960 G01 Y1255.14
N965 G02 X392.878 Y1257.26 I3.
N970 G03 X391.359 Y1258.779 I-0.76 J0.759
N975 G02 X389.237 Y1257.9 I-2.122 J2.121
N980 G01 X150.763
N985 G02 X148.971 Y1258.494 J3.
N990 G01 X148.893 Y1258.543 Z-17.985 F1500.
N995 X148.808 Y1258.58 Z-17.971
N1000 X148.727 Y1258.602 Z-17.928
N1005 X148.644 Y1258.612 Z-17.885
N1010 X148.578 Z-17.819
N1015 X148.512 Y1258.604 Z-17.753
N1020 X148.429 Y1258.584 Z-17.585
N1025 X148.401 Y1258.574 Z-17.4
N1030 G00 Z5.
N1035 X267.982 Y1415.432
N1040 G01 Z3.1 F333.
N1045 X268.002 Y1415.412 Z2.918 F1500.
N1050 X268.061 Y1415.356 Z2.754
N1055 X268.157 Y1415.271 Z2.622
N1060 X268.283 Y1415.17 Z2.534
N1065 X268.43 Y1415.066 Z2.5
N1070 G03 X271.57 Y1419.823 Z2.187 I1.57 J2.379
N1075 X268.43 Y1415.066 Z1.875 I-1.57 J-2.379
N1080 X271.57 Y1419.824 Z1.562 I1.57 J2.379
N1085 X268.43 Y1415.066 Z1.249 I-1.57 J-2.379
N1090 X271.57 Y1419.824 Z0.937 I1.57 J2.379
N1095 X268.43 Y1415.066 Z0.624 I-1.57 J-2.379
N1100 X271.57 Y1419.824 Z0.311 I1.57 J2.379
N1105 X268.43 Y1415.066 Z-0.001 I-1.57 J-2.379
N1110 X271.57 Y1419.824 Z-0.314 I1.57 J2.379
N1115 X268.43 Y1415.066 Z-0.627 I-1.57 J-2.379
N1120 X271.57 Y1419.824 Z-0.939 I1.57 J2.379
N1125 X268.43 Y1415.066 Z-1.252 I-1.57 J-2.379
N1130 X271.57 Y1419.824 Z-1.565 I1.57 J2.379
N1135 X268.43 Y1415.066 Z-1.877 I-1.57 J-2.379
N1140 X271.57 Y1419.824 Z-2.19 I1.57 J2.379
N1145 X268.43 Y1415.066 Z-2.503 I-1.57 J-2.379
N1150 X271.57 Y1419.824 Z-2.815 I1.57 J2.379
N1155 X268.43 Y1415.066 Z-3.128 I-1.57 J-2.379
N1160 X271.57 Y1419.824 Z-3.441 I1.57 J2.379
N1165 X268.43 Y1415.066 Z-3.753 I-1.57 J-2.379
N1170 X271.57 Y1419.824 Z-4.066 I1.57 J2.379
N1175 X268.43 Y1415.066 Z-4.379 I-1.57 J-2.379
N1180 X271.57 Y1419.824 Z-4.691 I1.57 J2.379
N1185 X268.43 Y1415.066 Z-5.004 I-1.57 J-2.379
N1190 X271.57 Y1419.824 Z-5.317 I1.57 J2.379
N1195 X268.43 Y1415.066 Z-5.629 I-1.57 J-2.379
N1200 X271.57 Y1419.824 Z-5.942 I1.57 J2.379
N1205 X270. Y1420.295 Z-6. I-1.57 J-2.379
N1210 G01 X267.724 F3000.
N1215 G03 X267.405 Y1419.976 J-0.319
N1220 G01 Y1308.624
N1225 G03 X267.724 Y1308.305 I0.319
N1230 G01 X272.276
N1235 G03 X272.595 Y1308.624 J0.319
N1240 G01 Y1419.976
N1245 G03 X272.276 Y1420.295 I-0.319
N1250 G01 X270.
N1255 G02 X267.105 Y1421.931 J3.38
N1260 G03 X264.871 Y1424.394 I-7.382 J-4.449
N1265 G02 X264.541 Y1424.679 I1.792 J2.406
N1270 G03 X263.022 Y1423.161 I-0.76 J-0.759
N1275 G02 X263.9 Y1421.04 I-2.122 J-2.12
N1280 G01 Y1307.56
N1285 G02 X263.022 Y1305.439 I-3.
N1290 G03 X264.541 Y1303.921 I0.76 J-0.759
N1295 G02 X266.663 Y1304.8 I2.122 J-2.121
N1300 G01 X273.337
N1305 G02 X275.459 Y1303.921 J-3.
N1310 G03 X276.978 Y1305.439 I0.76 J0.759
N1315 G02 X276.1 Y1307.56 I2.122 J2.121
N1320 G01 Y1421.04
N1325 G02 X276.978 Y1423.161 I3.
N1330 G03 X275.459 Y1424.679 I-0.76 J0.759
N1335 G02 X273.337 Y1423.8 I-2.122 J2.121
N1340 G01 X266.663
N1345 G02 X264.871 Y1424.394 J3.
N1350 G01 X264.834 Y1424.413
N1355 X264.792 Y1424.417
N1360 X264.752 Y1424.407
N1365 X264.718 Y1424.383
N1370 X264.694 Y1424.349
N1375 X264.683 Y1424.309
N1380 X264.687 Y1424.268
N1385 X264.821 Y1423.796
N1390 X268.494 Y1416.636
N1395 X268.514 Y1416.587
N1400 X268.525 Y1416.535
N1405 X268.526 Y1416.482
N1410 X268.519 Y1416.429
N1415 X268.275 Y1415.405
N1420 G03 X268.399 Y1415.087 I0.292 J-0.069
N1425 X271.601 Y1419.803 Z-6.313 I1.601 J2.358 F1500.
N1430 X268.399 Y1415.087 Z-6.625 I-1.601 J-2.358
N1435 X271.601 Y1419.803 Z-6.938 I1.601 J2.358
N1440 X268.399 Y1415.087 Z-7.251 I-1.601 J-2.358
N1445 X271.601 Y1419.803 Z-7.563 I1.601 J2.358
N1450 X268.399 Y1415.087 Z-7.876 I-1.601 J-2.358
N1455 X271.601 Y1419.803 Z-8.189 I1.601 J2.358
N1460 X268.399 Y1415.087 Z-8.501 I-1.601 J-2.358
N1465 X271.601 Y1419.803 Z-8.814 I1.601 J2.358
N1470 X268.399 Y1415.087 Z-9.127 I-1.601 J-2.358
N1475 X271.601 Y1419.803 Z-9.439 I1.601 J2.358
N1480 X268.399 Y1415.087 Z-9.752 I-1.601 J-2.358
N1485 X271.601 Y1419.803 Z-10.065 I1.601 J2.358
N1490 X268.399 Y1415.087 Z-10.377 I-1.601 J-2.358
N1495 X271.601 Y1419.803 Z-10.69 I1.601 J2.358
N1500 X268.399 Y1415.087 Z-11.003 I-1.601 J-2.358
N1505 X271.601 Y1419.803 Z-11.315 I1.601 J2.358
N1510 X268.399 Y1415.087 Z-11.628 I-1.601 J-2.358
N1515 X271.601 Y1419.803 Z-11.941 I1.601 J2.358
N1520 X270. Y1420.295 Z-12. I-1.601 J-2.358
N1525 G01 X267.724 F3000.
N1530 G03 X267.405 Y1419.976 J-0.319
N1535 G01 Y1308.624
N1540 G03 X267.724 Y1308.305 I0.319
N1545 G01 X272.276
N1550 G03 X272.595 Y1308.624 J0.319
N1555 G01 Y1419.976
N1560 G03 X272.276 Y1420.295 I-0.319
N1565 G01 X270.
N1570 G02 X267.105 Y1421.931 J3.38
N1575 G03 X264.871 Y1424.394 I-7.382 J-4.449
N1580 G02 X264.541 Y1424.679 I1.792 J2.406
N1585 G03 X263.022 Y1423.161 I-0.76 J-0.759
N1590 G02 X263.9 Y1421.04 I-2.122 J-2.12
N1595 G01 Y1307.56
N1600 G02 X263.022 Y1305.439 I-3.
N1605 G03 X264.541 Y1303.921 I0.76 J-0.759
N1610 G02 X266.663 Y1304.8 I2.122 J-2.121
N1615 G01 X273.337
N1620 G02 X275.459 Y1303.921 J-3.
N1625 G03 X276.978 Y1305.439 I0.76 J0.759
N1630 G02 X276.1 Y1307.56 I2.122 J2.121
N1635 G01 Y1421.04
N1640 G02 X276.978 Y1423.161 I3.
N1645 G03 X275.459 Y1424.679 I-0.76 J0.759
N1650 G02 X273.337 Y1423.8 I-2.122 J2.121
N1655 G01 X266.663
N1660 G02 X264.871 Y1424.394 J3.
N1665 G01 X264.834 Y1424.413
N1670 X264.792 Y1424.417
N1675 X264.752 Y1424.407
N1680 X264.718 Y1424.383
N1685 X264.694 Y1424.349
N1690 X264.683 Y1424.309
N1695 X264.687 Y1424.268
N1700 X264.821 Y1423.796
N1705 X268.494 Y1416.636
N1710 X268.514 Y1416.587
N1715 X268.525 Y1416.535
N1720 X268.526 Y1416.482
N1725 X268.519 Y1416.429
N1730 X268.275 Y1415.405
N1735 G03 X268.399 Y1415.087 I0.292 J-0.069
N1740 X271.601 Y1419.803 Z-12.313 I1.601 J2.358 F1500.
N1745 X268.399 Y1415.087 Z-12.625 I-1.601 J-2.358
N1750 X271.601 Y1419.803 Z-12.938 I1.601 J2.358
N1755 X268.399 Y1415.087 Z-13.251 I-1.601 J-2.358
N1760 X271.601 Y1419.803 Z-13.563 I1.601 J2.358
N1765 X268.399 Y1415.087 Z-13.876 I-1.601 J-2.358
N1770 X271.601 Y1419.803 Z-14.189 I1.601 J2.358
N1775 X268.399 Y1415.087 Z-14.501 I-1.601 J-2.358
N1780 X271.601 Y1419.803 Z-14.814 I1.601 J2.358
N1785 X268.399 Y1415.087 Z-15.127 I-1.601 J-2.358
N1790 X271.601 Y1419.803 Z-15.439 I1.601 J2.358
N1795 X268.399 Y1415.087 Z-15.752 I-1.601 J-2.358
N1800 X271.601 Y1419.803 Z-16.065 I1.601 J2.358
N1805 X268.399 Y1415.087 Z-16.377 I-1.601 J-2.358
N1810 X271.601 Y1419.803 Z-16.69 I1.601 J2.358
N1815 X268.399 Y1415.087 Z-17.003 I-1.601 J-2.358
N1820 X271.601 Y1419.803 Z-17.315 I1.601 J2.358
N1825 X268.399 Y1415.087 Z-17.628 I-1.601 J-2.358
N1830 X271.601 Y1419.803 Z-17.941 I1.601 J2.358
N1835 X270. Y1420.295 Z-18. I-1.601 J-2.358
N1840 G01 X267.724 F3000.
N1845 G03 X267.405 Y1419.976 J-0.319
N1850 G01 Y1308.624
N1855 G03 X267.724 Y1308.305 I0.319
N1860 G01 X272.276
N1865 G03 X272.595 Y1308.624 J0.319
N1870 G01 Y1419.976
N1875 G03 X272.276 Y1420.295 I-0.319
N1880 G01 X270.
N1885 G02 X267.105 Y1421.931 J3.38
N1890 G03 X264.871 Y1424.394 I-7.382 J-4.449
N1895 G02 X264.541 Y1424.679 I1.792 J2.406
N1900 G03 X263.022 Y1423.161 I-0.76 J-0.759
N1905 G02 X263.9 Y1421.04 I-2.122 J-2.12
N1910 G01 Y1307.56
N1915 G02 X263.022 Y1305.439 I-3.
N1920 G03 X264.541 Y1303.921 I0.76 J-0.759
N1925 G02 X266.663 Y1304.8 I2.122 J-2.121
N1930 G01 X273.337
N1935 G02 X275.459 Y1303.921 J-3.
N1940 G03 X276.978 Y1305.439 I0.76 J0.759
N1945 G02 X276.1 Y1307.56 I2.122 J2.121
N1950 G01 Y1421.04
N1955 G02 X276.978 Y1423.161 I3.
N1960 G03 X275.459 Y1424.679 I-0.76 J0.759
N1965 G02 X273.337 Y1423.8 I-2.122 J2.121
N1970 G01 X266.663
N1975 G02 X264.871 Y1424.394 J3.
N1980 G01 X264.793 Y1424.443 Z-17.985 F1500.
N1985 X264.708 Y1424.48 Z-17.971
N1990 X264.627 Y1424.502 Z-17.928
N1995 X264.544 Y1424.512 Z-17.885
N2000 X264.478 Z-17.819
N2005 X264.412 Y1424.504 Z-17.753
N2010 X264.329 Y1424.484 Z-17.585
N2015 X264.301 Y1424.474 Z-17.4
N2020 G00 Z5.
N2025 X152.082 Y267.732
N2030 G01 Z3.1 F333.
N2035 X152.102 Y267.712 Z2.918 F1500.
N2040 X152.161 Y267.656 Z2.754
N2045 X152.257 Y267.571 Z2.622
N2050 X152.383 Y267.47 Z2.534
N2055 X152.53 Y267.366 Z2.5
N2060 G03 X155.67 Y272.124 Z2.187 I1.57 J2.379
N2065 X152.53 Y267.366 Z1.875 I-1.57 J-2.379
N2070 X155.67 Y272.124 Z1.562 I1.57 J2.379
N2075 X152.53 Y267.366 Z1.249 I-1.57 J-2.379
N2080 X155.67 Y272.124 Z0.937 I1.57 J2.379
N2085 X152.53 Y267.366 Z0.624 I-1.57 J-2.379
N2090 X155.67 Y272.124 Z0.311 I1.57 J2.379
N2095 X152.53 Y267.366 Z-0.001 I-1.57 J-2.379
N2100 X155.67 Y272.124 Z-0.314 I1.57 J2.379
N2105 X152.53 Y267.366 Z-0.627 I-1.57 J-2.379
N2110 X155.67 Y272.124 Z-0.939 I1.57 J2.379
N2115 X152.53 Y267.366 Z-1.252 I-1.57 J-2.379
N2120 X155.67 Y272.124 Z-1.565 I1.57 J2.379
N2125 X152.53 Y267.366 Z-1.877 I-1.57 J-2.379
N2130 X155.67 Y272.124 Z-2.19 I1.57 J2.379
N2135 X152.53 Y267.366 Z-2.503 I-1.57 J-2.379
N2140 X155.67 Y272.124 Z-2.815 I1.57 J2.379
N2145 X152.53 Y267.366 Z-3.128 I-1.57 J-2.379
N2150 X155.67 Y272.124 Z-3.441 I1.57 J2.379
N2155 X152.53 Y267.366 Z-3.753 I-1.57 J-2.379
N2160 X155.67 Y272.124 Z-4.066 I1.57 J2.379
N2165 X152.53 Y267.366 Z-4.379 I-1.57 J-2.379
N2170 X155.67 Y272.124 Z-4.691 I1.57 J2.379
N2175 X152.53 Y267.366 Z-5.004 I-1.57 J-2.379
N2180 X155.67 Y272.124 Z-5.317 I1.57 J2.379
N2185 X152.53 Y267.366 Z-5.629 I-1.57 J-2.379
N2190 X155.67 Y272.124 Z-5.942 I1.57 J2.379
N2195 X154.1 Y272.595 Z-6. I-1.57 J-2.379
N2200 G01 X151.824 F3000.
N2205 G03 X151.505 Y272.276 J-0.319
N2210 G01 Y267.724
N2215 G03 X151.824 Y267.405 I0.319
N2220 G01 X388.176
N2225 G03 X388.495 Y267.724 J0.319
N2230 G01 Y272.276
N2235 G03 X388.176 Y272.595 I-0.319
N2240 G01 X154.1
N2245 G02 X151.205 Y274.231 J3.381
N2250 G03 X148.971 Y276.694 I-7.382 J-4.449
N2255 G02 X148.642 Y276.978 I1.792 J2.406
N2260 G03 X147.122 Y275.458 I-0.76 J-0.76
N2265 G02 X148. Y273.337 I-2.122 J-2.121
N2270 G01 Y266.663
N2275 G02 X147.122 Y264.542 I-3.
N2280 G03 X148.642 Y263.022 I0.76 J-0.76
N2285 G02 X150.763 Y263.9 I2.121 J-2.122
N2290 G01 X389.237
N2295 G02 X391.358 Y263.022 J-3.
N2300 G03 X392.878 Y264.542 I0.76 J0.76
N2305 G02 X392. Y266.663 I2.122 J2.121
N2310 G01 Y273.337
N2315 G02 X392.878 Y275.458 I3.
N2320 G03 X391.358 Y276.978 I-0.76 J0.76
N2325 G02 X389.237 Y276.1 I-2.121 J2.122
N2330 G01 X150.763
N2335 G02 X148.971 Y276.694 J3.
N2340 G01 X148.934 Y276.713
N2345 X148.892 Y276.717
N2350 X148.852 Y276.707
N2355 X148.817 Y276.683
N2360 X148.793 Y276.649
N2365 X148.783 Y276.609
N2370 X148.787 Y276.567
N2375 X148.924 Y276.097
N2380 X152.596 Y269.099
N2385 X152.621 Y269.035
N2390 X152.63 Y268.967
N2395 X152.624 Y268.898
N2400 X152.374 Y267.697
N2405 G03 X152.499 Y267.387 I0.294 J-0.061
N2410 X155.701 Y272.103 Z-6.313 I1.601 J2.358 F1500.
N2415 X152.499 Y267.387 Z-6.625 I-1.601 J-2.358
N2420 X155.701 Y272.103 Z-6.938 I1.601 J2.358
N2425 X152.499 Y267.387 Z-7.251 I-1.601 J-2.358
N2430 X155.701 Y272.103 Z-7.563 I1.601 J2.358
N2435 X152.499 Y267.387 Z-7.876 I-1.601 J-2.358
N2440 X155.701 Y272.103 Z-8.189 I1.601 J2.358
N2445 X152.499 Y267.387 Z-8.501 I-1.601 J-2.358
N2450 X155.701 Y272.103 Z-8.814 I1.601 J2.358
N2455 X152.499 Y267.387 Z-9.127 I-1.601 J-2.358
N2460 X155.701 Y272.103 Z-9.439 I1.601 J2.358
N2465 X152.499 Y267.387 Z-9.752 I-1.601 J-2.358
N2470 X155.701 Y272.103 Z-10.065 I1.601 J2.358
N2475 X152.499 Y267.387 Z-10.377 I-1.601 J-2.358
N2480 X155.701 Y272.103 Z-10.69 I1.601 J2.358
N2485 X152.499 Y267.387 Z-11.003 I-1.601 J-2.358
N2490 X155.701 Y272.103 Z-11.315 I1.601 J2.358
N2495 X152.499 Y267.387 Z-11.628 I-1.601 J-2.358
N2500 X155.701 Y272.103 Z-11.941 I1.601 J2.358
N2505 X154.1 Y272.595 Z-12. I-1.601 J-2.358
N2510 G01 X151.824 F3000.
N2515 G03 X151.505 Y272.276 J-0.319
N2520 G01 Y267.724
N2525 G03 X151.824 Y267.405 I0.319
N2530 G01 X388.176
N2535 G03 X388.495 Y267.724 J0.319
N2540 G01 Y272.276
N2545 G03 X388.176 Y272.595 I-0.319
N2550 G01 X154.1
N2555 G02 X151.205 Y274.231 J3.381
N2560 G03 X148.971 Y276.694 I-7.382 J-4.449
N2565 G02 X148.642 Y276.978 I1.792 J2.406
N2570 G03 X147.122 Y275.458 I-0.76 J-0.76
N2575 G02 X148. Y273.337 I-2.122 J-2.121
N2580 G01 Y266.663
N2585 G02 X147.122 Y264.542 I-3.
N2590 G03 X148.642 Y263.022 I0.76 J-0.76
N2595 G02 X150.763 Y263.9 I2.121 J-2.122
N2600 G01 X389.237
N2605 G02 X391.358 Y263.022 J-3.
N2610 G03 X392.878 Y264.542 I0.76 J0.76
N2615 G02 X392. Y266.663 I2.122 J2.121
N2620 G01 Y273.337
N2625 G02 X392.878 Y275.458 I3.
N2630 G03 X391.358 Y276.978 I-0.76 J0.76
N2635 G02 X389.237 Y276.1 I-2.121 J2.122
N2640 G01 X150.763
N2645 G02 X148.971 Y276.694 J3.
N2650 G01 X148.934 Y276.713
N2655 X148.892 Y276.717
N2660 X148.852 Y276.707
N2665 X148.817 Y276.683
N2670 X148.793 Y276.649
N2675 X148.783 Y276.609
N2680 X148.787 Y276.567
N2685 X148.924 Y276.097
N2690 X152.596 Y269.099
N2695 X152.621 Y269.035
N2700 X152.63 Y268.967
N2705 X152.624 Y268.898
N2710 X152.374 Y267.697
N2715 G03 X152.499 Y267.387 I0.294 J-0.061
N2720 X155.701 Y272.103 Z-12.313 I1.601 J2.358 F1500.
N2725 X152.499 Y267.387 Z-12.625 I-1.601 J-2.358
N2730 X155.701 Y272.103 Z-12.938 I1.601 J2.358
N2735 X152.499 Y267.387 Z-13.251 I-1.601 J-2.358
N2740 X155.701 Y272.103 Z-13.563 I1.601 J2.358
N2745 X152.499 Y267.387 Z-13.876 I-1.601 J-2.358
N2750 X155.701 Y272.103 Z-14.189 I1.601 J2.358
N2755 X152.499 Y267.387 Z-14.501 I-1.601 J-2.358
N2760 X155.701 Y272.103 Z-14.814 I1.601 J2.358
N2765 X152.499 Y267.387 Z-15.127 I-1.601 J-2.358
N2770 X155.701 Y272.103 Z-15.439 I1.601 J2.358
N2775 X152.499 Y267.387 Z-15.752 I-1.601 J-2.358
N2780 X155.701 Y272.103 Z-16.065 I1.601 J2.358
N2785 X152.499 Y267.387 Z-16.377 I-1.601 J-2.358
N2790 X155.701 Y272.103 Z-16.69 I1.601 J2.358
N2795 X152.499 Y267.387 Z-17.003 I-1.601 J-2.358
N2800 X155.701 Y272.103 Z-17.315 I1.601 J2.358
N2805 X152.499 Y267.387 Z-17.628 I-1.601 J-2.358
N2810 X155.701 Y272.103 Z-17.941 I1.601 J2.358
N2815 X154.1 Y272.595 Z-18. I-1.601 J-2.358
N2820 G01 X151.824 F3000.
N2825 G03 X151.505 Y272.276 J-0.319
N2830 G01 Y267.724
N2835 G03 X151.824 Y267.405 I0.319
N2840 G01 X388.176
N2845 G03 X388.495 Y267.724 J0.319
N2850 G01 Y272.276
N2855 G03 X388.176 Y272.595 I-0.319
N2860 G01 X154.1
N2865 G02 X151.205 Y274.231 J3.381
N2870 G03 X148.971 Y276.694 I-7.382 J-4.449
N2875 G02 X148.642 Y276.978 I1.792 J2.406
N2880 G03 X147.122 Y275.458 I-0.76 J-0.76
N2885 G02 X148. Y273.337 I-2.122 J-2.121
N2890 G01 Y266.663
N2895 G02 X147.122 Y264.542 I-3.
N2900 G03 X148.642 Y263.022 I0.76 J-0.76
N2905 G02 X150.763 Y263.9 I2.121 J-2.122
N2910 G01 X389.237
N2915 G02 X391.358 Y263.022 J-3.
N2920 G03 X392.878 Y264.542 I0.76 J0.76
N2925 G02 X392. Y266.663 I2.122 J2.121
N2930 G01 Y273.337
N2935 G02 X392.878 Y275.458 I3.
N2940 G03 X391.358 Y276.978 I-0.76 J0.76
N2945 G02 X389.237 Y276.1 I-2.121 J2.122
N2950 G01 X150.763
N2955 G02 X148.971 Y276.694 J3.
N2960 G01 X148.893 Y276.743 Z-17.985 F1500.
N2965 X148.808 Y276.78 Z-17.971
N2970 X148.727 Y276.802 Z-17.928
N2975 X148.644 Y276.812 Z-17.885
N2980 X148.578 Z-17.819
N2985 X148.512 Y276.804 Z-17.753
N2990 X148.429 Y276.784 Z-17.585
N2995 X148.401 Y276.774 Z-17.4
N3000 G00 Z5.
N3005 X267.732 Y106.118
N3010 G01 Z3.1 F333.
N3015 X267.712 Y106.098 Z2.918 F1500.
N3020 X267.656 Y106.039 Z2.754
N3025 X267.571 Y105.943 Z2.622
N3030 X267.47 Y105.817 Z2.534
N3035 X267.366 Y105.67 Z2.5
N3040 G03 X272.124 Y102.53 Z2.187 I2.379 J-1.57
N3045 X267.366 Y105.67 Z1.875 I-2.379 J1.57
N3050 X272.124 Y102.53 Z1.562 I2.379 J-1.57
N3055 X267.366 Y105.67 Z1.249 I-2.379 J1.57
N3060 X272.124 Y102.53 Z0.937 I2.379 J-1.57
N3065 X267.366 Y105.67 Z0.624 I-2.379 J1.57
N3070 X272.124 Y102.53 Z0.311 I2.379 J-1.57
N3075 X267.366 Y105.67 Z-0.001 I-2.379 J1.57
N3080 X272.124 Y102.53 Z-0.314 I2.379 J-1.57
N3085 X267.366 Y105.67 Z-0.627 I-2.379 J1.57
N3090 X272.124 Y102.53 Z-0.939 I2.379 J-1.57
N3095 X267.366 Y105.67 Z-1.252 I-2.379 J1.57
N3100 X272.124 Y102.53 Z-1.565 I2.379 J-1.57
N3105 X267.366 Y105.67 Z-1.877 I-2.379 J1.57
N3110 X272.124 Y102.53 Z-2.19 I2.379 J-1.57
N3115 X267.366 Y105.67 Z-2.503 I-2.379 J1.57
N3120 X272.124 Y102.53 Z-2.815 I2.379 J-1.57
N3125 X267.366 Y105.67 Z-3.128 I-2.379 J1.57
N3130 X272.124 Y102.53 Z-3.441 I2.379 J-1.57
N3135 X267.366 Y105.67 Z-3.753 I-2.379 J1.57
N3140 X272.124 Y102.53 Z-4.066 I2.379 J-1.57
N3145 X267.366 Y105.67 Z-4.379 I-2.379 J1.57
N3150 X272.124 Y102.53 Z-4.691 I2.379 J-1.57
N3155 X267.366 Y105.67 Z-5.004 I-2.379 J1.57
N3160 X272.124 Y102.53 Z-5.317 I2.379 J-1.57
N3165 X267.366 Y105.67 Z-5.629 I-2.379 J1.57
N3170 X272.124 Y102.53 Z-5.942 I2.379 J-1.57
N3175 X272.595 Y104.1 Z-6. I-2.379 J1.57
N3180 G01 Y213.176 F3000.
N3185 G03 X272.276 Y213.495 I-0.319
N3190 G01 X267.724
N3195 G03 X267.405 Y213.176 J-0.319
N3200 G01 Y101.824
N3205 G03 X267.724 Y101.505 I0.319
N3210 G01 X272.276
N3215 G03 X272.595 Y101.824 J0.319
N3220 G01 Y104.1
N3225 G02 X274.348 Y106.729 I2.848
N3230 G03 X276.1 Y109.357 I-1.095 J2.629
N3235 G01 Y214.237
N3240 G02 X276.978 Y216.358 I3.
N3245 G03 X275.458 Y217.878 I-0.76 J0.76
N3250 G02 X273.337 Y217. I-2.121 J2.122
N3255 G01 X266.663
N3260 G02 X264.542 Y217.878 J3.
N3265 G03 X263.022 Y216.358 I-0.76 J-0.76
N3270 G02 X263.9 Y214.237 I-2.122 J-2.121
N3275 G01 Y100.763
N3280 G02 X263.022 Y98.642 I-3.
N3285 G03 X264.542 Y97.122 I0.76 J-0.76
N3290 G02 X266.663 Y98. I2.121 J-2.122
N3295 G01 X273.337
N3300 G02 X275.458 Y97.122 J-3.
N3305 G03 X276.978 Y98.642 I0.76 J0.76
N3310 G02 X276.1 Y100.763 I2.122 J2.121
N3315 G01 Y109.357
N3320 G03 X275.803 Y109.538 I-0.204
N3325 G01 X274.94 Y109.09
N3330 X267.912 Y105.664
N3335 X267.878 Y105.654
N3340 X267.843 Y105.656
N3345 X267.495 Y105.743
N3350 X267.465 Y105.745
N3355 X267.435 Y105.739
N3360 X267.408 Y105.724
N3365 X267.387 Y105.701
N3370 G03 X272.103 Y102.499 Z-6.313 I2.358 J-1.601 F1500.
N3375 X267.387 Y105.701 Z-6.625 I-2.358 J1.601
N3380 X272.103 Y102.499 Z-6.938 I2.358 J-1.601
N3385 X267.387 Y105.701 Z-7.251 I-2.358 J1.601
N3390 X272.103 Y102.499 Z-7.563 I2.358 J-1.601
N3395 X267.387 Y105.701 Z-7.876 I-2.358 J1.601
N3400 X272.103 Y102.499 Z-8.189 I2.358 J-1.601
N3405 X267.387 Y105.701 Z-8.501 I-2.358 J1.601
N3410 X272.103 Y102.499 Z-8.814 I2.358 J-1.601
N3415 X267.387 Y105.701 Z-9.127 I-2.358 J1.601
N3420 X272.103 Y102.499 Z-9.439 I2.358 J-1.601
N3425 X267.387 Y105.701 Z-9.752 I-2.358 J1.601
N3430 X272.103 Y102.499 Z-10.065 I2.358 J-1.601
N3435 X267.387 Y105.701 Z-10.377 I-2.358 J1.601
N3440 X272.103 Y102.499 Z-10.69 I2.358 J-1.601
N3445 X267.387 Y105.701 Z-11.003 I-2.358 J1.601
N3450 X272.103 Y102.499 Z-11.315 I2.358 J-1.601
N3455 X267.387 Y105.701 Z-11.628 I-2.358 J1.601
N3460 X272.103 Y102.499 Z-11.941 I2.358 J-1.601
N3465 X272.595 Y104.1 Z-12. I-2.358 J1.601
N3470 G01 Y213.176 F3000.
N3475 G03 X272.276 Y213.495 I-0.319
N3480 G01 X267.724
N3485 G03 X267.405 Y213.176 J-0.319
N3490 G01 Y101.824
N3495 G03 X267.724 Y101.505 I0.319
N3500 G01 X272.276
N3505 G03 X272.595 Y101.824 J0.319
N3510 G01 Y104.1
N3515 G02 X274.348 Y106.729 I2.848
N3520 G03 X276.1 Y109.357 I-1.095 J2.629
N3525 G01 Y214.237
N3530 G02 X276.978 Y216.358 I3.
N3535 G03 X275.458 Y217.878 I-0.76 J0.76
N3540 G02 X273.337 Y217. I-2.121 J2.122
N3545 G01 X266.663
N3550 G02 X264.542 Y217.878 J3.
N3555 G03 X263.022 Y216.358 I-0.76 J-0.76
N3560 G02 X263.9 Y214.237 I-2.122 J-2.121
N3565 G01 Y100.763
N3570 G02 X263.022 Y98.642 I-3.
N3575 G03 X264.542 Y97.122 I0.76 J-0.76
N3580 G02 X266.663 Y98. I2.121 J-2.122
N3585 G01 X273.337
N3590 G02 X275.458 Y97.122 J-3.
N3595 G03 X276.978 Y98.642 I0.76 J0.76
N3600 G02 X276.1 Y100.763 I2.122 J2.121
N3605 G01 Y109.357
N3610 G03 X275.803 Y109.538 I-0.204
N3615 G01 X274.94 Y109.09
N3620 X267.912 Y105.664
N3625 X267.878 Y105.654
N3630 X267.843 Y105.656
N3635 X267.495 Y105.743
N3640 X267.465 Y105.745
N3645 X267.435 Y105.739
N3650 X267.408 Y105.724
N3655 X267.387 Y105.701
N3660 G03 X272.103 Y102.499 Z-12.313 I2.358 J-1.601 F1500.
N3665 X267.387 Y105.701 Z-12.625 I-2.358 J1.601
N3670 X272.103 Y102.499 Z-12.938 I2.358 J-1.601
N3675 X267.387 Y105.701 Z-13.251 I-2.358 J1.601
N3680 X272.103 Y102.499 Z-13.563 I2.358 J-1.601
N3685 X267.387 Y105.701 Z-13.876 I-2.358 J1.601
N3690 X272.103 Y102.499 Z-14.189 I2.358 J-1.601
N3695 X267.387 Y105.701 Z-14.501 I-2.358 J1.601
N3700 X272.103 Y102.499 Z-14.814 I2.358 J-1.601
N3705 X267.387 Y105.701 Z-15.127 I-2.358 J1.601
N3710 X272.103 Y102.499 Z-15.439 I2.358 J-1.601
N3715 X267.387 Y105.701 Z-15.752 I-2.358 J1.601
N3720 X272.103 Y102.499 Z-16.065 I2.358 J-1.601
N3725 X267.387 Y105.701 Z-16.377 I-2.358 J1.601
N3730 X272.103 Y102.499 Z-16.69 I2.358 J-1.601
N3735 X267.387 Y105.701 Z-17.003 I-2.358 J1.601
N3740 X272.103 Y102.499 Z-17.315 I2.358 J-1.601
N3745 X267.387 Y105.701 Z-17.628 I-2.358 J1.601
N3750 X272.103 Y102.499 Z-17.941 I2.358 J-1.601
N3755 X272.595 Y104.1 Z-18. I-2.358 J1.601
N3760 G01 Y213.176 F3000.
N3765 G03 X272.276 Y213.495 I-0.319
N3770 G01 X267.724
N3775 G03 X267.405 Y213.176 J-0.319
N3780 G01 Y101.824
N3785 G03 X267.724 Y101.505 I0.319
N3790 G01 X272.276
N3795 G03 X272.595 Y101.824 J0.319
N3800 G01 Y104.1
N3805 G02 X274.348 Y106.729 I2.848
N3810 G03 X276.1 Y109.357 I-1.095 J2.629
N3815 G01 Y214.237
N3820 G02 X276.978 Y216.358 I3.
N3825 G03 X275.458 Y217.878 I-0.76 J0.76
N3830 G02 X273.337 Y217. I-2.121 J2.122
N3835 G01 X266.663
N3840 G02 X264.542 Y217.878 J3.
N3845 G03 X263.022 Y216.358 I-0.76 J-0.76
N3850 G02 X263.9 Y214.237 I-2.122 J-2.121
N3855 G01 Y100.763
N3860 G02 X263.022 Y98.642 I-3.
N3865 G03 X264.542 Y97.122 I0.76 J-0.76
N3870 G02 X266.663 Y98. I2.121 J-2.122
N3875 G01 X273.337
N3880 G02 X275.458 Y97.122 J-3.
N3885 G03 X276.978 Y98.642 I0.76 J0.76
N3890 G02 X276.1 Y100.763 I2.122 J2.121
N3895 G01 Y109.357
N3900 X276.093 Y109.45 Z-17.985 F1500.
N3905 X276.072 Y109.54 Z-17.971
N3910 X276.041 Y109.618 Z-17.928
N3915 X275.999 Y109.69 Z-17.885
N3920 X275.96 Y109.743 Z-17.819
N3925 X275.914 Y109.792 Z-17.753
N3930 X275.848 Y109.846 Z-17.585
N3935 X275.824 Y109.862 Z-17.4
N3940 G00 Z15.

(2D CONTOUR1)
N3945 G00 X270.6 Y15.2
N3950 Z15.
N3955 Z5.
N3960 G01 Z-5.4 F333.
N3965 G19 G03 Y15.8 Z-6. J0.6 F1500.
N3970 G01 Y16.4
N3975 G17 G03 X270. Y17. I-0.6
N3980 G01 X245. F3000.
N3985 G02 X217.157 Y42.045 J28.
N3990 G03 X42.045 Y217.157 I-195.9 J-20.789
N3995 G02 X17. Y245. I2.955 J27.843
N4000 G01 Y294.9
N4005 G02 X45. Y322.9 I28.
N4010 G01 X95.
N4015 G03 X142. Y369.9 J47.
N4020 G01 Y1151.9
N4025 G03 X95. Y1198.9 I-47.
N4030 G01 X45.
N4035 G02 X17. Y1226.9 J28.
N4040 G01 Y1276.8
N4045 G02 X42.045 Y1304.643 I28.
N4050 G03 X217.157 Y1479.756 I-20.787 J195.898
N4055 G02 X245. Y1504.8 I27.843 J-2.956
N4060 G01 X295.
N4065 G02 X322.843 Y1479.757 J-28.
N4070 G03 X497.955 Y1304.643 I195.899 J20.785
N4075 G02 X523. Y1276.8 I-2.954 J-27.844
N4080 G01 Y1226.9
N4085 G02 X495. Y1198.9 I-28.
N4090 G01 X445.
N4095 G03 X398. Y1151.9 J-47.
N4100 G01 Y369.9
N4105 G03 X445. Y322.9 I47.
N4110 G01 X495.
N4115 G02 X523. Y294.9 J-28.
N4120 G01 Y245.
N4125 G02 X497.955 Y217.157 I-28.
N4130 G03 X322.843 Y42.045 I20.789 J-195.901
N4135 G02 X295. Y17. I-27.843 J2.955
N4140 G01 X270.
N4145 G03 X269.4 Y16.4 J-0.6 F1500.
N4150 G01 Y15.8
N4155 G19 G02 Y15.2 Z-5.4 K0.6
N4160 G00 Z5.
N4165 X270.6
N4170 G01 Z-1. F333.
N4175 Z-11.4
N4180 G03 Y15.8 Z-12. J0.6 F1500.
N4185 G01 Y16.4
N4190 G17 G03 X270. Y17. I-0.6
N4195 G01 X245. F3000.
N4200 G02 X217.157 Y42.045 J28.
N4205 G03 X42.045 Y217.157 I-195.9 J-20.789
N4210 G02 X17. Y245. I2.955 J27.843
N4215 G01 Y294.9
N4220 G02 X45. Y322.9 I28.
N4225 G01 X95.
N4230 G03 X142. Y369.9 J47.
N4235 G01 Y1151.9
N4240 G03 X95. Y1198.9 I-47.
N4245 G01 X45.
N4250 G02 X17. Y1226.9 J28.
N4255 G01 Y1276.8
N4260 G02 X42.045 Y1304.643 I28.
N4265 G03 X217.157 Y1479.756 I-20.787 J195.898
N4270 G02 X245. Y1504.8 I27.843 J-2.956
N4275 G01 X295.
N4280 G02 X322.843 Y1479.757 J-28.
N4285 G03 X497.955 Y1304.643 I195.899 J20.785
N4290 G02 X523. Y1276.8 I-2.954 J-27.844
N4295 G01 Y1226.9
N4300 G02 X495. Y1198.9 I-28.
N4305 G01 X445.
N4310 G03 X398. Y1151.9 J-47.
N4315 G01 Y369.9
N4320 G03 X445. Y322.9 I47.
N4325 G01 X495.
N4330 G02 X523. Y294.9 J-28.
N4335 G01 Y245.
N4340 G02 X497.955 Y217.157 I-28.
N4345 G03 X322.843 Y42.045 I20.789 J-195.901
N4350 G02 X295. Y17. I-27.843 J2.955
N4355 G01 X270.
N4360 G03 X269.4 Y16.4 J-0.6 F1500.
N4365 G01 Y15.8
N4370 G19 G02 Y15.2 Z-11.4 K0.6
N4375 G00 Z5.
N4380 X270.6
N4385 G01 Z-7. F333.
N4390 Z-17.4
N4395 G03 Y15.8 Z-18. J0.6 F1500.
N4400 G01 Y16.4
N4405 G17 G03 X270. Y17. I-0.6
N4410 G01 X245. F3000.
N4415 G02 X217.157 Y42.045 J28.
N4420 G03 X118.577 Y192.539 I-195.9 J-20.789
N4425 G01 Z-16.5
N4430 G03 X107.968 Y198.147 I-97.321 J-171.283
N4435 G01 Z-18. F333.
N4440 G03 X42.045 Y217.157 I-86.712 J-176.891 F3000.
N4445 G02 X17. Y245. I2.955 J27.843
N4450 G01 Y294.9
N4455 G02 X45. Y322.9 I28.
N4460 G01 X95.
N4465 G03 X142. Y369.9 J47.
N4470 G01 Y424.994
N4475 Z-16.5
N4480 Y436.994
N4485 Z-18. F333.
N4490 Y816.527 F3000.
N4495 Z-16.5
N4500 Y828.527
N4505 Z-18. F333.
N4510 Y1151.9 F3000.
N4515 G03 X115.681 Y1194.105 I-47.
N4520 G01 Z-16.5
N4525 G03 X104.319 Y1197.967 I-20.681 J-42.205
N4530 G01 Z-18. F333.
N4535 G03 X95. Y1198.9 I-9.319 J-46.067 F3000.
N4540 G01 X45.
N4545 G02 X17. Y1226.9 J28.
N4550 G01 Y1276.8
N4555 G02 X42.045 Y1304.643 I28.
N4560 G03 X194.258 Y1406.311 I-20.787 J195.898
N4565 G01 Z-16.5
N4570 G03 X199.674 Y1417.019 I-173. J94.231
N4575 G01 Z-18. F333.
N4580 G03 X217.157 Y1479.756 I-178.416 J83.522 F3000.
N4585 G02 X245. Y1504.8 I27.843 J-2.956
N4590 G01 X295.
N4595 G02 X322.843 Y1479.757 J-28.
N4600 G03 X421.424 Y1329.26 I195.899 J20.785
N4605 G01 Z-16.5
N4610 G03 X432.034 Y1323.652 I97.318 J171.282
N4615 G01 Z-18. F333.
N4620 G03 X497.955 Y1304.643 I86.709 J176.89 F3000.
N4625 G02 X523. Y1276.8 I-2.954 J-27.844
N4630 G01 Y1226.9
N4635 G02 X495. Y1198.9 I-28.
N4640 G01 X445.
N4645 G03 X398. Y1151.9 J-47.
N4650 G01 Y1096.81
N4655 Z-16.5
N4660 Y1084.81
N4665 Z-18. F333.
N4670 Y705.273 F3000.
N4675 Z-16.5
N4680 Y693.273
N4685 Z-18. F333.
N4690 Y369.9 F3000.
N4695 G03 X424.319 Y327.694 I47.
N4700 G01 Z-16.5
N4705 G03 X435.681 Y323.833 I20.681 J42.206
N4710 G01 Z-18. F333.
N4715 G03 X445. Y322.9 I9.319 J46.067 F3000.
N4720 G01 X495.
N4725 G02 X523. Y294.9 J-28.
N4730 G01 Y245.
N4735 G02 X497.955 Y217.157 I-28.
N4740 G03 X345.742 Y115.487 I20.789 J-195.901
N4745 G01 Z-16.5
N4750 G03 X340.325 Y104.779 I173.002 J-94.231
N4755 G01 Z-18. F333.
N4760 G03 X322.843 Y42.045 I178.419 J-83.523 F3000.
N4765 G02 X295. Y17. I-27.843 J2.955
N4770 G01 X270.
N4775 G03 X269.4 Y16.4 J-0.6 F1500.
N4780 G01 Y15.8
N4785 G19 G02 Y15.2 Z-17.4 K0.6
N4790 G00 Z15.
N4795 G17

N4800 G28 G91 Z0.
N4805 G90
N4810 G49
N4815 G28 G91 X0. Y0.
N4820 G90
N4825 M30
%
